(Generated by PartKam Version 0.05)

G21 G90 G40

(cutout)
G0 Z5
T0 M6
G17
M3
G0 X53.352030456852795 Y73.13147208121828
G1 Z-0.5 F80
G3 X39.370558375634516 Y75.91370558375634 I-13.98223350253807 J-33.743654822335024 F150
G3 X25.388324873096447 Y73.13197969543147 I0 J-36.525380710659896
G3 X13.532994923857869 Y65.20812182741116 I13.987309644670052 J-33.756345177664976
G3 X5.611675126903553 Y53.350253807106604 I25.850253807106597 J-25.84263959390863
G3 X2.8324873096446703 Y39.36548223350254 I33.76903553299493 J-13.98477157360406
G3 X5.614213197969543 Y25.383248730964464 I36.54314720812182 J0
G3 X13.532994923857869 Y13.530456852791879 I33.753807106598984 J13.97969543147208
G3 X25.385786802030456 Y5.609137055837563 I25.83248730964467 J25.83248730964467
G3 X39.370558375634516 Y2.8274111675126905 I13.98477157360406 J33.76142131979695
G3 X53.35279187817258 Y5.609137055837563 I0 J36.54314720812182
G3 X65.20812182741116 Y13.530456852791879 I-13.97969543147208 J33.753807106598984
G3 X73.1269035532995 Y25.383248730964464 I-25.83248730964467 J25.83248730964467
G3 X75.90862944162437 Y39.36548223350254 I-33.76142131979695 J13.98477157360406
G3 X73.1269035532995 Y53.350253807106604 I-36.5507614213198 J0
G3 X65.20558375634518 Y65.20812182741116 I-33.76903553299493 J-13.98477157360406
G3 X53.35279187817258 Y73.13197969543147 I-25.84263959390863 J-25.83502538071066
G1 Z-1 F80
G3 X39.370558375634516 Y75.91370558375634 I-13.98223350253807 J-33.743654822335024 F150
G3 X25.388324873096447 Y73.13197969543147 I0 J-36.525380710659896
G3 X13.532994923857869 Y65.20812182741116 I13.987309644670052 J-33.756345177664976
G3 X5.611675126903553 Y53.350253807106604 I25.850253807106597 J-25.84263959390863
G3 X2.8324873096446703 Y39.36548223350254 I33.76903553299493 J-13.98477157360406
G3 X5.614213197969543 Y25.383248730964464 I36.54314720812182 J0
G3 X13.532994923857869 Y13.530456852791879 I33.753807106598984 J13.97969543147208
G3 X25.385786802030456 Y5.609137055837563 I25.83248730964467 J25.83248730964467
G3 X39.370558375634516 Y2.8274111675126905 I13.98477157360406 J33.76142131979695
G3 X53.35279187817258 Y5.609137055837563 I0 J36.54314720812182
G3 X65.20812182741116 Y13.530456852791879 I-13.97969543147208 J33.753807106598984
G3 X73.1269035532995 Y25.383248730964464 I-25.83248730964467 J25.83248730964467
G3 X75.90862944162437 Y39.36548223350254 I-33.76142131979695 J13.98477157360406
G3 X73.1269035532995 Y53.350253807106604 I-36.5507614213198 J0
G3 X65.20558375634518 Y65.20812182741116 I-33.76903553299493 J-13.98477157360406
G3 X53.35279187817258 Y73.13197969543147 I-25.84263959390863 J-25.83502538071066
G1 Z-1.5 F80
G3 X39.370558375634516 Y75.91370558375634 I-13.98223350253807 J-33.743654822335024 F150
G3 X25.388324873096447 Y73.13197969543147 I0 J-36.525380710659896
G3 X13.532994923857869 Y65.20812182741116 I13.987309644670052 J-33.756345177664976
G3 X5.611675126903553 Y53.350253807106604 I25.850253807106597 J-25.84263959390863
G3 X2.8324873096446703 Y39.36548223350254 I33.76903553299493 J-13.98477157360406
G3 X5.614213197969543 Y25.383248730964464 I36.54314720812182 J0
G3 X13.532994923857869 Y13.530456852791879 I33.753807106598984 J13.97969543147208
G3 X25.385786802030456 Y5.609137055837563 I25.83248730964467 J25.83248730964467
G3 X39.370558375634516 Y2.8274111675126905 I13.98477157360406 J33.76142131979695
G3 X53.35279187817258 Y5.609137055837563 I0 J36.54314720812182
G3 X65.20812182741116 Y13.530456852791879 I-13.97969543147208 J33.753807106598984
G3 X73.1269035532995 Y25.383248730964464 I-25.83248730964467 J25.83248730964467
G3 X75.90862944162437 Y39.36548223350254 I-33.76142131979695 J13.98477157360406
G3 X73.1269035532995 Y53.350253807106604 I-36.5507614213198 J0
G3 X65.20558375634518 Y65.20812182741116 I-33.76903553299493 J-13.98477157360406
G3 X53.35279187817258 Y73.13197969543147 I-25.84263959390863 J-25.83502538071066
G1 Z-2 F80
G3 X39.370558375634516 Y75.91370558375634 I-13.98223350253807 J-33.743654822335024 F150
G3 X25.388324873096447 Y73.13197969543147 I0 J-36.525380710659896
G3 X13.532994923857869 Y65.20812182741116 I13.987309644670052 J-33.756345177664976
G3 X5.611675126903553 Y53.350253807106604 I25.850253807106597 J-25.84263959390863
G3 X2.8324873096446703 Y39.36548223350254 I33.76903553299493 J-13.98477157360406
G3 X5.614213197969543 Y25.383248730964464 I36.54314720812182 J0
G3 X13.532994923857869 Y13.530456852791879 I33.753807106598984 J13.97969543147208
G3 X25.385786802030456 Y5.609137055837563 I25.83248730964467 J25.83248730964467
G3 X39.370558375634516 Y2.8274111675126905 I13.98477157360406 J33.76142131979695
G3 X53.35279187817258 Y5.609137055837563 I0 J36.54314720812182
G3 X65.20812182741116 Y13.530456852791879 I-13.97969543147208 J33.753807106598984
G3 X73.1269035532995 Y25.383248730964464 I-25.83248730964467 J25.83248730964467
G3 X75.90862944162437 Y39.36548223350254 I-33.76142131979695 J13.98477157360406
G3 X73.1269035532995 Y53.350253807106604 I-36.5507614213198 J0
G3 X65.20558375634518 Y65.20812182741116 I-33.76903553299493 J-13.98477157360406
G3 X53.35279187817258 Y73.13197969543147 I-25.84263959390863 J-25.83502538071066
G1 Z-2.5 F80
G3 X39.370558375634516 Y75.91370558375634 I-13.98223350253807 J-33.743654822335024 F150
G3 X25.388324873096447 Y73.13197969543147 I0 J-36.525380710659896
G3 X13.532994923857869 Y65.20812182741116 I13.987309644670052 J-33.756345177664976
G3 X5.611675126903553 Y53.350253807106604 I25.850253807106597 J-25.84263959390863
G3 X2.8324873096446703 Y39.36548223350254 I33.76903553299493 J-13.98477157360406
G3 X5.614213197969543 Y25.383248730964464 I36.54314720812182 J0
G3 X13.532994923857869 Y13.530456852791879 I33.753807106598984 J13.97969543147208
G3 X25.385786802030456 Y5.609137055837563 I25.83248730964467 J25.83248730964467
G3 X39.370558375634516 Y2.8274111675126905 I13.98477157360406 J33.76142131979695
G3 X53.35279187817258 Y5.609137055837563 I0 J36.54314720812182
G3 X65.20812182741116 Y13.530456852791879 I-13.97969543147208 J33.753807106598984
G3 X73.1269035532995 Y25.383248730964464 I-25.83248730964467 J25.83248730964467
G3 X75.90862944162437 Y39.36548223350254 I-33.76142131979695 J13.98477157360406
G3 X73.1269035532995 Y53.350253807106604 I-36.5507614213198 J0
G3 X65.20558375634518 Y65.20812182741116 I-33.76903553299493 J-13.98477157360406
G3 X53.35279187817258 Y73.13197969543147 I-25.84263959390863 J-25.83502538071066
G1 Z-3 F80
G3 X39.370558375634516 Y75.91370558375634 I-13.98223350253807 J-33.743654822335024 F150
G3 X25.388324873096447 Y73.13197969543147 I0 J-36.525380710659896
G3 X13.532994923857869 Y65.20812182741116 I13.987309644670052 J-33.756345177664976
G3 X5.611675126903553 Y53.350253807106604 I25.850253807106597 J-25.84263959390863
G3 X2.8324873096446703 Y39.36548223350254 I33.76903553299493 J-13.98477157360406
G3 X5.614213197969543 Y25.383248730964464 I36.54314720812182 J0
G3 X13.532994923857869 Y13.530456852791879 I33.753807106598984 J13.97969543147208
G3 X25.385786802030456 Y5.609137055837563 I25.83248730964467 J25.83248730964467
G3 X39.370558375634516 Y2.8274111675126905 I13.98477157360406 J33.76142131979695
G3 X53.35279187817258 Y5.609137055837563 I0 J36.54314720812182
G3 X65.20812182741116 Y13.530456852791879 I-13.97969543147208 J33.753807106598984
G3 X73.1269035532995 Y25.383248730964464 I-25.83248730964467 J25.83248730964467
G3 X75.90862944162437 Y39.36548223350254 I-33.76142131979695 J13.98477157360406
G3 X73.1269035532995 Y53.350253807106604 I-36.5507614213198 J0
G3 X65.20558375634518 Y65.20812182741116 I-33.76903553299493 J-13.98477157360406
G3 X53.35279187817258 Y73.13197969543147 I-25.84263959390863 J-25.83502538071066
G0 Z5
G0 X54.5241116751269 Y2.780710659898477
G1 Z-0.5 F80
G3 X59.01015228426396 Y4.979695431472082 I-15.15482233502538 J36.58629441624365 F150
G3 X67.37055837563452 Y11.365482233502537 I-19.64213197969543 J34.38578680203045
G3 X75.95685279187818 Y24.213197969543145 I-28.00253807106599 J28.00253807106599
G3 X78.96954314720813 Y39.36548223350254 I-36.58375634517767 J15.15482233502538
G3 X78.8274111675127 Y42.71065989847716 I-39.598984771573605 J0
G3 X78.09390862944163 Y47.652284263959395 I-39.45685279187818 J-3.3426395939086295
G3 X75.95685279187818 Y54.52030456852792 I-38.723350253807105 J-8.286802030456853
G3 X67.37055837563452 Y67.36802030456853 I-36.58629441624365 J-15.15482233502538
G3 X54.52284263959391 Y75.9517766497462 I-28.00253807106599 J-28.00253807106599
G3 X48.152284263959395 Y77.97969543147208 I-15.15482233502538 J-36.58375634517767
G3 X43.22081218274111 Y78.77918781725889 I-8.781725888324873 J-38.611675126903556
G3 X39.370558375634516 Y78.96700507614213 I-3.850253807106599 J-39.411167512690355
G3 X24.215736040609137 Y75.9517766497462 I0 J-39.598984771573605
G3 X11.368020304568526 Y67.36802030456853 I15.15482233502538 J-36.58629441624365
G3 X5.238578680203045 Y59.44670050761421 I28.00253807106599 J-28.00253807106599
G3 X2.9822335025380706 Y54.98984771573604 I34.131979695431475 J-20.081218274111677
G3 X2.784263959390863 Y54.52030456852792 I36.388324873096444 J-15.624365482233502
G3 X-0.23096446700507614 Y39.36548223350254 I36.58375634517767 J-15.15482233502538
G3 X2.784263959390863 Y24.213197969543145 I39.598984771573605 J0
G3 X11.368020304568526 Y11.365482233502537 I36.58629441624365 J15.15482233502538
G3 X24.215736040609137 Y2.781725888324873 I28.00253807106599 J28.00253807106599
G3 X39.370558375634516 Y-0.23350253807106597 I15.15482233502538 J36.58375634517767
G3 X54.52284263959391 Y2.781725888324873 I0 J39.598984771573605
G1 Z-1 F80
G3 X59.01015228426396 Y4.979695431472082 I-15.15482233502538 J36.58629441624365 F150
G3 X67.37055837563452 Y11.365482233502537 I-19.64213197969543 J34.38578680203045
G3 X75.95685279187818 Y24.213197969543145 I-28.00253807106599 J28.00253807106599
G3 X78.96954314720813 Y39.36548223350254 I-36.58375634517767 J15.15482233502538
G3 X78.8274111675127 Y42.71065989847716 I-39.598984771573605 J0
G3 X78.09390862944163 Y47.652284263959395 I-39.45685279187818 J-3.3426395939086295
G3 X75.95685279187818 Y54.52030456852792 I-38.723350253807105 J-8.286802030456853
G3 X67.37055837563452 Y67.36802030456853 I-36.58629441624365 J-15.15482233502538
G3 X54.52284263959391 Y75.9517766497462 I-28.00253807106599 J-28.00253807106599
G3 X48.152284263959395 Y77.97969543147208 I-15.15482233502538 J-36.58375634517767
G3 X43.22081218274111 Y78.77918781725889 I-8.781725888324873 J-38.611675126903556
G3 X39.370558375634516 Y78.96700507614213 I-3.850253807106599 J-39.411167512690355
G3 X24.215736040609137 Y75.9517766497462 I0 J-39.598984771573605
G3 X11.368020304568526 Y67.36802030456853 I15.15482233502538 J-36.58629441624365
G3 X5.238578680203045 Y59.44670050761421 I28.00253807106599 J-28.00253807106599
G3 X2.9822335025380706 Y54.98984771573604 I34.131979695431475 J-20.081218274111677
G3 X2.784263959390863 Y54.52030456852792 I36.388324873096444 J-15.624365482233502
G3 X-0.23096446700507614 Y39.36548223350254 I36.58375634517767 J-15.15482233502538
G3 X2.784263959390863 Y24.213197969543145 I39.598984771573605 J0
G3 X11.368020304568526 Y11.365482233502537 I36.58629441624365 J15.15482233502538
G3 X24.215736040609137 Y2.781725888324873 I28.00253807106599 J28.00253807106599
G3 X39.370558375634516 Y-0.23350253807106597 I15.15482233502538 J36.58375634517767
G3 X54.52284263959391 Y2.781725888324873 I0 J39.598984771573605
G1 Z-1.5 F80
G3 X59.01015228426396 Y4.979695431472082 I-15.15482233502538 J36.58629441624365 F150
G3 X67.37055837563452 Y11.365482233502537 I-19.64213197969543 J34.38578680203045
G3 X75.95685279187818 Y24.213197969543145 I-28.00253807106599 J28.00253807106599
G3 X78.96954314720813 Y39.36548223350254 I-36.58375634517767 J15.15482233502538
G3 X78.8274111675127 Y42.71065989847716 I-39.598984771573605 J0
G3 X78.09390862944163 Y47.652284263959395 I-39.45685279187818 J-3.3426395939086295
G3 X75.95685279187818 Y54.52030456852792 I-38.723350253807105 J-8.286802030456853
G3 X67.37055837563452 Y67.36802030456853 I-36.58629441624365 J-15.15482233502538
G3 X54.52284263959391 Y75.9517766497462 I-28.00253807106599 J-28.00253807106599
G3 X48.152284263959395 Y77.97969543147208 I-15.15482233502538 J-36.58375634517767
G3 X43.22081218274111 Y78.77918781725889 I-8.781725888324873 J-38.611675126903556
G3 X39.370558375634516 Y78.96700507614213 I-3.850253807106599 J-39.411167512690355
G3 X24.215736040609137 Y75.9517766497462 I0 J-39.598984771573605
G3 X11.368020304568526 Y67.36802030456853 I15.15482233502538 J-36.58629441624365
G3 X5.238578680203045 Y59.44670050761421 I28.00253807106599 J-28.00253807106599
G3 X2.9822335025380706 Y54.98984771573604 I34.131979695431475 J-20.081218274111677
G3 X2.784263959390863 Y54.52030456852792 I36.388324873096444 J-15.624365482233502
G3 X-0.23096446700507614 Y39.36548223350254 I36.58375634517767 J-15.15482233502538
G3 X2.784263959390863 Y24.213197969543145 I39.598984771573605 J0
G3 X11.368020304568526 Y11.365482233502537 I36.58629441624365 J15.15482233502538
G3 X24.215736040609137 Y2.781725888324873 I28.00253807106599 J28.00253807106599
G3 X39.370558375634516 Y-0.23350253807106597 I15.15482233502538 J36.58375634517767
G3 X54.52284263959391 Y2.781725888324873 I0 J39.598984771573605
G1 Z-2 F80
G3 X59.01015228426396 Y4.979695431472082 I-15.15482233502538 J36.58629441624365 F150
G3 X67.37055837563452 Y11.365482233502537 I-19.64213197969543 J34.38578680203045
G3 X75.95685279187818 Y24.213197969543145 I-28.00253807106599 J28.00253807106599
G3 X78.96954314720813 Y39.36548223350254 I-36.58375634517767 J15.15482233502538
G3 X78.8274111675127 Y42.71065989847716 I-39.598984771573605 J0
G3 X78.09390862944163 Y47.652284263959395 I-39.45685279187818 J-3.3426395939086295
G3 X75.95685279187818 Y54.52030456852792 I-38.723350253807105 J-8.286802030456853
G3 X67.37055837563452 Y67.36802030456853 I-36.58629441624365 J-15.15482233502538
G3 X54.52284263959391 Y75.9517766497462 I-28.00253807106599 J-28.00253807106599
G3 X48.152284263959395 Y77.97969543147208 I-15.15482233502538 J-36.58375634517767
G3 X43.22081218274111 Y78.77918781725889 I-8.781725888324873 J-38.611675126903556
G3 X39.370558375634516 Y78.96700507614213 I-3.850253807106599 J-39.411167512690355
G3 X24.215736040609137 Y75.9517766497462 I0 J-39.598984771573605
G3 X11.368020304568526 Y67.36802030456853 I15.15482233502538 J-36.58629441624365
G3 X5.238578680203045 Y59.44670050761421 I28.00253807106599 J-28.00253807106599
G3 X2.9822335025380706 Y54.98984771573604 I34.131979695431475 J-20.081218274111677
G3 X2.784263959390863 Y54.52030456852792 I36.388324873096444 J-15.624365482233502
G3 X-0.23096446700507614 Y39.36548223350254 I36.58375634517767 J-15.15482233502538
G3 X2.784263959390863 Y24.213197969543145 I39.598984771573605 J0
G3 X11.368020304568526 Y11.365482233502537 I36.58629441624365 J15.15482233502538
G3 X24.215736040609137 Y2.781725888324873 I28.00253807106599 J28.00253807106599
G3 X39.370558375634516 Y-0.23350253807106597 I15.15482233502538 J36.58375634517767
G3 X54.52284263959391 Y2.781725888324873 I0 J39.598984771573605
G1 Z-2.5 F80
G3 X59.01015228426396 Y4.979695431472082 I-15.15482233502538 J36.58629441624365 F150
G3 X67.37055837563452 Y11.365482233502537 I-19.64213197969543 J34.38578680203045
G3 X75.95685279187818 Y24.213197969543145 I-28.00253807106599 J28.00253807106599
G3 X78.96954314720813 Y39.36548223350254 I-36.58375634517767 J15.15482233502538
G3 X78.8274111675127 Y42.71065989847716 I-39.598984771573605 J0
G3 X78.09390862944163 Y47.652284263959395 I-39.45685279187818 J-3.3426395939086295
G3 X75.95685279187818 Y54.52030456852792 I-38.723350253807105 J-8.286802030456853
G3 X67.37055837563452 Y67.36802030456853 I-36.58629441624365 J-15.15482233502538
G3 X54.52284263959391 Y75.9517766497462 I-28.00253807106599 J-28.00253807106599
G3 X48.152284263959395 Y77.97969543147208 I-15.15482233502538 J-36.58375634517767
G3 X43.22081218274111 Y78.77918781725889 I-8.781725888324873 J-38.611675126903556
G3 X39.370558375634516 Y78.96700507614213 I-3.850253807106599 J-39.411167512690355
G3 X24.215736040609137 Y75.9517766497462 I0 J-39.598984771573605
G3 X11.368020304568526 Y67.36802030456853 I15.15482233502538 J-36.58629441624365
G3 X5.238578680203045 Y59.44670050761421 I28.00253807106599 J-28.00253807106599
G3 X2.9822335025380706 Y54.98984771573604 I34.131979695431475 J-20.081218274111677
G3 X2.784263959390863 Y54.52030456852792 I36.388324873096444 J-15.624365482233502
G3 X-0.23096446700507614 Y39.36548223350254 I36.58375634517767 J-15.15482233502538
G3 X2.784263959390863 Y24.213197969543145 I39.598984771573605 J0
G3 X11.368020304568526 Y11.365482233502537 I36.58629441624365 J15.15482233502538
G3 X24.215736040609137 Y2.781725888324873 I28.00253807106599 J28.00253807106599
G3 X39.370558375634516 Y-0.23350253807106597 I15.15482233502538 J36.58375634517767
G3 X54.52284263959391 Y2.781725888324873 I0 J39.598984771573605
G1 Z-3 F80
G1 Z-2.8 F80
G3 X59.01015228426396 Y4.979695431472082 I-15.15482233502538 J36.58629441624365 F150
G1 Z-3 F80
G3 X67.37055837563452 Y11.365482233502537 I-19.64213197969543 J34.38578680203045 F150
G3 X75.95685279187818 Y24.213197969543145 I-28.00253807106599 J28.00253807106599
G3 X78.96954314720813 Y39.36548223350254 I-36.58375634517767 J15.15482233502538
G3 X78.8274111675127 Y42.71065989847716 I-39.598984771573605 J0
G1 Z-2.8 F80
G3 X78.09390862944163 Y47.652284263959395 I-39.45685279187818 J-3.3426395939086295 F150
G1 Z-3 F80
G3 X75.95685279187818 Y54.52030456852792 I-38.723350253807105 J-8.286802030456853 F150
G3 X67.37055837563452 Y67.36802030456853 I-36.58629441624365 J-15.15482233502538
G3 X54.52284263959391 Y75.9517766497462 I-28.00253807106599 J-28.00253807106599
G3 X48.152284263959395 Y77.97969543147208 I-15.15482233502538 J-36.58375634517767
G1 Z-2.8 F80
G3 X43.22081218274111 Y78.77918781725889 I-8.781725888324873 J-38.611675126903556 F150
G1 Z-3 F80
G3 X39.370558375634516 Y78.96700507614213 I-3.850253807106599 J-39.411167512690355 F150
G3 X24.215736040609137 Y75.9517766497462 I0 J-39.598984771573605
G3 X11.368020304568526 Y67.36802030456853 I15.15482233502538 J-36.58629441624365
G3 X5.238578680203045 Y59.44670050761421 I28.00253807106599 J-28.00253807106599
G1 Z-2.8 F80
G3 X2.9822335025380706 Y54.98984771573604 I34.131979695431475 J-20.081218274111677 F150
G1 Z-3 F80
G3 X2.784263959390863 Y54.52030456852792 I36.388324873096444 J-15.624365482233502 F150
G3 X-0.23096446700507614 Y39.36548223350254 I36.58375634517767 J-15.15482233502538
G3 X2.784263959390863 Y24.213197969543145 I39.598984771573605 J0
G3 X11.368020304568526 Y11.365482233502537 I36.58629441624365 J15.15482233502538
G3 X24.215736040609137 Y2.781725888324873 I28.00253807106599 J28.00253807106599
G3 X39.370558375634516 Y-0.23350253807106597 I15.15482233502538 J36.58375634517767
G3 X54.52284263959391 Y2.781725888324873 I0 J39.598984771573605
G0 Z5
M5
M30
