(Modified by metric-gcode-truncator. Intended for use in absolute mode. Incremental mode may cause errors.)(Generated by PartKam Version 0.05)

G21 G90 G40

(cutout)
G0 Z5
T0 M6
G17
M3
G0 X53.3520 Y73.1314
G1 Z-0.5 F80
G3 X39.3705 Y75.9137 I-13.9822 J-33.7436 F150
G3 X25.3883 Y73.1319 I0 J-36.5253
G3 X13.5329 Y65.2081 I13.9873 J-33.7563
G3 X5.6116 Y53.3502 I25.8502 J-25.8426
G3 X2.8324 Y39.3654 I33.7690 J-13.9847
G3 X5.6142 Y25.3832 I36.5431 J0
G3 X13.5329 Y13.5304 I33.7538 J13.9796
G3 X25.3857 Y5.6091 I25.8324 J25.8324
G3 X39.3705 Y2.8274 I13.9847 J33.7614
G3 X53.3527 Y5.6091 I0 J36.5431
G3 X65.2081 Y13.5304 I-13.9796 J33.7538
G3 X73.1269 Y25.3832 I-25.8324 J25.8324
G3 X75.9086 Y39.3654 I-33.7614 J13.9847
G3 X73.1269 Y53.3502 I-36.5507 J0
G3 X65.2055 Y65.2081 I-33.7690 J-13.9847
G3 X53.3527 Y73.1319 I-25.8426 J-25.8350
G1 Z-1 F80
G3 X39.3705 Y75.9137 I-13.9822 J-33.7436 F150
G3 X25.3883 Y73.1319 I0 J-36.5253
G3 X13.5329 Y65.2081 I13.9873 J-33.7563
G3 X5.6116 Y53.3502 I25.8502 J-25.8426
G3 X2.8324 Y39.3654 I33.7690 J-13.9847
G3 X5.6142 Y25.3832 I36.5431 J0
G3 X13.5329 Y13.5304 I33.7538 J13.9796
G3 X25.3857 Y5.6091 I25.8324 J25.8324
G3 X39.3705 Y2.8274 I13.9847 J33.7614
G3 X53.3527 Y5.6091 I0 J36.5431
G3 X65.2081 Y13.5304 I-13.9796 J33.7538
G3 X73.1269 Y25.3832 I-25.8324 J25.8324
G3 X75.9086 Y39.3654 I-33.7614 J13.9847
G3 X73.1269 Y53.3502 I-36.5507 J0
G3 X65.2055 Y65.2081 I-33.7690 J-13.9847
G3 X53.3527 Y73.1319 I-25.8426 J-25.8350
G1 Z-1.5 F80
G3 X39.3705 Y75.9137 I-13.9822 J-33.7436 F150
G3 X25.3883 Y73.1319 I0 J-36.5253
G3 X13.5329 Y65.2081 I13.9873 J-33.7563
G3 X5.6116 Y53.3502 I25.8502 J-25.8426
G3 X2.8324 Y39.3654 I33.7690 J-13.9847
G3 X5.6142 Y25.3832 I36.5431 J0
G3 X13.5329 Y13.5304 I33.7538 J13.9796
G3 X25.3857 Y5.6091 I25.8324 J25.8324
G3 X39.3705 Y2.8274 I13.9847 J33.7614
G3 X53.3527 Y5.6091 I0 J36.5431
G3 X65.2081 Y13.5304 I-13.9796 J33.7538
G3 X73.1269 Y25.3832 I-25.8324 J25.8324
G3 X75.9086 Y39.3654 I-33.7614 J13.9847
G3 X73.1269 Y53.3502 I-36.5507 J0
G3 X65.2055 Y65.2081 I-33.7690 J-13.9847
G3 X53.3527 Y73.1319 I-25.8426 J-25.8350
G1 Z-2 F80
G3 X39.3705 Y75.9137 I-13.9822 J-33.7436 F150
G3 X25.3883 Y73.1319 I0 J-36.5253
G3 X13.5329 Y65.2081 I13.9873 J-33.7563
G3 X5.6116 Y53.3502 I25.8502 J-25.8426
G3 X2.8324 Y39.3654 I33.7690 J-13.9847
G3 X5.6142 Y25.3832 I36.5431 J0
G3 X13.5329 Y13.5304 I33.7538 J13.9796
G3 X25.3857 Y5.6091 I25.8324 J25.8324
G3 X39.3705 Y2.8274 I13.9847 J33.7614
G3 X53.3527 Y5.6091 I0 J36.5431
G3 X65.2081 Y13.5304 I-13.9796 J33.7538
G3 X73.1269 Y25.3832 I-25.8324 J25.8324
G3 X75.9086 Y39.3654 I-33.7614 J13.9847
G3 X73.1269 Y53.3502 I-36.5507 J0
G3 X65.2055 Y65.2081 I-33.7690 J-13.9847
G3 X53.3527 Y73.1319 I-25.8426 J-25.8350
G1 Z-2.5 F80
G3 X39.3705 Y75.9137 I-13.9822 J-33.7436 F150
G3 X25.3883 Y73.1319 I0 J-36.5253
G3 X13.5329 Y65.2081 I13.9873 J-33.7563
G3 X5.6116 Y53.3502 I25.8502 J-25.8426
G3 X2.8324 Y39.3654 I33.7690 J-13.9847
G3 X5.6142 Y25.3832 I36.5431 J0
G3 X13.5329 Y13.5304 I33.7538 J13.9796
G3 X25.3857 Y5.6091 I25.8324 J25.8324
G3 X39.3705 Y2.8274 I13.9847 J33.7614
G3 X53.3527 Y5.6091 I0 J36.5431
G3 X65.2081 Y13.5304 I-13.9796 J33.7538
G3 X73.1269 Y25.3832 I-25.8324 J25.8324
G3 X75.9086 Y39.3654 I-33.7614 J13.9847
G3 X73.1269 Y53.3502 I-36.5507 J0
G3 X65.2055 Y65.2081 I-33.7690 J-13.9847
G3 X53.3527 Y73.1319 I-25.8426 J-25.8350
G1 Z-3 F80
G3 X39.3705 Y75.9137 I-13.9822 J-33.7436 F150
G3 X25.3883 Y73.1319 I0 J-36.5253
G3 X13.5329 Y65.2081 I13.9873 J-33.7563
G3 X5.6116 Y53.3502 I25.8502 J-25.8426
G3 X2.8324 Y39.3654 I33.7690 J-13.9847
G3 X5.6142 Y25.3832 I36.5431 J0
G3 X13.5329 Y13.5304 I33.7538 J13.9796
G3 X25.3857 Y5.6091 I25.8324 J25.8324
G3 X39.3705 Y2.8274 I13.9847 J33.7614
G3 X53.3527 Y5.6091 I0 J36.5431
G3 X65.2081 Y13.5304 I-13.9796 J33.7538
G3 X73.1269 Y25.3832 I-25.8324 J25.8324
G3 X75.9086 Y39.3654 I-33.7614 J13.9847
G3 X73.1269 Y53.3502 I-36.5507 J0
G3 X65.2055 Y65.2081 I-33.7690 J-13.9847
G3 X53.3527 Y73.1319 I-25.8426 J-25.8350
G0 Z5
G0 X54.5241 Y2.7807
G1 Z-0.5 F80
G3 X59.0101 Y4.9796 I-15.1548 J36.5862 F150
G3 X67.3705 Y11.3654 I-19.6421 J34.3857
G3 X75.9568 Y24.2131 I-28.0025 J28.0025
G3 X78.9695 Y39.3654 I-36.5837 J15.1548
G3 X78.8274 Y42.7106 I-39.5989 J0
G3 X78.0939 Y47.6522 I-39.4568 J-3.3426
G3 X75.9568 Y54.5203 I-38.7233 J-8.2868
G3 X67.3705 Y67.3680 I-36.5862 J-15.1548
G3 X54.5228 Y75.9517 I-28.0025 J-28.0025
G3 X48.1522 Y77.9796 I-15.1548 J-36.5837
G3 X43.2208 Y78.7791 I-8.7817 J-38.6116
G3 X39.3705 Y78.9670 I-3.8502 J-39.4111
G3 X24.2157 Y75.9517 I0 J-39.5989
G3 X11.3680 Y67.3680 I15.1548 J-36.5862
G3 X5.2385 Y59.4467 I28.0025 J-28.0025
G3 X2.9822 Y54.9898 I34.1319 J-20.0812
G3 X2.7842 Y54.5203 I36.3883 J-15.6243
G3 X-0.2309 Y39.3654 I36.5837 J-15.1548
G3 X2.7842 Y24.2131 I39.5989 J0
G3 X11.3680 Y11.3654 I36.5862 J15.1548
G3 X24.2157 Y2.7817 I28.0025 J28.0025
G3 X39.3705 Y-0.2335 I15.1548 J36.5837
G3 X54.5228 Y2.7817 I0 J39.5989
G1 Z-1 F80
G3 X59.0101 Y4.9796 I-15.1548 J36.5862 F150
G3 X67.3705 Y11.3654 I-19.6421 J34.3857
G3 X75.9568 Y24.2131 I-28.0025 J28.0025
G3 X78.9695 Y39.3654 I-36.5837 J15.1548
G3 X78.8274 Y42.7106 I-39.5989 J0
G3 X78.0939 Y47.6522 I-39.4568 J-3.3426
G3 X75.9568 Y54.5203 I-38.7233 J-8.2868
G3 X67.3705 Y67.3680 I-36.5862 J-15.1548
G3 X54.5228 Y75.9517 I-28.0025 J-28.0025
G3 X48.1522 Y77.9796 I-15.1548 J-36.5837
G3 X43.2208 Y78.7791 I-8.7817 J-38.6116
G3 X39.3705 Y78.9670 I-3.8502 J-39.4111
G3 X24.2157 Y75.9517 I0 J-39.5989
G3 X11.3680 Y67.3680 I15.1548 J-36.5862
G3 X5.2385 Y59.4467 I28.0025 J-28.0025
G3 X2.9822 Y54.9898 I34.1319 J-20.0812
G3 X2.7842 Y54.5203 I36.3883 J-15.6243
G3 X-0.2309 Y39.3654 I36.5837 J-15.1548
G3 X2.7842 Y24.2131 I39.5989 J0
G3 X11.3680 Y11.3654 I36.5862 J15.1548
G3 X24.2157 Y2.7817 I28.0025 J28.0025
G3 X39.3705 Y-0.2335 I15.1548 J36.5837
G3 X54.5228 Y2.7817 I0 J39.5989
G1 Z-1.5 F80
G3 X59.0101 Y4.9796 I-15.1548 J36.5862 F150
G3 X67.3705 Y11.3654 I-19.6421 J34.3857
G3 X75.9568 Y24.2131 I-28.0025 J28.0025
G3 X78.9695 Y39.3654 I-36.5837 J15.1548
G3 X78.8274 Y42.7106 I-39.5989 J0
G3 X78.0939 Y47.6522 I-39.4568 J-3.3426
G3 X75.9568 Y54.5203 I-38.7233 J-8.2868
G3 X67.3705 Y67.3680 I-36.5862 J-15.1548
G3 X54.5228 Y75.9517 I-28.0025 J-28.0025
G3 X48.1522 Y77.9796 I-15.1548 J-36.5837
G3 X43.2208 Y78.7791 I-8.7817 J-38.6116
G3 X39.3705 Y78.9670 I-3.8502 J-39.4111
G3 X24.2157 Y75.9517 I0 J-39.5989
G3 X11.3680 Y67.3680 I15.1548 J-36.5862
G3 X5.2385 Y59.4467 I28.0025 J-28.0025
G3 X2.9822 Y54.9898 I34.1319 J-20.0812
G3 X2.7842 Y54.5203 I36.3883 J-15.6243
G3 X-0.2309 Y39.3654 I36.5837 J-15.1548
G3 X2.7842 Y24.2131 I39.5989 J0
G3 X11.3680 Y11.3654 I36.5862 J15.1548
G3 X24.2157 Y2.7817 I28.0025 J28.0025
G3 X39.3705 Y-0.2335 I15.1548 J36.5837
G3 X54.5228 Y2.7817 I0 J39.5989
G1 Z-2 F80
G3 X59.0101 Y4.9796 I-15.1548 J36.5862 F150
G3 X67.3705 Y11.3654 I-19.6421 J34.3857
G3 X75.9568 Y24.2131 I-28.0025 J28.0025
G3 X78.9695 Y39.3654 I-36.5837 J15.1548
G3 X78.8274 Y42.7106 I-39.5989 J0
G3 X78.0939 Y47.6522 I-39.4568 J-3.3426
G3 X75.9568 Y54.5203 I-38.7233 J-8.2868
G3 X67.3705 Y67.3680 I-36.5862 J-15.1548
G3 X54.5228 Y75.9517 I-28.0025 J-28.0025
G3 X48.1522 Y77.9796 I-15.1548 J-36.5837
G3 X43.2208 Y78.7791 I-8.7817 J-38.6116
G3 X39.3705 Y78.9670 I-3.8502 J-39.4111
G3 X24.2157 Y75.9517 I0 J-39.5989
G3 X11.3680 Y67.3680 I15.1548 J-36.5862
G3 X5.2385 Y59.4467 I28.0025 J-28.0025
G3 X2.9822 Y54.9898 I34.1319 J-20.0812
G3 X2.7842 Y54.5203 I36.3883 J-15.6243
G3 X-0.2309 Y39.3654 I36.5837 J-15.1548
G3 X2.7842 Y24.2131 I39.5989 J0
G3 X11.3680 Y11.3654 I36.5862 J15.1548
G3 X24.2157 Y2.7817 I28.0025 J28.0025
G3 X39.3705 Y-0.2335 I15.1548 J36.5837
G3 X54.5228 Y2.7817 I0 J39.5989
G1 Z-2.5 F80
G3 X59.0101 Y4.9796 I-15.1548 J36.5862 F150
G3 X67.3705 Y11.3654 I-19.6421 J34.3857
G3 X75.9568 Y24.2131 I-28.0025 J28.0025
G3 X78.9695 Y39.3654 I-36.5837 J15.1548
G3 X78.8274 Y42.7106 I-39.5989 J0
G3 X78.0939 Y47.6522 I-39.4568 J-3.3426
G3 X75.9568 Y54.5203 I-38.7233 J-8.2868
G3 X67.3705 Y67.3680 I-36.5862 J-15.1548
G3 X54.5228 Y75.9517 I-28.0025 J-28.0025
G3 X48.1522 Y77.9796 I-15.1548 J-36.5837
G3 X43.2208 Y78.7791 I-8.7817 J-38.6116
G3 X39.3705 Y78.9670 I-3.8502 J-39.4111
G3 X24.2157 Y75.9517 I0 J-39.5989
G3 X11.3680 Y67.3680 I15.1548 J-36.5862
G3 X5.2385 Y59.4467 I28.0025 J-28.0025
G3 X2.9822 Y54.9898 I34.1319 J-20.0812
G3 X2.7842 Y54.5203 I36.3883 J-15.6243
G3 X-0.2309 Y39.3654 I36.5837 J-15.1548
G3 X2.7842 Y24.2131 I39.5989 J0
G3 X11.3680 Y11.3654 I36.5862 J15.1548
G3 X24.2157 Y2.7817 I28.0025 J28.0025
G3 X39.3705 Y-0.2335 I15.1548 J36.5837
G3 X54.5228 Y2.7817 I0 J39.5989
G1 Z-3 F80
G1 Z-2.8 F80
G3 X59.0101 Y4.9796 I-15.1548 J36.5862 F150
G1 Z-3 F80
G3 X67.3705 Y11.3654 I-19.6421 J34.3857 F150
G3 X75.9568 Y24.2131 I-28.0025 J28.0025
G3 X78.9695 Y39.3654 I-36.5837 J15.1548
G3 X78.8274 Y42.7106 I-39.5989 J0
G1 Z-2.8 F80
G3 X78.0939 Y47.6522 I-39.4568 J-3.3426 F150
G1 Z-3 F80
G3 X75.9568 Y54.5203 I-38.7233 J-8.2868 F150
G3 X67.3705 Y67.3680 I-36.5862 J-15.1548
G3 X54.5228 Y75.9517 I-28.0025 J-28.0025
G3 X48.1522 Y77.9796 I-15.1548 J-36.5837
G1 Z-2.8 F80
G3 X43.2208 Y78.7791 I-8.7817 J-38.6116 F150
G1 Z-3 F80
G3 X39.3705 Y78.9670 I-3.8502 J-39.4111 F150
G3 X24.2157 Y75.9517 I0 J-39.5989
G3 X11.3680 Y67.3680 I15.1548 J-36.5862
G3 X5.2385 Y59.4467 I28.0025 J-28.0025
G1 Z-2.8 F80
G3 X2.9822 Y54.9898 I34.1319 J-20.0812 F150
G1 Z-3 F80
G3 X2.7842 Y54.5203 I36.3883 J-15.6243 F150
G3 X-0.2309 Y39.3654 I36.5837 J-15.1548
G3 X2.7842 Y24.2131 I39.5989 J0
G3 X11.3680 Y11.3654 I36.5862 J15.1548
G3 X24.2157 Y2.7817 I28.0025 J28.0025
G3 X39.3705 Y-0.2335 I15.1548 J36.5837
G3 X54.5228 Y2.7817 I0 J39.5989
G0 Z5
M5
M30
