(Generated by PartKam Version 0.05)

G21 G90 G40

(design)
G0 Z2
T0 M6
G17
M3
G0 X31.0002538071066 Y39.90431472081218
G1 Z-0.5 F150
G3 X30.609137055837564 Y39.857868020304565 I0.6497461928934011 J-6.9543147208121825 F150
G3 X30.35532994923858 Y39.80710659898477 I0.44923857868020306 J-2.9796954314720816
G1 X28.794416243654823 Y39.71827411167513
G1 X27.807106598984774 Y38.99492385786802
G1 X26.60913705583756 Y38.819796954314725
G1 X25.804568527918782 Y39.022842639593904
G1 X25.048223350253807 Y39.525380710659896
G1 X25.01269035532995 Y39.525380710659896
G1 X23.654822335025383 Y38.65989847715736
G1 X21.68781725888325 Y38.07106598984772
G1 X21.64213197969543 Y38.05329949238579
G1 X21.67005076142132 Y38.025380710659896
G1 X22.446700507614214 Y37.00253807106599
G1 X20.248730964467004 Y38.59137055837564
G1 X17.126903553299492 Y38.58121827411168
G1 X16.131979695431472 Y39.20812182741117
G1 X14.568527918781726 Y38.85532994923858
G1 X12.822335025380712 Y37.964467005076145
G1 X9.736040609137056 Y37.54060913705584
G1 X6.746192893401015 Y37.28426395939086
G1 X6.746192893401015 Y37.223350253807105
G1 X9.746192893401016 Y37.47969543147208
G1 X12.83248730964467 Y37.90355329949239
G1 X14.586294416243655 Y38.80203045685279
G1 X16.121827411167512 Y39.14467005076142
G1 X17.101522842639593 Y38.52791878172589
G1 X20.22335025380711 Y38.53807106598985
G1 X22.560913705583758 Y36.85279187817259
G1 X22.586294416243653 Y36.870558375634516
G1 X21.748730964467008 Y38.025380710659896
G1 X23.67258883248731 Y38.609137055837564
G1 X25.03045685279188 Y39.46446700507614
G1 X25.77157360406091 Y38.96954314720812
G1 X26.591370558375633 Y38.75888324873097
G1 X27.835025380710658 Y38.934010152284266
G1 X28.82233502538071 Y39.65736040609137
G1 X30.35532994923858 Y39.746192893401016
G2 X31.357868020304565 Y39.8756345177665 I1.1446700507614214 J-4.908629441624365
G2 X32.51776649746193 Y39.80710659898477 I0.1903553299492386 J-6.68274111675127
G1 X32.5253807106599 Y39.86802030456853
G3 X32.119289340101524 Y39.91370558375635 I-0.8604060913705585 J-5.868020304568527
G3 X31.690355329949238 Y39.934010152284266 I-0.49492385786802034 J-6.467005076142131
G3 X31.345177664974617 Y39.92639593908629 I-0.06852791878172589 J-6.68274111675127
G3 X31 Y39.90355329949239 I0.2766497461928934 J-6.66497461928934
G0 Z2
G0 X41.601269035532994 Y37.1261421319797
G1 Z-0.5 F150
G1 X41.558375634517766 Y37.09137055837564 F150
G1 X46.35532994923857 Y32.02791878172589
G1 X50.91370558375634 Y31.357868020304565
G1 X55.941624365482234 Y30.652284263959395
G1 X59.65482233502538 Y29.347715736040605
G1 X63.43908629441624 Y28.413705583756347
G1 X66.63197969543147 Y28.314720812182742
G1 X71.02284263959392 Y26.04060913705584
G1 X73.38578680203045 Y25.449238578680205
G1 X73.39593908629442 Y25.51015228426396
G1 X71.0482233502538 Y26.09390862944162
G1 X66.65736040609137 Y28.368020304568525
G1 X63.45685279187818 Y28.4746192893401
G1 X59.672588832487314 Y29.408629441624367
G1 X55.95939086294416 Y30.705583756345177
G1 X50.923857868020306 Y31.421319796954315
G1 X46.39086294416244 Y32.08121827411168
G1 X41.60152284263959 Y37.12690355329949
G0 Z2
G0 X28.96294416243655 Y47.00406091370559
G1 Z-0.5 F150
G3 X27.185279187817258 Y46.95177664974619 I1.4771573604060915 J-79.55329949238578 F150
G3 X26.378172588832488 Y46.898477157360404 I0.6700507614213198 J-16.365482233502537
G2 X26.081218274111677 Y46.8756345177665 I-1.0228426395939085 J11.304568527918782
G2 X25.779187817258883 Y46.86040609137056 I-0.7335025380710659 J11.464467005076141
G2 X25.48223350253807 Y46.85279187817259 I-0.4111675126903553 J10.906091370558375
G2 X25.215736040609137 Y46.85532994923858 I-0.08883248730964467 J8.690355329949238
G2 X24.941624365482234 Y46.86548223350254 I0.14213197969543148 J6.9238578680203045
G2 X24.736040609137056 Y46.88324873096447 I0.23096446700507614 J3.8248730964467006
G2 X24.52284263959391 Y46.91624365482234 I0.29441624365482233 J2.5862944162436547
G2 X24.393401015228427 Y46.95177664974619 I0.18781725888324874 J0.9441624365482233
G1 X24.385786802030456 Y46.923857868020306
G1 X24.360406091370557 Y46.95177664974619
G1 X16.139593908629443 Y39.41878172588832
G1 X16.18274111675127 Y39.3756345177665
G1 X24.385786802030456 Y46.88832487309645
G3 X24.52284263959391 Y46.85279187817259 I0.3553299492385787 J1.0939086294416243
G3 X24.741116751269033 Y46.819796954314725 I0.5253807106598986 J2.713197969543147
G3 X24.944162436548222 Y46.80203045685279 I0.4390862944162437 J3.911167512690356
G3 X25.215736040609137 Y46.79187817258884 I0.4111675126903553 J6.893401015228426
G3 X25.467005076142133 Y46.79187817258884 I0.13451776649746194 J6.637055837563452
G3 X25.784263959390863 Y46.80203045685279 I-0.18274111675126906 J10.345177664974619
G3 X26.063451776649742 Y46.819796954314725 I-0.6015228426395939 J12.423857868020304
G3 X26.388324873096444 Y46.845177664974614 I-1.1878172588832487 J16.725888324873097
G2 X26.883248730964468 Y46.88071065989848 I1.0609137055837563 J-11.730964467005077
G2 X27.951776649746193 Y46.921319796954315 I2.6167512690355332 J-54.421319796954315
G2 X28.49746192893401 Y46.93401015228426 I2.4111675126903553 J-84.79187817258882
G2 X28.944162436548222 Y46.94162436548224 I1.248730964467005 J-56.784263959390856
G3 X30.035532994923855 Y45.796954314720814 I115.36802030456853 J108.80456852791879
G3 X31.18527918781726 Y44.61421319796954 I124.38324873096447 J119.6725888324873
G3 X31.68781725888325 Y44.10406091370558 I112.63451776649747 J110.45939086294416
G3 X32.055837563451774 Y43.736040609137056 I59.98730964467005 J59.36294416243655
G3 X32.52030456852792 Y43.2741116751269 I44.93908629441624 J45.02791878172589
G3 X32.86040609137056 Y42.94670050761422 I23.210659898477157 J23.741116751269033
G3 X33.04314720812182 Y42.77664974619289 I14.152284263959391 J14.893401015228427
G3 X33.213197969543145 Y42.621827411167516 I12.15989847715736 J13.109137055837563
G3 X33.3756345177665 Y42.477157360406096 I10.763959390862945 J11.911167512690355
G3 X33.51269035532995 Y42.35532994923858 I7.649746192893401 J8.695431472081218
G3 X33.65736040609137 Y42.23604060913706 I4.743654822335025 J5.571065989847716
G3 X33.746192893401016 Y42.16751269035533 I1.6954314720812182 J2.0964467005076144
G3 X33.8502538071066 Y42.09644670050761 I0.9492385786802031 J1.281725888324873
G3 X33.911167512690355 Y42.065989847715734 I0.2512690355329949 J0.4010152284263959
G1 X33.93654822335026 Y42.119289340101524
G2 X33.88578680203046 Y42.14467005076142 I0.16751269035532995 J0.3807106598984772
G2 X33.78426395939086 Y42.213197969543145 I0.9390862944162437 J1.5050761421319798
G2 X33.68274111675127 Y42.29187817258883 I1.6421319796954315 J2.2715736040609134
G2 X33.54822335025381 Y42.401015228426395 I3.190355329949239 J4.0126903553299496
G2 X33.4263959390863 Y42.50761421319797 I4.527918781725888 J5.317258883248731
G2 X33.253807106598984 Y42.664974619289346 I9.654822335025381 J10.814720812182742
G2 X33.11675126903553 Y42.79187817258883 I13.893401015228426 J15.065989847715734
G2 X32.90609137055838 Y42.99238578680203 I33.923857868020306 J36.119289340101524
G2 X32.565989847715734 Y43.31979695431472 I22.82233502538071 J24.01522842639594
G2 X32.098984771573605 Y43.77918781725889 I44.58121827411168 J45.59644670050761
G2 X31.73096446700508 Y44.149746192893396 I59.79187817258883 J59.911167512690355
G2 X31.22842639593909 Y44.65736040609137 I111.68527918781726 J110.53045685279187
G2 X30.071065989847714 Y45.84771573604061 I155.9746192893401 J152.96446700507613
G2 X28.979695431472084 Y46.98730964467005 I142.06345177664974 J137.2208121827411
G0 Z2
G0 X53.719289340101525 Y65.58654822335025
G1 Z-0.5 F150
G1 X52.263959390862944 Y62.85279187817259 F150
G1 X48.19796954314721 Y62.89593908629442
G1 X48.109137055837564 Y62.89593908629442
G1 X48.180203045685275 Y62.84263959390863
G1 X51.266497461928935 Y60.40862944162437
G1 X50.17258883248731 Y57.16497461928934
G1 X50.13959390862944 Y57.065989847715734
G1 X50.20812182741117 Y57.119289340101524
G1 X53.20812182741116 Y59.182741116751274
G1 X56.15228426395939 Y56.51015228426396
G1 X56.233502538071065 Y56.431472081218274
G1 X56.21573604060914 Y56.52791878172589
G1 X55.41370558375634 Y60.32233502538071
G1 X58.72842639593909 Y62.172588832487314
G1 X58.81725888324873 Y62.2258883248731
G1 X58.72081218274111 Y62.2258883248731
G1 X54.8756345177665 Y62.5
G1 X53.77157360406091 Y65.58629441624365
G1 X53.746192893401016 Y65.57868020304569
G1 X53.71827411167513 Y65.58629441624365
G0 Z2
G0 X44.78502538071066 Y53.18654822335025
G1 Z-0.5 F150
G1 X47.55329949238579 Y48.79441624365482 F150
G1 X47.40355329949239 Y47.31218274111675
G1 X42.67766497461929 Y47.15482233502538
G1 X41.52284263959391 Y46.49238578680203
G1 X41.002538071065985 Y45.55837563451776
G1 X40.568527918781726 Y44.72842639593908
G1 X40.39340101522843 Y42.38324873096447
G1 X40.746192893401016 Y40.54060913705584
G1 X42.121827411167516 Y35.07106598984771
G1 X42.60659898477157 Y33.90609137055838
G1 X42.7741116751269 Y31.85279187817259
G1 X42.71319796954315 Y27.406091370558375
G1 X42.21827411167513 Y22.406091370558375
G1 X42.4746192893401 Y17.388324873096444
G1 X43.46192893401016 Y16.68274111675127
G1 X44.02791878172589 Y16.012690355329948
G1 X43.94670050761421 Y14.416243654822336
G1 X43.29441624365482 Y14.302030456852792
G1 X43.0736040609137 Y14.954314720812183
G1 X41.47715736040609 Y15.535532994923857
G1 X41.53045685279188 Y16.31218274111675
G1 X41.52284263959391 Y16.33756345177665
G1 X41.08121827411168 Y16.903553299492387
G1 X40.72842639593909 Y17.916243654822335
G1 X40.63959390862944 Y19.027918781725887
G1 X40.464467005076145 Y20.756345177664976
G1 X40.41878172588832 Y22.398477157360407
G1 X40.37563451776649 Y23.2005076142132
G1 X40.058375634517766 Y24.601522842639593
G1 X40.59644670050761 Y26.065989847715734
G1 X40.63959390862944 Y28.517766497461928
G1 X40.578680203045685 Y28.517766497461928
G1 X40.53299492385787 Y26.09390862944162
G1 X40.00507614213198 Y24.62944162436548
G1 X40.31472081218274 Y23.190355329949238
G1 X40.35786802030457 Y22.398477157360407
G1 X40.401015228426395 Y20.756345177664976
G1 X40.578680203045685 Y19.02030456852792
G1 X40.66751269035534 Y17.908629441624367
G1 X41.02791878172589 Y16.885786802030456
G1 X41.46954314720812 Y16.294416243654823
G1 X41.423857868020306 Y15.51776649746193
G1 X41.44162436548223 Y15.49238578680203
G1 X43.02030456852792 Y14.918781725888326
G1 X43.233502538071065 Y14.291878172588833
G1 X42.96954314720813 Y14.248730964467004
G1 X42.27918781725889 Y13.147208121827411
G1 X40.44670050761422 Y12.944162436548224
G1 X38.34771573604061 Y13.48223350253807
G1 X21.1751269035533 Y13.657360406091371
G1 X17.939086294416246 Y15.360406091370557
G1 X15.97969543147208 Y17.81218274111675
G1 X15.794416243654823 Y21.162436548223347
G1 X16.906091370558375 Y23.225888324873097
G1 X18 Y23.403553299492387
G1 X17.79695431472081 Y20.35279187817259
G1 X18.626903553299492 Y18.076142131979694
G1 X19.86040609137056 Y16.83248730964467
G1 X19.923857868020306 Y16.753807106598984
G1 X19.913705583756347 Y16.84263959390863
G1 X19.560913705583754 Y21.251269035532996
G1 X21.624365482233504 Y25.84517766497462
G1 X27.65736040609137 Y34.15482233502538
G1 X33.47969543147208 Y40.91878172588832
G1 X34.203045685279186 Y42.621827411167516
G1 X34.52791878172589 Y45.42639593908629
G1 X34.51015228426396 Y45.45177664974619
G1 X33.46954314720812 Y45.84010152284264
G1 X32.89593908629441 Y46.58121827411168
G1 X32.941624365482234 Y47.58629441624365
G1 X33.619289340101524 Y47.8502538071066
G1 X34.756345177664976 Y50.152284263959395
G1 X35.31218274111675 Y50.54060913705584
G1 X35.34010152284264 Y50.55837563451776
G1 X36.28426395939086 Y51.210659898477154
G1 X38.04822335025381 Y51.99492385786802
G1 X40.180203045685275 Y52.101522842639596
G1 X44.78426395939087 Y53.18527918781726
G0 Z2
G0 X44.46751269035533 Y53.14238578680203
G1 Z-0.5 F150
G1 X45.525380710659896 Y51.75888324873096 F150
G1 X44.01776649746193 Y51.713197969543145
G1 X43.84263959390863 Y52.111675126903556
G1 X44.46700507614213 Y53.142131979695435
G0 Z2
G0 X39.70507614213198 Y51.27258883248731
G1 Z-0.5 F150
G1 X40.180203045685275 Y51.16751269035533 F150
G1 X40.180203045685275 Y50.50507614213198
G1 X39.78426395939086 Y50.21319796954315
G1 X39.078680203045685 Y50.58375634517766
G1 X39.078680203045685 Y51.16751269035533
G1 X39.70558375634518 Y51.27157360406091
G0 Z2
M5
M30
