(Modified by metric-gcode-truncator. Intended for use in absolute mode. Incremental mode may cause errors.)(Generated by PartKam Version 0.05)

G21 G90 G40

(design)
G0 Z2
T0 M6
G17
M3
G0 X31.0002 Y39.9043
G1 Z-0.5 F150
G3 X30.6091 Y39.8578 I0.6497 J-6.9543 F150
G3 X30.3553 Y39.8071 I0.4492 J-2.9796
G1 X28.7944 Y39.7182
G1 X27.8071 Y38.9949
G1 X26.6091 Y38.8197
G1 X25.8045 Y39.0228
G1 X25.0482 Y39.5253
G1 X25.0126 Y39.5253
G1 X23.6548 Y38.6598
G1 X21.6878 Y38.0710
G1 X21.6421 Y38.0532
G1 X21.6700 Y38.0253
G1 X22.4467 Y37.0025
G1 X20.2487 Y38.5913
G1 X17.1269 Y38.5812
G1 X16.1319 Y39.2081
G1 X14.5685 Y38.8553
G1 X12.8223 Y37.9644
G1 X9.7360 Y37.5406
G1 X6.7461 Y37.2842
G1 X6.7461 Y37.2233
G1 X9.7461 Y37.4796
G1 X12.8324 Y37.9035
G1 X14.5862 Y38.8020
G1 X16.1218 Y39.1446
G1 X17.1015 Y38.5279
G1 X20.2233 Y38.5380
G1 X22.5609 Y36.8527
G1 X22.5862 Y36.8705
G1 X21.7487 Y38.0253
G1 X23.6725 Y38.6091
G1 X25.0304 Y39.4644
G1 X25.7715 Y38.9695
G1 X26.5913 Y38.7588
G1 X27.8350 Y38.9340
G1 X28.8223 Y39.6573
G1 X30.3553 Y39.7461
G2 X31.3578 Y39.8756 I1.1446 J-4.9086
G2 X32.5177 Y39.8071 I0.1903 J-6.6827
G1 X32.5253 Y39.8680
G3 X32.1192 Y39.9137 I-0.8604 J-5.8680
G3 X31.6903 Y39.9340 I-0.4949 J-6.4670
G3 X31.3451 Y39.9263 I-0.0685 J-6.6827
G3 X31 Y39.9035 I0.2766 J-6.6649
G0 Z2
G0 X41.6012 Y37.1261
G1 Z-0.5 F150
G1 X41.5583 Y37.0913 F150
G1 X46.3553 Y32.0279
G1 X50.9137 Y31.3578
G1 X55.9416 Y30.6522
G1 X59.6548 Y29.3477
G1 X63.4390 Y28.4137
G1 X66.6319 Y28.3147
G1 X71.0228 Y26.0406
G1 X73.3857 Y25.4492
G1 X73.3959 Y25.5101
G1 X71.0482 Y26.0939
G1 X66.6573 Y28.3680
G1 X63.4568 Y28.4746
G1 X59.6725 Y29.4086
G1 X55.9593 Y30.7055
G1 X50.9238 Y31.4213
G1 X46.3908 Y32.0812
G1 X41.6015 Y37.1269
G0 Z2
G0 X28.9629 Y47.0040
G1 Z-0.5 F150
G3 X27.1852 Y46.9517 I1.4771 J-79.5532 F150
G3 X26.3781 Y46.8984 I0.6700 J-16.3654
G2 X26.0812 Y46.8756 I-1.0228 J11.3045
G2 X25.7791 Y46.8604 I-0.7335 J11.4644
G2 X25.4822 Y46.8527 I-0.4111 J10.9060
G2 X25.2157 Y46.8553 I-0.0888 J8.6903
G2 X24.9416 Y46.8654 I0.1421 J6.9238
G2 X24.7360 Y46.8832 I0.2309 J3.8248
G2 X24.5228 Y46.9162 I0.2944 J2.5862
G2 X24.3934 Y46.9517 I0.1878 J0.9441
G1 X24.3857 Y46.9238
G1 X24.3604 Y46.9517
G1 X16.1395 Y39.4187
G1 X16.1827 Y39.3756
G1 X24.3857 Y46.8883
G3 X24.5228 Y46.8527 I0.3553 J1.0939
G3 X24.7411 Y46.8197 I0.5253 J2.7131
G3 X24.9441 Y46.8020 I0.4390 J3.9111
G3 X25.2157 Y46.7918 I0.4111 J6.8934
G3 X25.4670 Y46.7918 I0.1345 J6.6370
G3 X25.7842 Y46.8020 I-0.1827 J10.3451
G3 X26.0634 Y46.8197 I-0.6015 J12.4238
G3 X26.3883 Y46.8451 I-1.1878 J16.7258
G2 X26.8832 Y46.8807 I1.0609 J-11.7309
G2 X27.9517 Y46.9213 I2.6167 J-54.4213
G2 X28.4974 Y46.9340 I2.4111 J-84.7918
G2 X28.9441 Y46.9416 I1.2487 J-56.7842
G3 X30.0355 Y45.7969 I115.3680 J108.8045
G3 X31.1852 Y44.6142 I124.3832 J119.6725
G3 X31.6878 Y44.1040 I112.6345 J110.4593
G3 X32.0558 Y43.7360 I59.9873 J59.3629
G3 X32.5203 Y43.2741 I44.9390 J45.0279
G3 X32.8604 Y42.9467 I23.2106 J23.7411
G3 X33.0431 Y42.7766 I14.1522 J14.8934
G3 X33.2131 Y42.6218 I12.1598 J13.1091
G3 X33.3756 Y42.4771 I10.7639 J11.9111
G3 X33.5126 Y42.3553 I7.6497 J8.6954
G3 X33.6573 Y42.2360 I4.7436 J5.5710
G3 X33.7461 Y42.1675 I1.6954 J2.0964
G3 X33.8502 Y42.0964 I0.9492 J1.2817
G3 X33.9111 Y42.0659 I0.2512 J0.4010
G1 X33.9365 Y42.1192
G2 X33.8857 Y42.1446 I0.1675 J0.3807
G2 X33.7842 Y42.2131 I0.9390 J1.5050
G2 X33.6827 Y42.2918 I1.6421 J2.2715
G2 X33.5482 Y42.4010 I3.1903 J4.0126
G2 X33.4263 Y42.5076 I4.5279 J5.3172
G2 X33.2538 Y42.6649 I9.6548 J10.8147
G2 X33.1167 Y42.7918 I13.8934 J15.0659
G2 X32.9060 Y42.9923 I33.9238 J36.1192
G2 X32.5659 Y43.3197 I22.8223 J24.0152
G2 X32.0989 Y43.7791 I44.5812 J45.5964
G2 X31.7309 Y44.1497 I59.7918 J59.9111
G2 X31.2284 Y44.6573 I111.6852 J110.5304
G2 X30.0710 Y45.8477 I155.9746 J152.9644
G2 X28.9796 Y46.9873 I142.0634 J137.2208
G0 Z2
G0 X53.7192 Y65.5865
G1 Z-0.5 F150
G1 X52.2639 Y62.8527 F150
G1 X48.1979 Y62.8959
G1 X48.1091 Y62.8959
G1 X48.1802 Y62.8426
G1 X51.2664 Y60.4086
G1 X50.1725 Y57.1649
G1 X50.1395 Y57.0659
G1 X50.2081 Y57.1192
G1 X53.2081 Y59.1827
G1 X56.1522 Y56.5101
G1 X56.2335 Y56.4314
G1 X56.2157 Y56.5279
G1 X55.4137 Y60.3223
G1 X58.7284 Y62.1725
G1 X58.8172 Y62.2258
G1 X58.7208 Y62.2258
G1 X54.8756 Y62.5
G1 X53.7715 Y65.5862
G1 X53.7461 Y65.5786
G1 X53.7182 Y65.5862
G0 Z2
G0 X44.7850 Y53.1865
G1 Z-0.5 F150
G1 X47.5532 Y48.7944 F150
G1 X47.4035 Y47.3121
G1 X42.6776 Y47.1548
G1 X41.5228 Y46.4923
G1 X41.0025 Y45.5583
G1 X40.5685 Y44.7284
G1 X40.3934 Y42.3832
G1 X40.7461 Y40.5406
G1 X42.1218 Y35.0710
G1 X42.6065 Y33.9060
G1 X42.7741 Y31.8527
G1 X42.7131 Y27.4060
G1 X42.2182 Y22.4060
G1 X42.4746 Y17.3883
G1 X43.4619 Y16.6827
G1 X44.0279 Y16.0126
G1 X43.9467 Y14.4162
G1 X43.2944 Y14.3020
G1 X43.0736 Y14.9543
G1 X41.4771 Y15.5355
G1 X41.5304 Y16.3121
G1 X41.5228 Y16.3375
G1 X41.0812 Y16.9035
G1 X40.7284 Y17.9162
G1 X40.6395 Y19.0279
G1 X40.4644 Y20.7563
G1 X40.4187 Y22.3984
G1 X40.3756 Y23.2005
G1 X40.0583 Y24.6015
G1 X40.5964 Y26.0659
G1 X40.6395 Y28.5177
G1 X40.5786 Y28.5177
G1 X40.5329 Y26.0939
G1 X40.0050 Y24.6294
G1 X40.3147 Y23.1903
G1 X40.3578 Y22.3984
G1 X40.4010 Y20.7563
G1 X40.5786 Y19.0203
G1 X40.6675 Y17.9086
G1 X41.0279 Y16.8857
G1 X41.4695 Y16.2944
G1 X41.4238 Y15.5177
G1 X41.4416 Y15.4923
G1 X43.0203 Y14.9187
G1 X43.2335 Y14.2918
G1 X42.9695 Y14.2487
G1 X42.2791 Y13.1472
G1 X40.4467 Y12.9441
G1 X38.3477 Y13.4822
G1 X21.1751 Y13.6573
G1 X17.9390 Y15.3604
G1 X15.9796 Y17.8121
G1 X15.7944 Y21.1624
G1 X16.9060 Y23.2258
G1 X18 Y23.4035
G1 X17.7969 Y20.3527
G1 X18.6269 Y18.0761
G1 X19.8604 Y16.8324
G1 X19.9238 Y16.7538
G1 X19.9137 Y16.8426
G1 X19.5609 Y21.2512
G1 X21.6243 Y25.8451
G1 X27.6573 Y34.1548
G1 X33.4796 Y40.9187
G1 X34.2030 Y42.6218
G1 X34.5279 Y45.4263
G1 X34.5101 Y45.4517
G1 X33.4695 Y45.8401
G1 X32.8959 Y46.5812
G1 X32.9416 Y47.5862
G1 X33.6192 Y47.8502
G1 X34.7563 Y50.1522
G1 X35.3121 Y50.5406
G1 X35.3401 Y50.5583
G1 X36.2842 Y51.2106
G1 X38.0482 Y51.9949
G1 X40.1802 Y52.1015
G1 X44.7842 Y53.1852
G0 Z2
G0 X44.4675 Y53.1423
G1 Z-0.5 F150
G1 X45.5253 Y51.7588 F150
G1 X44.0177 Y51.7131
G1 X43.8426 Y52.1116
G1 X44.4670 Y53.1421
G0 Z2
G0 X39.7050 Y51.2725
G1 Z-0.5 F150
G1 X40.1802 Y51.1675 F150
G1 X40.1802 Y50.5050
G1 X39.7842 Y50.2131
G1 X39.0786 Y50.5837
G1 X39.0786 Y51.1675
G1 X39.7055 Y51.2715
G0 Z2
M5
M30
