(Generated by PartKam Version 0.05)

G20 G90 G40

(letter)
G0 Z0.5
T0 M6
G17
M3
G0 X1.7547 Y1.2392
G1 Z-0.0312 F10
G1 X1.7547 Y1.3529 F30
G3 X1.6894 Y1.3575 I-0.1979 J-2.3881
G1 X1.6894 Y1.246
G1 X1.6894 Y1.2392
G1 X1.7547 Y1.2392
G1 X1.8047 Y1.1892 F30
G1 X1.8047 Y1.3985 F30
G3 X1.6437 Y1.4096 I-0.2479 J-2.4337
G1 X1.6394 Y1.4096
G1 X1.6394 Y1.246
G1 X1.6394 Y1.1892
G1 X1.8047 Y1.1892
G1 X1.8547 Y1.1392 F30
G1 X1.8547 Y1.4432 F30
G3 X1.8462 Y1.4443 I-0.0901 J-0.6984
G3 X1.6446 Y1.4596 I-0.2895 J-2.4795
G1 X1.5894 Y1.4596
G1 X1.5894 Y1.246
G1 X1.5894 Y1.1392
G1 X1.8547 Y1.1392
G1 X1.9047 Y1.0892 F30
G1 X1.9047 Y1.4859 F30
G3 X1.852 Y1.4939 I-0.1401 J-0.741
G3 X1.6454 Y1.5096 I-0.2953 J-2.5291
G1 X1.5394 Y1.5096
G1 X1.5394 Y1.246
G1 X1.5394 Y1.1368
G1 X1.5394 Y1.0892
G1 X1.9047 Y1.0892
G1 X1.9547 Y1.0392 F30
G1 X1.9547 Y1.5262 F30
G3 X1.8578 Y1.5436 I-0.1901 J-0.7813
G3 X1.6463 Y1.5596 I-0.3011 J-2.5788
G1 X1.4894 Y1.5596
G1 X1.4894 Y1.246
G1 X1.4894 Y1.1368
G1 X1.4894 Y1.0392
G1 X1.9547 Y1.0392
G1 X2.0047 Y0.9892 F30
G1 X2.0047 Y1.5642 F30
G3 X1.9782 Y1.5719 I-0.1478 J-0.462
G3 X1.8636 Y1.5933 I-0.2136 J-0.827
G3 X1.6472 Y1.6096 I-0.3069 J-2.6285
G1 X1.4394 Y1.6096
G1 X1.4394 Y1.246
G1 X1.4394 Y1.1368
G1 X1.4394 Y0.9892
G1 X2.0047 Y0.9892
G1 X2.0547 Y0.9392 F30
G1 X2.0547 Y1.5992 F30
G3 X2.0439 Y1.6036 I-0.0817 J-0.1857
G3 X1.9907 Y1.6203 I-0.187 J-0.5013
G3 X1.8694 Y1.6429 I-0.2261 J-0.8754
G3 X1.648 Y1.6596 I-0.3127 J-2.6781
G1 X1.3894 Y1.6596
G1 X1.3894 Y1.246
G1 X1.3894 Y1.1368
G1 X1.3894 Y0.9392
G1 X2.0547 Y0.9392
G1 X2.1047 Y0.8892 F30
G1 X2.1047 Y1.6291 F30
G3 X2.0945 Y1.6352 I-0.0803 J-0.1219
G3 X2.0614 Y1.6504 I-0.1215 J-0.2217
G3 X2.0032 Y1.6687 I-0.2045 J-0.5482
G3 X1.8752 Y1.6926 I-0.2386 J-0.9238
G3 X1.6489 Y1.7096 I-0.3185 J-2.7278
G1 X1.3394 Y1.7096
G1 X1.3394 Y1.246
G1 X1.3394 Y1.1368
G1 X1.3394 Y0.8892
G1 X2.1047 Y0.8892
G1 X2.1547 Y0.8392 F30
G1 X2.1547 Y1.6535 F30
G3 X2.151 Y1.6568 I-0.055 J-0.0574
G3 X2.1186 Y1.6791 I-0.1267 J-0.1495
G3 X2.0789 Y1.6972 I-0.1455 J-0.2656
G3 X2.0157 Y1.7171 I-0.222 J-0.595
G3 X1.881 Y1.7423 I-0.2511 J-0.9722
G3 X1.6497 Y1.7596 I-0.3243 J-2.7775
G1 X1.2894 Y1.7596
G1 X1.2894 Y1.246
G1 X1.2894 Y1.1368
G1 X1.2894 Y0.8392
G1 X2.1547 Y0.8392
G0 Z0.5
G0 X1.6894 Y2.3254
G1 Z-0.0312 F10
G1 X1.7729 Y2.3258 F30
G1 X1.7729 Y2.3329
G1 X1.7047 Y2.3329
G1 X1.6894 Y2.3329
G1 X1.6894 Y2.3254
G1 X1.7047 Y2.3829 F30
G1 X1.6394 Y2.3829 F30
G1 X1.6394 Y2.275
G2 X1.6488 Y2.2752 I0.0114 J-0.4123
G1 X1.8229 Y2.276
G1 X1.8229 Y2.3829
G1 X1.7047 Y2.3829
G1 X1.7047 Y2.4329 F30
G1 X1.5894 Y2.4329 F30
G1 X1.5894 Y2.221
G1 X1.6162 Y2.2235
G2 X1.649 Y2.2252 I0.0346 J-0.3608
G1 X1.8648 Y2.2262
G1 X1.8729 Y2.2365
G1 X1.8729 Y2.4218
G1 X1.8642 Y2.4329
G1 X1.7047 Y2.4329
G1 X1.7047 Y2.4829 F30
G1 X1.5394 Y2.4829 F30
G1 X1.5394 Y2.1659
G1 X1.6209 Y2.1738
G2 X1.6493 Y2.1752 I0.0298 J-0.3111
G1 X1.8892 Y2.1763
G1 X1.9229 Y2.2192
G1 X1.9229 Y2.4389
G1 X1.8887 Y2.4829
G1 X1.7047 Y2.4829
G1 X1.7047 Y2.5329 F30
G1 X1.4894 Y2.5329 F30
G1 X1.4894 Y2.1109
G1 X1.6257 Y2.124
G2 X1.6495 Y2.1252 I0.025 J-0.2613
G1 X1.9136 Y2.1264
G1 X1.9729 Y2.2019
G1 X1.9729 Y2.456
G1 X1.9132 Y2.5329
G1 X1.9102 Y2.5329
G1 X1.7047 Y2.5329
G1 X1.7047 Y2.5829 F30
G1 X1.4658 Y2.5829 F30
G1 X1.4394 Y2.5829
G1 X1.4394 Y2.0559
G1 X1.6305 Y2.0742
G2 X1.6497 Y2.0752 I0.0203 J-0.2115
G1 X1.938 Y2.0765
G1 X2.0229 Y2.1846
G1 X2.0229 Y2.4732
G1 X1.9377 Y2.5829
G1 X1.9102 Y2.5829
G1 X1.7047 Y2.5829
G1 X1.7047 Y2.6329 F30
G1 X1.4658 Y2.6329 F30
G1 X1.3894 Y2.6329
G1 X1.3894 Y2.0009
G1 X1.6352 Y2.0244
G2 X1.65 Y2.0252 I0.0155 J-0.1618
G1 X1.9624 Y2.0266
G1 X2.0729 Y2.1673
G1 X2.0729 Y2.4903
G1 X1.9621 Y2.6329
G1 X1.9102 Y2.6329
G1 X1.7047 Y2.6329
G1 X1.7047 Y2.6829 F30
G1 X1.4658 Y2.6829 F30
G1 X1.3394 Y2.6829
G1 X1.3394 Y1.9459
G1 X1.64 Y1.9747
G2 X1.6502 Y1.9752 I0.0107 J-0.112
G1 X1.9868 Y1.9768
G1 X2.1229 Y2.15
G1 X2.1229 Y2.5074
G1 X1.9866 Y2.6829
G1 X1.9102 Y2.6829
G1 X1.7047 Y2.6829
G1 X1.7047 Y2.7329 F30
G1 X1.4658 Y2.7329 F30
G1 X1.2894 Y2.7329
G1 X1.2894 Y1.8909
G1 X1.6448 Y1.9249
G2 X1.6504 Y1.9252 I0.006 J-0.0622
G1 X2.0112 Y1.9269
G1 X2.1729 Y2.1328
G1 X2.1729 Y2.5246
G1 X2.0111 Y2.7329
G1 X1.9102 Y2.7329
G1 X1.7047 Y2.7329
G0 Z0.5
G0 X1.7547 Y1.2392
G1 Z-0.03125 F10
G1 X1.7547 Y1.3529 F30
G3 X1.6894 Y1.3575 I-0.1979 J-2.3881
G1 X1.6894 Y1.246
G1 X1.6894 Y1.2392
G1 X1.7547 Y1.2392
G1 X1.8047 Y1.1892 F30
G1 X1.8047 Y1.3985 F30
G3 X1.6437 Y1.4096 I-0.2479 J-2.4337
G1 X1.6394 Y1.4096
G1 X1.6394 Y1.246
G1 X1.6394 Y1.1892
G1 X1.8047 Y1.1892
G1 X1.8547 Y1.1392 F30
G1 X1.8547 Y1.4432 F30
G3 X1.8462 Y1.4443 I-0.0901 J-0.6984
G3 X1.6446 Y1.4596 I-0.2895 J-2.4795
G1 X1.5894 Y1.4596
G1 X1.5894 Y1.246
G1 X1.5894 Y1.1392
G1 X1.8547 Y1.1392
G1 X1.9047 Y1.0892 F30
G1 X1.9047 Y1.4859 F30
G3 X1.852 Y1.4939 I-0.1401 J-0.741
G3 X1.6454 Y1.5096 I-0.2953 J-2.5291
G1 X1.5394 Y1.5096
G1 X1.5394 Y1.246
G1 X1.5394 Y1.1368
G1 X1.5394 Y1.0892
G1 X1.9047 Y1.0892
G1 X1.9547 Y1.0392 F30
G1 X1.9547 Y1.5262 F30
G3 X1.8578 Y1.5436 I-0.1901 J-0.7813
G3 X1.6463 Y1.5596 I-0.3011 J-2.5788
G1 X1.4894 Y1.5596
G1 X1.4894 Y1.246
G1 X1.4894 Y1.1368
G1 X1.4894 Y1.0392
G1 X1.9547 Y1.0392
G1 X2.0047 Y0.9892 F30
G1 X2.0047 Y1.5642 F30
G3 X1.9782 Y1.5719 I-0.1478 J-0.462
G3 X1.8636 Y1.5933 I-0.2136 J-0.827
G3 X1.6472 Y1.6096 I-0.3069 J-2.6285
G1 X1.4394 Y1.6096
G1 X1.4394 Y1.246
G1 X1.4394 Y1.1368
G1 X1.4394 Y0.9892
G1 X2.0047 Y0.9892
G1 X2.0547 Y0.9392 F30
G1 X2.0547 Y1.5992 F30
G3 X2.0439 Y1.6036 I-0.0817 J-0.1857
G3 X1.9907 Y1.6203 I-0.187 J-0.5013
G3 X1.8694 Y1.6429 I-0.2261 J-0.8754
G3 X1.648 Y1.6596 I-0.3127 J-2.6781
G1 X1.3894 Y1.6596
G1 X1.3894 Y1.246
G1 X1.3894 Y1.1368
G1 X1.3894 Y0.9392
G1 X2.0547 Y0.9392
G1 X2.1047 Y0.8892 F30
G1 X2.1047 Y1.6291 F30
G3 X2.0945 Y1.6352 I-0.0803 J-0.1219
G3 X2.0614 Y1.6504 I-0.1215 J-0.2217
G3 X2.0032 Y1.6687 I-0.2045 J-0.5482
G3 X1.8752 Y1.6926 I-0.2386 J-0.9238
G3 X1.6489 Y1.7096 I-0.3185 J-2.7278
G1 X1.3394 Y1.7096
G1 X1.3394 Y1.246
G1 X1.3394 Y1.1368
G1 X1.3394 Y0.8892
G1 X2.1047 Y0.8892
G1 X2.1547 Y0.8392 F30
G1 X2.1547 Y1.6535 F30
G3 X2.151 Y1.6568 I-0.055 J-0.0574
G3 X2.1186 Y1.6791 I-0.1267 J-0.1495
G3 X2.0789 Y1.6972 I-0.1455 J-0.2656
G3 X2.0157 Y1.7171 I-0.222 J-0.595
G3 X1.881 Y1.7423 I-0.2511 J-0.9722
G3 X1.6497 Y1.7596 I-0.3243 J-2.7775
G1 X1.2894 Y1.7596
G1 X1.2894 Y1.246
G1 X1.2894 Y1.1368
G1 X1.2894 Y0.8392
G1 X2.1547 Y0.8392
G0 Z0.5
G0 X1.6894 Y2.3254
G1 Z-0.03125 F10
G1 X1.7729 Y2.3258 F30
G1 X1.7729 Y2.3329
G1 X1.7047 Y2.3329
G1 X1.6894 Y2.3329
G1 X1.6894 Y2.3254
G1 X1.7047 Y2.3829 F30
G1 X1.6394 Y2.3829 F30
G1 X1.6394 Y2.275
G2 X1.6488 Y2.2752 I0.0114 J-0.4123
G1 X1.8229 Y2.276
G1 X1.8229 Y2.3829
G1 X1.7047 Y2.3829
G1 X1.7047 Y2.4329 F30
G1 X1.5894 Y2.4329 F30
G1 X1.5894 Y2.221
G1 X1.6162 Y2.2235
G2 X1.649 Y2.2252 I0.0346 J-0.3608
G1 X1.8648 Y2.2262
G1 X1.8729 Y2.2365
G1 X1.8729 Y2.4218
G1 X1.8642 Y2.4329
G1 X1.7047 Y2.4329
G1 X1.7047 Y2.4829 F30
G1 X1.5394 Y2.4829 F30
G1 X1.5394 Y2.1659
G1 X1.6209 Y2.1738
G2 X1.6493 Y2.1752 I0.0298 J-0.3111
G1 X1.8892 Y2.1763
G1 X1.9229 Y2.2192
G1 X1.9229 Y2.4389
G1 X1.8887 Y2.4829
G1 X1.7047 Y2.4829
G1 X1.7047 Y2.5329 F30
G1 X1.4894 Y2.5329 F30
G1 X1.4894 Y2.1109
G1 X1.6257 Y2.124
G2 X1.6495 Y2.1252 I0.025 J-0.2613
G1 X1.9136 Y2.1264
G1 X1.9729 Y2.2019
G1 X1.9729 Y2.456
G1 X1.9132 Y2.5329
G1 X1.9102 Y2.5329
G1 X1.7047 Y2.5329
G1 X1.7047 Y2.5829 F30
G1 X1.4658 Y2.5829 F30
G1 X1.4394 Y2.5829
G1 X1.4394 Y2.0559
G1 X1.6305 Y2.0742
G2 X1.6497 Y2.0752 I0.0203 J-0.2115
G1 X1.938 Y2.0765
G1 X2.0229 Y2.1846
G1 X2.0229 Y2.4732
G1 X1.9377 Y2.5829
G1 X1.9102 Y2.5829
G1 X1.7047 Y2.5829
G1 X1.7047 Y2.6329 F30
G1 X1.4658 Y2.6329 F30
G1 X1.3894 Y2.6329
G1 X1.3894 Y2.0009
G1 X1.6352 Y2.0244
G2 X1.65 Y2.0252 I0.0155 J-0.1618
G1 X1.9624 Y2.0266
G1 X2.0729 Y2.1673
G1 X2.0729 Y2.4903
G1 X1.9621 Y2.6329
G1 X1.9102 Y2.6329
G1 X1.7047 Y2.6329
G1 X1.7047 Y2.6829 F30
G1 X1.4658 Y2.6829 F30
G1 X1.3394 Y2.6829
G1 X1.3394 Y1.9459
G1 X1.64 Y1.9747
G2 X1.6502 Y1.9752 I0.0107 J-0.112
G1 X1.9868 Y1.9768
G1 X2.1229 Y2.15
G1 X2.1229 Y2.5074
G1 X1.9866 Y2.6829
G1 X1.9102 Y2.6829
G1 X1.7047 Y2.6829
G1 X1.7047 Y2.7329 F30
G1 X1.4658 Y2.7329 F30
G1 X1.2894 Y2.7329
G1 X1.2894 Y1.8909
G1 X1.6448 Y1.9249
G2 X1.6504 Y1.9252 I0.006 J-0.0622
G1 X2.0112 Y1.9269
G1 X2.1729 Y2.1328
G1 X2.1729 Y2.5246
G1 X2.0111 Y2.7329
G1 X1.9102 Y2.7329
G1 X1.7047 Y2.7329

(inner_border)
G0 Z0.5
G0 X0.1864 Y0.3846
G1 Z-0.0312 F10
G3 X0.2016 Y0.3081 I0.2 J0 F30
G3 X0.2449 Y0.2432 I0.1848 J0.0765
G3 X0.3098 Y0.1998 I0.1414 J0.1414
G3 X0.3864 Y0.1846 I0.0765 J0.1848
G1 X3.1114 Y0.1846
G3 X3.1879 Y0.1998 I0 J0.2
G3 X3.2528 Y0.2432 I-0.0765 J0.1848
G3 X3.2961 Y0.3081 I-0.1414 J0.1414
G3 X3.3114 Y0.3846 I-0.1848 J0.0765
G1 X3.3114 Y3.1096
G3 X3.2961 Y3.1861 I-0.2 J0
G3 X3.2528 Y3.251 I-0.1848 J-0.0765
G3 X3.1879 Y3.2944 I-0.1414 J-0.1414
G3 X3.1114 Y3.3096 I-0.0765 J-0.1848
G1 X0.3864 Y3.3096
G3 X0.3098 Y3.2944 I0 J-0.2
G3 X0.2449 Y3.251 I0.0765 J-0.1848
G3 X0.2016 Y3.1861 I0.1414 J-0.1414
G3 X0.1864 Y3.1096 I0.1848 J-0.0765
G1 X0.1864 Y0.3846
G0 Z0.5
G0 X0.1864 Y0.3846
G1 Z-0.03125 F10
G3 X0.2016 Y0.3081 I0.2 J0 F30
G3 X0.2449 Y0.2432 I0.1848 J0.0765
G3 X0.3098 Y0.1998 I0.1414 J0.1414
G3 X0.3864 Y0.1846 I0.0765 J0.1848
G1 X3.1114 Y0.1846
G3 X3.1879 Y0.1998 I0 J0.2
G3 X3.2528 Y0.2432 I-0.0765 J0.1848
G3 X3.2961 Y0.3081 I-0.1414 J0.1414
G3 X3.3114 Y0.3846 I-0.1848 J0.0765
G1 X3.3114 Y3.1096
G3 X3.2961 Y3.1861 I-0.2 J0
G3 X3.2528 Y3.251 I-0.1848 J-0.0765
G3 X3.1879 Y3.2944 I-0.1414 J-0.1414
G3 X3.1114 Y3.3096 I-0.0765 J-0.1848
G1 X0.3864 Y3.3096
G3 X0.3098 Y3.2944 I0 J-0.2
G3 X0.2449 Y3.251 I0.0765 J-0.1848
G3 X0.2016 Y3.1861 I0.1414 J-0.1414
G3 X0.1864 Y3.1096 I0.1848 J-0.0765
G1 X0.1864 Y0.3846

(profile)
G0 Z0.5
G0 X3.3003 Y3.5574
G1 Z-0.0313 F10
G2 X3.4007 Y3.5374 I0 J-0.2625 F30
G2 X3.4859 Y3.4805 I-0.1005 J-0.2425
G2 X3.5428 Y3.3953 I-0.1856 J-0.1856
G2 X3.5628 Y3.2949 I-0.2425 J-0.1005
G1 X3.5628 Y0.1949
G2 X3.5428 Y0.0944 I-0.2625 J0
G2 X3.4859 Y0.0092 I-0.2425 J0.1005
G2 X3.4007 Y-0.0477 I-0.1856 J0.1856
G2 X3.3003 Y-0.0676 I-0.1005 J0.2425
G1 X0.2003 Y-0.0676
G2 X0.0998 Y-0.0477 I0 J0.2625
G2 X0.0147 Y0.0092 I0.1005 J0.2425
G2 X-0.0422 Y0.0944 I0.1856 J0.1856
G2 X-0.0622 Y0.1949 I0.2425 J0.1005
G1 X-0.0622 Y3.2949
G2 X-0.0422 Y3.3953 I0.2625 J0
G2 X0.0147 Y3.4805 I0.2425 J-0.1005
G2 X0.0998 Y3.5374 I0.1856 J-0.1856
G2 X0.2003 Y3.5574 I0.1005 J-0.2425
G1 X3.3003 Y3.5574
G1 Z-0.0626 F10
G2 X3.4007 Y3.5374 I0 J-0.2625 F30
G2 X3.4859 Y3.4805 I-0.1005 J-0.2425
G2 X3.5428 Y3.3953 I-0.1856 J-0.1856
G2 X3.5628 Y3.2949 I-0.2425 J-0.1005
G1 X3.5628 Y0.1949
G2 X3.5428 Y0.0944 I-0.2625 J0
G2 X3.4859 Y0.0092 I-0.2425 J0.1005
G2 X3.4007 Y-0.0477 I-0.1856 J0.1856
G2 X3.3003 Y-0.0676 I-0.1005 J0.2425
G1 X0.2003 Y-0.0676
G2 X0.0998 Y-0.0477 I0 J0.2625
G2 X0.0147 Y0.0092 I0.1005 J0.2425
G2 X-0.0422 Y0.0944 I0.1856 J0.1856
G2 X-0.0622 Y0.1949 I0.2425 J0.1005
G1 X-0.0622 Y3.2949
G2 X-0.0422 Y3.3953 I0.2625 J0
G2 X0.0147 Y3.4805 I0.2425 J-0.1005
G2 X0.0998 Y3.5374 I0.1856 J-0.1856
G2 X0.2003 Y3.5574 I0.1005 J-0.2425
G1 X3.3003 Y3.5574
G1 Z-0.0939 F10
G2 X3.4007 Y3.5374 I0 J-0.2625 F30
G2 X3.4859 Y3.4805 I-0.1005 J-0.2425
G2 X3.5428 Y3.3953 I-0.1856 J-0.1856
G2 X3.5628 Y3.2949 I-0.2425 J-0.1005
G1 X3.5628 Y0.1949
G2 X3.5428 Y0.0944 I-0.2625 J0
G2 X3.4859 Y0.0092 I-0.2425 J0.1005
G2 X3.4007 Y-0.0477 I-0.1856 J0.1856
G2 X3.3003 Y-0.0676 I-0.1005 J0.2425
G1 X0.2003 Y-0.0676
G2 X0.0998 Y-0.0477 I0 J0.2625
G2 X0.0147 Y0.0092 I0.1005 J0.2425
G2 X-0.0422 Y0.0944 I0.1856 J0.1856
G2 X-0.0622 Y0.1949 I0.2425 J0.1005
G1 X-0.0622 Y3.2949
G2 X-0.0422 Y3.3953 I0.2625 J0
G2 X0.0147 Y3.4805 I0.2425 J-0.1005
G2 X0.0998 Y3.5374 I0.1856 J-0.1856
G2 X0.2003 Y3.5574 I0.1005 J-0.2425
G1 X3.3003 Y3.5574
G1 Z-0.1252 F10
G2 X3.4007 Y3.5374 I0 J-0.2625 F30
G2 X3.4859 Y3.4805 I-0.1005 J-0.2425
G2 X3.5428 Y3.3953 I-0.1856 J-0.1856
G2 X3.5628 Y3.2949 I-0.2425 J-0.1005
G1 X3.5628 Y0.1949
G2 X3.5428 Y0.0944 I-0.2625 J0
G2 X3.4859 Y0.0092 I-0.2425 J0.1005
G2 X3.4007 Y-0.0477 I-0.1856 J0.1856
G2 X3.3003 Y-0.0676 I-0.1005 J0.2425
G1 X0.2003 Y-0.0676
G2 X0.0998 Y-0.0477 I0 J0.2625
G2 X0.0147 Y0.0092 I0.1005 J0.2425
G2 X-0.0422 Y0.0944 I0.1856 J0.1856
G2 X-0.0622 Y0.1949 I0.2425 J0.1005
G1 X-0.0622 Y3.2949
G2 X-0.0422 Y3.3953 I0.2625 J0
G2 X0.0147 Y3.4805 I0.2425 J-0.1005
G2 X0.0998 Y3.5374 I0.1856 J-0.1856
G2 X0.2003 Y3.5574 I0.1005 J-0.2425
G1 X3.3003 Y3.5574
G1 Z-0.13 F10
G2 X3.4007 Y3.5374 I0 J-0.2625 F30
G2 X3.4859 Y3.4805 I-0.1005 J-0.2425
G2 X3.5428 Y3.3953 I-0.1856 J-0.1856
G2 X3.5628 Y3.2949 I-0.2425 J-0.1005
G1 X3.5628 Y0.1949
G2 X3.5428 Y0.0944 I-0.2625 J0
G2 X3.4859 Y0.0092 I-0.2425 J0.1005
G2 X3.4007 Y-0.0477 I-0.1856 J0.1856
G2 X3.3003 Y-0.0676 I-0.1005 J0.2425
G1 X0.2003 Y-0.0676
G2 X0.0998 Y-0.0477 I0 J0.2625
G2 X0.0147 Y0.0092 I0.1005 J0.2425
G2 X-0.0422 Y0.0944 I0.1856 J0.1856
G2 X-0.0622 Y0.1949 I0.2425 J0.1005
G1 X-0.0622 Y3.2949
G2 X-0.0422 Y3.3953 I0.2625 J0
G2 X0.0147 Y3.4805 I0.2425 J-0.1005
G2 X0.0998 Y3.5374 I0.1856 J-0.1856
G2 X0.2003 Y3.5574 I0.1005 J-0.2425
G1 X3.3003 Y3.5574
G0 Z0.5
M5
M30
