(Created with emc2b post processor 2015/07/28 18:15)
(tool change to 3.175 mm End Mill)
T4 M06 G43
G17 G90 G21
(Sketch 2)
G00 X341.797 Y117.782 S7000 M03
Z2
G01 Z-0.1 F100
G02 X341.316 Y115.841 I-0.24 J-0.97 F20
G01 X330.404 Y118.541
X309.884 Y129.182
G03 X309.204 Y129.36 I-0.73 J-1.409
G01 X294.306 Y129.832
X276.743 Y134.179
X259.328 Y140.278
G03 X259.024 Y140.352 I-0.524 J-1.498
G01 X235.442 Y143.663
X216.576 Y149.373
X194.273 Y170.879
G03 X193.653 Y171.249 I-1.101 J-1.142
G01 X155.457 Y183.416
G03 X154.948 Y183.491 I-0.481 J-1.512
G01 X138.234 Y183.199
G03 X138.17 Y183.197 I0.027 J-1.587
G01 X130.833 Y182.772
G03 X129.982 Y182.465 I0.091 J-1.584
G01 X125.726 Y179.323
X120.652 Y178.573
X117.39 Y179.419
X114.041 Y181.634
G03 X112.317 Y181.653 I-0.875 J-1.324
G01 X106.062 Y177.703
X97.004 Y174.958
G03 X95.973 Y173.982 I0.46 J-1.519
G01 X91.49 Y177.22
G03 X90.553 Y177.52 I-0.929 J-1.286
G01 X76.347 Y177.455
X72.031 Y180.147
G03 X70.839 Y180.348 I-0.84 J-1.346
G01 X63.599 Y178.702
G03 X63.229 Y178.568 I0.351 J-1.548
G01 X55.215 Y174.478
X40.999 Y172.524
X26.928 Y171.318
G02 X26.757 Y173.31 I-0.085 J0.996
G00 Z5
X341.797 Y117.782
Z-0.1
G01 Z-0.2 F100
G02 X341.316 Y115.841 I-0.24 J-0.97 F20
G01 X330.404 Y118.541
X309.884 Y129.182
G03 X309.204 Y129.36 I-0.73 J-1.409
G01 X294.306 Y129.832
X276.743 Y134.179
X259.328 Y140.278
G03 X259.024 Y140.352 I-0.524 J-1.498
G01 X235.442 Y143.663
X216.576 Y149.373
X194.273 Y170.879
G03 X193.653 Y171.249 I-1.101 J-1.142
G01 X155.457 Y183.416
G03 X154.948 Y183.491 I-0.481 J-1.512
G01 X138.234 Y183.199
G03 X138.17 Y183.197 I0.027 J-1.587
G01 X130.833 Y182.772
G03 X129.982 Y182.465 I0.091 J-1.584
G01 X125.726 Y179.323
X120.652 Y178.573
X117.39 Y179.419
X114.041 Y181.634
G03 X112.317 Y181.653 I-0.875 J-1.324
G01 X106.062 Y177.703
X97.004 Y174.958
G03 X95.973 Y173.982 I0.46 J-1.519
G01 X91.49 Y177.22
G03 X90.553 Y177.52 I-0.929 J-1.286
G01 X76.347 Y177.455
X72.031 Y180.147
G03 X70.839 Y180.348 I-0.84 J-1.346
G01 X63.599 Y178.702
G03 X63.229 Y178.568 I0.351 J-1.548
G01 X55.215 Y174.478
X40.999 Y172.524
X26.928 Y171.318
G02 X26.757 Y173.31 I-0.085 J0.996
G00 Z5
X341.797 Y117.782
Z-0.2
G01 Z-0.3 F100
G02 X341.316 Y115.841 I-0.24 J-0.97 F20
G01 X330.404 Y118.541
X309.884 Y129.182
G03 X309.204 Y129.36 I-0.73 J-1.409
G01 X294.306 Y129.832
X276.743 Y134.179
X259.328 Y140.278
G03 X259.024 Y140.352 I-0.524 J-1.498
G01 X235.442 Y143.663
X216.576 Y149.373
X194.273 Y170.879
G03 X193.653 Y171.249 I-1.101 J-1.142
G01 X155.457 Y183.416
G03 X154.948 Y183.491 I-0.481 J-1.512
G01 X138.234 Y183.199
G03 X138.17 Y183.197 I0.027 J-1.587
G01 X130.833 Y182.772
G03 X129.982 Y182.465 I0.091 J-1.584
G01 X125.726 Y179.323
X120.652 Y178.573
X117.39 Y179.419
X114.041 Y181.634
G03 X112.317 Y181.653 I-0.875 J-1.324
G01 X106.062 Y177.703
X97.004 Y174.958
G03 X95.973 Y173.982 I0.46 J-1.519
G01 X91.49 Y177.22
G03 X90.553 Y177.52 I-0.929 J-1.286
G01 X76.347 Y177.455
X72.031 Y180.147
G03 X70.839 Y180.348 I-0.84 J-1.346
G01 X63.599 Y178.702
G03 X63.229 Y178.568 I0.351 J-1.548
G01 X55.215 Y174.478
X40.999 Y172.524
X26.928 Y171.318
G02 X26.757 Y173.31 I-0.085 J0.996
G00 Z5
X341.797 Y117.782
Z-0.3
G01 Z-0.4 F100
G02 X341.316 Y115.841 I-0.24 J-0.97 F20
G01 X330.404 Y118.541
X309.884 Y129.182
G03 X309.204 Y129.36 I-0.73 J-1.409
G01 X294.306 Y129.832
X276.743 Y134.179
X259.328 Y140.278
G03 X259.024 Y140.352 I-0.524 J-1.498
G01 X235.442 Y143.663
X216.576 Y149.373
X194.273 Y170.879
G03 X193.653 Y171.249 I-1.101 J-1.142
G01 X155.457 Y183.416
G03 X154.948 Y183.491 I-0.481 J-1.512
G01 X138.234 Y183.199
G03 X138.17 Y183.197 I0.027 J-1.587
G01 X130.833 Y182.772
G03 X129.982 Y182.465 I0.091 J-1.584
G01 X125.726 Y179.323
X120.652 Y178.573
X117.39 Y179.419
X114.041 Y181.634
G03 X112.317 Y181.653 I-0.875 J-1.324
G01 X106.062 Y177.703
X97.004 Y174.958
G03 X95.973 Y173.982 I0.46 J-1.519
G01 X91.49 Y177.22
G03 X90.553 Y177.52 I-0.929 J-1.286
G01 X76.347 Y177.455
X72.031 Y180.147
G03 X70.839 Y180.348 I-0.84 J-1.346
G01 X63.599 Y178.702
G03 X63.229 Y178.568 I0.351 J-1.548
G01 X55.215 Y174.478
X40.999 Y172.524
X26.928 Y171.318
G02 X26.757 Y173.31 I-0.085 J0.996
G00 Z5
X341.797 Y117.782
Z-0.4
G01 Z-0.5 F100
G02 X341.316 Y115.841 I-0.24 J-0.97 F20
G01 X330.404 Y118.541
X309.884 Y129.182
G03 X309.204 Y129.36 I-0.73 J-1.409
G01 X294.306 Y129.832
X276.743 Y134.179
X259.328 Y140.278
G03 X259.024 Y140.352 I-0.524 J-1.498
G01 X235.442 Y143.663
X216.576 Y149.373
X194.273 Y170.879
G03 X193.653 Y171.249 I-1.101 J-1.142
G01 X155.457 Y183.416
G03 X154.948 Y183.491 I-0.481 J-1.512
G01 X138.234 Y183.199
G03 X138.17 Y183.197 I0.027 J-1.587
G01 X130.833 Y182.772
G03 X129.982 Y182.465 I0.091 J-1.584
G01 X125.726 Y179.323
X120.652 Y178.573
X117.39 Y179.419
X114.041 Y181.634
G03 X112.317 Y181.653 I-0.875 J-1.324
G01 X106.062 Y177.703
X97.004 Y174.958
G03 X95.973 Y173.982 I0.46 J-1.519
G01 X91.49 Y177.22
G03 X90.553 Y177.52 I-0.929 J-1.286
G01 X76.347 Y177.455
X72.031 Y180.147
G03 X70.839 Y180.348 I-0.84 J-1.346
G01 X63.599 Y178.702
G03 X63.229 Y178.568 I0.351 J-1.548
G01 X55.215 Y174.478
X40.999 Y172.524
X26.928 Y171.318
G02 X26.757 Y173.31 I-0.085 J0.996
G00 Z5
X341.797 Y117.782
Z-0.5
G01 Z-0.6 F100
G02 X341.316 Y115.841 I-0.24 J-0.97 F20
G01 X330.404 Y118.541
X309.884 Y129.182
G03 X309.204 Y129.36 I-0.73 J-1.409
G01 X294.306 Y129.832
X276.743 Y134.179
X259.328 Y140.278
G03 X259.024 Y140.352 I-0.524 J-1.498
G01 X235.442 Y143.663
X216.576 Y149.373
X194.273 Y170.879
G03 X193.653 Y171.249 I-1.101 J-1.142
G01 X155.457 Y183.416
G03 X154.948 Y183.491 I-0.481 J-1.512
G01 X138.234 Y183.199
G03 X138.17 Y183.197 I0.027 J-1.587
G01 X130.833 Y182.772
G03 X129.982 Y182.465 I0.091 J-1.584
G01 X125.726 Y179.323
X120.652 Y178.573
X117.39 Y179.419
X114.041 Y181.634
G03 X112.317 Y181.653 I-0.875 J-1.324
G01 X106.062 Y177.703
X97.004 Y174.958
G03 X95.973 Y173.982 I0.46 J-1.519
G01 X91.49 Y177.22
G03 X90.553 Y177.52 I-0.929 J-1.286
G01 X76.347 Y177.455
X72.031 Y180.147
G03 X70.839 Y180.348 I-0.84 J-1.346
G01 X63.599 Y178.702
G03 X63.229 Y178.568 I0.351 J-1.548
G01 X55.215 Y174.478
X40.999 Y172.524
X26.928 Y171.318
G02 X26.757 Y173.31 I-0.085 J0.996
G00 Z5
X341.797 Y117.782
Z-0.6
G01 Z-0.7 F100
G02 X341.316 Y115.841 I-0.24 J-0.97 F20
G01 X330.404 Y118.541
X309.884 Y129.182
G03 X309.204 Y129.36 I-0.73 J-1.409
G01 X294.306 Y129.832
X276.743 Y134.179
X259.328 Y140.278
G03 X259.024 Y140.352 I-0.524 J-1.498
G01 X235.442 Y143.663
X216.576 Y149.373
X194.273 Y170.879
G03 X193.653 Y171.249 I-1.101 J-1.142
G01 X155.457 Y183.416
G03 X154.948 Y183.491 I-0.481 J-1.512
G01 X138.234 Y183.199
G03 X138.17 Y183.197 I0.027 J-1.587
G01 X130.833 Y182.772
G03 X129.982 Y182.465 I0.091 J-1.584
G01 X125.726 Y179.323
X120.652 Y178.573
X117.39 Y179.419
X114.041 Y181.634
G03 X112.317 Y181.653 I-0.875 J-1.324
G01 X106.062 Y177.703
X97.004 Y174.958
G03 X95.973 Y173.982 I0.46 J-1.519
G01 X91.49 Y177.22
G03 X90.553 Y177.52 I-0.929 J-1.286
G01 X76.347 Y177.455
X72.031 Y180.147
G03 X70.839 Y180.348 I-0.84 J-1.346
G01 X63.599 Y178.702
G03 X63.229 Y178.568 I0.351 J-1.548
G01 X55.215 Y174.478
X40.999 Y172.524
X26.928 Y171.318
G02 X26.757 Y173.31 I-0.085 J0.996
G00 Z5
X341.797 Y117.782
Z-0.7
G01 Z-0.8 F100
G02 X341.316 Y115.841 I-0.24 J-0.97 F20
G01 X330.404 Y118.541
X309.884 Y129.182
G03 X309.204 Y129.36 I-0.73 J-1.409
G01 X294.306 Y129.832
X276.743 Y134.179
X259.328 Y140.278
G03 X259.024 Y140.352 I-0.524 J-1.498
G01 X235.442 Y143.663
X216.576 Y149.373
X194.273 Y170.879
G03 X193.653 Y171.249 I-1.101 J-1.142
G01 X155.457 Y183.416
G03 X154.948 Y183.491 I-0.481 J-1.512
G01 X138.234 Y183.199
G03 X138.17 Y183.197 I0.027 J-1.587
G01 X130.833 Y182.772
G03 X129.982 Y182.465 I0.091 J-1.584
G01 X125.726 Y179.323
X120.652 Y178.573
X117.39 Y179.419
X114.041 Y181.634
G03 X112.317 Y181.653 I-0.875 J-1.324
G01 X106.062 Y177.703
X97.004 Y174.958
G03 X95.973 Y173.982 I0.46 J-1.519
G01 X91.49 Y177.22
G03 X90.553 Y177.52 I-0.929 J-1.286
G01 X76.347 Y177.455
X72.031 Y180.147
G03 X70.839 Y180.348 I-0.84 J-1.346
G01 X63.599 Y178.702
G03 X63.229 Y178.568 I0.351 J-1.548
G01 X55.215 Y174.478
X40.999 Y172.524
X26.928 Y171.318
G02 X26.757 Y173.31 I-0.085 J0.996
G00 Z5
X341.797 Y117.782
Z-0.8
G01 Z-0.9 F100
G02 X341.316 Y115.841 I-0.24 J-0.97 F20
G01 X330.404 Y118.541
X309.884 Y129.182
G03 X309.204 Y129.36 I-0.73 J-1.409
G01 X294.306 Y129.832
X276.743 Y134.179
X259.328 Y140.278
G03 X259.024 Y140.352 I-0.524 J-1.498
G01 X235.442 Y143.663
X216.576 Y149.373
X194.273 Y170.879
G03 X193.653 Y171.249 I-1.101 J-1.142
G01 X155.457 Y183.416
G03 X154.948 Y183.491 I-0.481 J-1.512
G01 X138.234 Y183.199
G03 X138.17 Y183.197 I0.027 J-1.587
G01 X130.833 Y182.772
G03 X129.982 Y182.465 I0.091 J-1.584
G01 X125.726 Y179.323
X120.652 Y178.573
X117.39 Y179.419
X114.041 Y181.634
G03 X112.317 Y181.653 I-0.875 J-1.324
G01 X106.062 Y177.703
X97.004 Y174.958
G03 X95.973 Y173.982 I0.46 J-1.519
G01 X91.49 Y177.22
G03 X90.553 Y177.52 I-0.929 J-1.286
G01 X76.347 Y177.455
X72.031 Y180.147
G03 X70.839 Y180.348 I-0.84 J-1.346
G01 X63.599 Y178.702
G03 X63.229 Y178.568 I0.351 J-1.548
G01 X55.215 Y174.478
X40.999 Y172.524
X26.928 Y171.318
G02 X26.757 Y173.31 I-0.085 J0.996
G00 Z5
X341.797 Y117.782
Z-0.9
G01 Z-1 F100
G02 X341.316 Y115.841 I-0.24 J-0.97 F20
G01 X330.404 Y118.541
X309.884 Y129.182
G03 X309.204 Y129.36 I-0.73 J-1.409
G01 X294.306 Y129.832
X276.743 Y134.179
X259.328 Y140.278
G03 X259.024 Y140.352 I-0.524 J-1.498
G01 X235.442 Y143.663
X216.576 Y149.373
X194.273 Y170.879
G03 X193.653 Y171.249 I-1.101 J-1.142
G01 X155.457 Y183.416
G03 X154.948 Y183.491 I-0.481 J-1.512
G01 X138.234 Y183.199
G03 X138.17 Y183.197 I0.027 J-1.587
G01 X130.833 Y182.772
G03 X129.982 Y182.465 I0.091 J-1.584
G01 X125.726 Y179.323
X120.652 Y178.573
X117.39 Y179.419
X114.041 Y181.634
G03 X112.317 Y181.653 I-0.875 J-1.324
G01 X106.062 Y177.703
X97.004 Y174.958
G03 X95.973 Y173.982 I0.46 J-1.519
G01 X91.49 Y177.22
G03 X90.553 Y177.52 I-0.929 J-1.286
G01 X76.347 Y177.455
X72.031 Y180.147
G03 X70.839 Y180.348 I-0.84 J-1.346
G01 X63.599 Y178.702
G03 X63.229 Y178.568 I0.351 J-1.548
G01 X55.215 Y174.478
X40.999 Y172.524
X26.928 Y171.318
G02 X26.757 Y173.31 I-0.085 J0.996
G00 Z5
G90
(Sketch 2)
X341.797 Y117.782
Z2
G01 Z-0.1 F100
G02 X341.316 Y115.841 I-0.24 J-0.97 F20
G01 X330.404 Y118.541
X309.884 Y129.182
G03 X309.204 Y129.36 I-0.73 J-1.409
G01 X294.306 Y129.832
X276.743 Y134.179
X259.328 Y140.278
G03 X259.024 Y140.352 I-0.524 J-1.498
G01 X235.442 Y143.663
X216.576 Y149.373
X194.273 Y170.879
G03 X193.653 Y171.249 I-1.101 J-1.142
G01 X155.457 Y183.416
G03 X154.948 Y183.491 I-0.481 J-1.512
G01 X138.234 Y183.199
G03 X138.17 Y183.197 I0.027 J-1.587
G01 X130.833 Y182.772
G03 X129.982 Y182.465 I0.091 J-1.584
G01 X125.726 Y179.323
X120.652 Y178.573
X117.39 Y179.419
X114.041 Y181.634
G03 X112.317 Y181.653 I-0.875 J-1.324
G01 X106.062 Y177.703
X97.004 Y174.958
G03 X95.973 Y173.982 I0.46 J-1.519
G01 X91.49 Y177.22
G03 X90.553 Y177.52 I-0.929 J-1.286
G01 X76.347 Y177.455
X72.031 Y180.147
G03 X70.839 Y180.348 I-0.84 J-1.346
G01 X63.599 Y178.702
G03 X63.229 Y178.568 I0.351 J-1.548
G01 X55.215 Y174.478
X40.999 Y172.524
X26.928 Y171.318
G02 X26.757 Y173.31 I-0.085 J0.996
G00 Z5
X341.797 Y117.782
Z-0.1
G01 Z-0.2 F100
G02 X341.316 Y115.841 I-0.24 J-0.97 F20
G01 X330.404 Y118.541
X309.884 Y129.182
G03 X309.204 Y129.36 I-0.73 J-1.409
G01 X294.306 Y129.832
X276.743 Y134.179
X259.328 Y140.278
G03 X259.024 Y140.352 I-0.524 J-1.498
G01 X235.442 Y143.663
X216.576 Y149.373
X194.273 Y170.879
G03 X193.653 Y171.249 I-1.101 J-1.142
G01 X155.457 Y183.416
G03 X154.948 Y183.491 I-0.481 J-1.512
G01 X138.234 Y183.199
G03 X138.17 Y183.197 I0.027 J-1.587
G01 X130.833 Y182.772
G03 X129.982 Y182.465 I0.091 J-1.584
G01 X125.726 Y179.323
X120.652 Y178.573
X117.39 Y179.419
X114.041 Y181.634
G03 X112.317 Y181.653 I-0.875 J-1.324
G01 X106.062 Y177.703
X97.004 Y174.958
G03 X95.973 Y173.982 I0.46 J-1.519
G01 X91.49 Y177.22
G03 X90.553 Y177.52 I-0.929 J-1.286
G01 X76.347 Y177.455
X72.031 Y180.147
G03 X70.839 Y180.348 I-0.84 J-1.346
G01 X63.599 Y178.702
G03 X63.229 Y178.568 I0.351 J-1.548
G01 X55.215 Y174.478
X40.999 Y172.524
X26.928 Y171.318
G02 X26.757 Y173.31 I-0.085 J0.996
G00 Z5
X341.797 Y117.782
Z-0.2
G01 Z-0.3 F100
G02 X341.316 Y115.841 I-0.24 J-0.97 F20
G01 X330.404 Y118.541
X309.884 Y129.182
G03 X309.204 Y129.36 I-0.73 J-1.409
G01 X294.306 Y129.832
X276.743 Y134.179
X259.328 Y140.278
G03 X259.024 Y140.352 I-0.524 J-1.498
G01 X235.442 Y143.663
X216.576 Y149.373
X194.273 Y170.879
G03 X193.653 Y171.249 I-1.101 J-1.142
G01 X155.457 Y183.416
G03 X154.948 Y183.491 I-0.481 J-1.512
G01 X138.234 Y183.199
G03 X138.17 Y183.197 I0.027 J-1.587
G01 X130.833 Y182.772
G03 X129.982 Y182.465 I0.091 J-1.584
G01 X125.726 Y179.323
X120.652 Y178.573
X117.39 Y179.419
X114.041 Y181.634
G03 X112.317 Y181.653 I-0.875 J-1.324
G01 X106.062 Y177.703
X97.004 Y174.958
G03 X95.973 Y173.982 I0.46 J-1.519
G01 X91.49 Y177.22
G03 X90.553 Y177.52 I-0.929 J-1.286
G01 X76.347 Y177.455
X72.031 Y180.147
G03 X70.839 Y180.348 I-0.84 J-1.346
G01 X63.599 Y178.702
G03 X63.229 Y178.568 I0.351 J-1.548
G01 X55.215 Y174.478
X40.999 Y172.524
X26.928 Y171.318
G02 X26.757 Y173.31 I-0.085 J0.996
G00 Z5
X341.797 Y117.782
Z-0.3
G01 Z-0.4 F100
G02 X341.316 Y115.841 I-0.24 J-0.97 F20
G01 X330.404 Y118.541
X309.884 Y129.182
G03 X309.204 Y129.36 I-0.73 J-1.409
G01 X294.306 Y129.832
X276.743 Y134.179
X259.328 Y140.278
G03 X259.024 Y140.352 I-0.524 J-1.498
G01 X235.442 Y143.663
X216.576 Y149.373
X194.273 Y170.879
G03 X193.653 Y171.249 I-1.101 J-1.142
G01 X155.457 Y183.416
G03 X154.948 Y183.491 I-0.481 J-1.512
G01 X138.234 Y183.199
G03 X138.17 Y183.197 I0.027 J-1.587
G01 X130.833 Y182.772
G03 X129.982 Y182.465 I0.091 J-1.584
G01 X125.726 Y179.323
X120.652 Y178.573
X117.39 Y179.419
X114.041 Y181.634
G03 X112.317 Y181.653 I-0.875 J-1.324
G01 X106.062 Y177.703
X97.004 Y174.958
G03 X95.973 Y173.982 I0.46 J-1.519
G01 X91.49 Y177.22
G03 X90.553 Y177.52 I-0.929 J-1.286
G01 X76.347 Y177.455
X72.031 Y180.147
G03 X70.839 Y180.348 I-0.84 J-1.346
G01 X63.599 Y178.702
G03 X63.229 Y178.568 I0.351 J-1.548
G01 X55.215 Y174.478
X40.999 Y172.524
X26.928 Y171.318
G02 X26.757 Y173.31 I-0.085 J0.996
G00 Z5
X341.797 Y117.782
Z-0.4
G01 Z-0.5 F100
G02 X341.316 Y115.841 I-0.24 J-0.97 F20
G01 X330.404 Y118.541
X309.884 Y129.182
G03 X309.204 Y129.36 I-0.73 J-1.409
G01 X294.306 Y129.832
X276.743 Y134.179
X259.328 Y140.278
G03 X259.024 Y140.352 I-0.524 J-1.498
G01 X235.442 Y143.663
X216.576 Y149.373
X194.273 Y170.879
G03 X193.653 Y171.249 I-1.101 J-1.142
G01 X155.457 Y183.416
G03 X154.948 Y183.491 I-0.481 J-1.512
G01 X138.234 Y183.199
G03 X138.17 Y183.197 I0.027 J-1.587
G01 X130.833 Y182.772
G03 X129.982 Y182.465 I0.091 J-1.584
G01 X125.726 Y179.323
X120.652 Y178.573
X117.39 Y179.419
X114.041 Y181.634
G03 X112.317 Y181.653 I-0.875 J-1.324
G01 X106.062 Y177.703
X97.004 Y174.958
G03 X95.973 Y173.982 I0.46 J-1.519
G01 X91.49 Y177.22
G03 X90.553 Y177.52 I-0.929 J-1.286
G01 X76.347 Y177.455
X72.031 Y180.147
G03 X70.839 Y180.348 I-0.84 J-1.346
G01 X63.599 Y178.702
G03 X63.229 Y178.568 I0.351 J-1.548
G01 X55.215 Y174.478
X40.999 Y172.524
X26.928 Y171.318
G02 X26.757 Y173.31 I-0.085 J0.996
G00 Z5
X341.797 Y117.782
Z-0.5
G01 Z-0.6 F100
G02 X341.316 Y115.841 I-0.24 J-0.97 F20
G01 X330.404 Y118.541
X309.884 Y129.182
G03 X309.204 Y129.36 I-0.73 J-1.409
G01 X294.306 Y129.832
X276.743 Y134.179
X259.328 Y140.278
G03 X259.024 Y140.352 I-0.524 J-1.498
G01 X235.442 Y143.663
X216.576 Y149.373
X194.273 Y170.879
G03 X193.653 Y171.249 I-1.101 J-1.142
G01 X155.457 Y183.416
G03 X154.948 Y183.491 I-0.481 J-1.512
G01 X138.234 Y183.199
G03 X138.17 Y183.197 I0.027 J-1.587
G01 X130.833 Y182.772
G03 X129.982 Y182.465 I0.091 J-1.584
G01 X125.726 Y179.323
X120.652 Y178.573
X117.39 Y179.419
X114.041 Y181.634
G03 X112.317 Y181.653 I-0.875 J-1.324
G01 X106.062 Y177.703
X97.004 Y174.958
G03 X95.973 Y173.982 I0.46 J-1.519
G01 X91.49 Y177.22
G03 X90.553 Y177.52 I-0.929 J-1.286
G01 X76.347 Y177.455
X72.031 Y180.147
G03 X70.839 Y180.348 I-0.84 J-1.346
G01 X63.599 Y178.702
G03 X63.229 Y178.568 I0.351 J-1.548
G01 X55.215 Y174.478
X40.999 Y172.524
X26.928 Y171.318
G02 X26.757 Y173.31 I-0.085 J0.996
G00 Z5
X341.797 Y117.782
Z-0.6
G01 Z-0.7 F100
G02 X341.316 Y115.841 I-0.24 J-0.97 F20
G01 X330.404 Y118.541
X309.884 Y129.182
G03 X309.204 Y129.36 I-0.73 J-1.409
G01 X294.306 Y129.832
X276.743 Y134.179
X259.328 Y140.278
G03 X259.024 Y140.352 I-0.524 J-1.498
G01 X235.442 Y143.663
X216.576 Y149.373
X194.273 Y170.879
G03 X193.653 Y171.249 I-1.101 J-1.142
G01 X155.457 Y183.416
G03 X154.948 Y183.491 I-0.481 J-1.512
G01 X138.234 Y183.199
G03 X138.17 Y183.197 I0.027 J-1.587
G01 X130.833 Y182.772
G03 X129.982 Y182.465 I0.091 J-1.584
G01 X125.726 Y179.323
X120.652 Y178.573
X117.39 Y179.419
X114.041 Y181.634
G03 X112.317 Y181.653 I-0.875 J-1.324
G01 X106.062 Y177.703
X97.004 Y174.958
G03 X95.973 Y173.982 I0.46 J-1.519
G01 X91.49 Y177.22
G03 X90.553 Y177.52 I-0.929 J-1.286
G01 X76.347 Y177.455
X72.031 Y180.147
G03 X70.839 Y180.348 I-0.84 J-1.346
G01 X63.599 Y178.702
G03 X63.229 Y178.568 I0.351 J-1.548
G01 X55.215 Y174.478
X40.999 Y172.524
X26.928 Y171.318
G02 X26.757 Y173.31 I-0.085 J0.996
G00 Z5
X341.797 Y117.782
Z-0.7
G01 Z-0.8 F100
G02 X341.316 Y115.841 I-0.24 J-0.97 F20
G01 X330.404 Y118.541
X309.884 Y129.182
G03 X309.204 Y129.36 I-0.73 J-1.409
G01 X294.306 Y129.832
X276.743 Y134.179
X259.328 Y140.278
G03 X259.024 Y140.352 I-0.524 J-1.498
G01 X235.442 Y143.663
X216.576 Y149.373
X194.273 Y170.879
G03 X193.653 Y171.249 I-1.101 J-1.142
G01 X155.457 Y183.416
G03 X154.948 Y183.491 I-0.481 J-1.512
G01 X138.234 Y183.199
G03 X138.17 Y183.197 I0.027 J-1.587
G01 X130.833 Y182.772
G03 X129.982 Y182.465 I0.091 J-1.584
G01 X125.726 Y179.323
X120.652 Y178.573
X117.39 Y179.419
X114.041 Y181.634
G03 X112.317 Y181.653 I-0.875 J-1.324
G01 X106.062 Y177.703
X97.004 Y174.958
G03 X95.973 Y173.982 I0.46 J-1.519
G01 X91.49 Y177.22
G03 X90.553 Y177.52 I-0.929 J-1.286
G01 X76.347 Y177.455
X72.031 Y180.147
G03 X70.839 Y180.348 I-0.84 J-1.346
G01 X63.599 Y178.702
G03 X63.229 Y178.568 I0.351 J-1.548
G01 X55.215 Y174.478
X40.999 Y172.524
X26.928 Y171.318
G02 X26.757 Y173.31 I-0.085 J0.996
G00 Z5
X341.797 Y117.782
Z-0.8
G01 Z-0.9 F100
G02 X341.316 Y115.841 I-0.24 J-0.97 F20
G01 X330.404 Y118.541
X309.884 Y129.182
G03 X309.204 Y129.36 I-0.73 J-1.409
G01 X294.306 Y129.832
X276.743 Y134.179
X259.328 Y140.278
G03 X259.024 Y140.352 I-0.524 J-1.498
G01 X235.442 Y143.663
X216.576 Y149.373
X194.273 Y170.879
G03 X193.653 Y171.249 I-1.101 J-1.142
G01 X155.457 Y183.416
G03 X154.948 Y183.491 I-0.481 J-1.512
G01 X138.234 Y183.199
G03 X138.17 Y183.197 I0.027 J-1.587
G01 X130.833 Y182.772
G03 X129.982 Y182.465 I0.091 J-1.584
G01 X125.726 Y179.323
X120.652 Y178.573
X117.39 Y179.419
X114.041 Y181.634
G03 X112.317 Y181.653 I-0.875 J-1.324
G01 X106.062 Y177.703
X97.004 Y174.958
G03 X95.973 Y173.982 I0.46 J-1.519
G01 X91.49 Y177.22
G03 X90.553 Y177.52 I-0.929 J-1.286
G01 X76.347 Y177.455
X72.031 Y180.147
G03 X70.839 Y180.348 I-0.84 J-1.346
G01 X63.599 Y178.702
G03 X63.229 Y178.568 I0.351 J-1.548
G01 X55.215 Y174.478
X40.999 Y172.524
X26.928 Y171.318
G02 X26.757 Y173.31 I-0.085 J0.996
G00 Z5
X341.797 Y117.782
Z-0.9
G01 Z-1 F100
G02 X341.316 Y115.841 I-0.24 J-0.97 F20
G01 X330.404 Y118.541
X309.884 Y129.182
G03 X309.204 Y129.36 I-0.73 J-1.409
G01 X294.306 Y129.832
X276.743 Y134.179
X259.328 Y140.278
G03 X259.024 Y140.352 I-0.524 J-1.498
G01 X235.442 Y143.663
X216.576 Y149.373
X194.273 Y170.879
G03 X193.653 Y171.249 I-1.101 J-1.142
G01 X155.457 Y183.416
G03 X154.948 Y183.491 I-0.481 J-1.512
G01 X138.234 Y183.199
G03 X138.17 Y183.197 I0.027 J-1.587
G01 X130.833 Y182.772
G03 X129.982 Y182.465 I0.091 J-1.584
G01 X125.726 Y179.323
X120.652 Y178.573
X117.39 Y179.419
X114.041 Y181.634
G03 X112.317 Y181.653 I-0.875 J-1.324
G01 X106.062 Y177.703
X97.004 Y174.958
G03 X95.973 Y173.982 I0.46 J-1.519
G01 X91.49 Y177.22
G03 X90.553 Y177.52 I-0.929 J-1.286
G01 X76.347 Y177.455
X72.031 Y180.147
G03 X70.839 Y180.348 I-0.84 J-1.346
G01 X63.599 Y178.702
G03 X63.229 Y178.568 I0.351 J-1.548
G01 X55.215 Y174.478
X40.999 Y172.524
X26.928 Y171.318
G02 X26.757 Y173.31 I-0.085 J0.996
G00 Z5
G90
(Sketch 3)
X156.518 Y195.798 S7000 M03
Z2
G01 Z-0.1 F100
G02 X155.712 Y193.968 I-0.403 J-0.915 F30
X155.576 Y194.043 I0.341 J0.774
X155.259 Y194.268 I5.928 J8.698
X154.76 Y194.656 I7.659 J10.391
X154.24 Y195.089 I20.065 J24.602
X152.743 Y196.416 I32.5 J38.158
X151.253 Y197.811 I95.505 J103.467
X147.299 Y201.667 I148.074 J155.824
X143.395 Y205.61 I411.226 J411.062
X139.721 Y209.385 I491.43 J481.947
X136.07 Y213.187 I669.34 J646.45
X134.895 Y214.42 I673.623 J643.252
X133.722 Y215.655 I576.442 J548.44
X133.397 Y215.999 I507.573 J480.851
X133.071 Y216.343 I369.253 J349.339
X132.986 Y216.433 I305.93 J288.892
X132.901 Y216.523 I207.279 J195.619
G03 X132.871 Y216.554 I-1.235 J-1.164
X131.617 Y217.082 I-1.183 J-1.057
X131.568 Y217.082 I-0.022 J-1.715
X131.431 Y217.08 I2.89 J-188.122
X131.294 Y217.078 I4.261 J-264.809
X130.791 Y217.069 I5.114 J-307.897
X130.288 Y217.06 I6.994 J-383.327
X128.635 Y217.024 I7.853 J-401.554
X126.981 Y216.981 I8.58 J-362.404
X123.219 Y216.859 I13.073 J-462.882
X119.392 Y216.617 I2.589 J-71.184
G02 X116.721 Y216.437 I-5.287 J58.455
X114.077 Y216.405 I-1.814 J40.65
X112.994 Y216.446 I0.627 J30.747
X111.956 Y216.536 I0.943 J16.948
X111.211 Y216.645 I1.506 J12.819
X110.638 Y216.794 I0.65 J3.669
G03 X109.045 Y216.465 I-0.52 J-1.499
G01 X70.34 Y180.986
G02 X68.989 Y182.46 I-0.675 J0.737
G00 Z5
X156.518 Y195.798
Z-0.1
G01 Z-0.2 F100
G02 X155.712 Y193.968 I-0.403 J-0.915 F30
X155.576 Y194.043 I0.341 J0.774
X155.259 Y194.268 I5.928 J8.698
X154.76 Y194.656 I7.659 J10.391
X154.24 Y195.089 I20.065 J24.602
X152.743 Y196.416 I32.5 J38.158
X151.253 Y197.811 I95.505 J103.467
X147.299 Y201.667 I148.074 J155.824
X143.395 Y205.61 I411.226 J411.062
X139.721 Y209.385 I491.43 J481.947
X136.07 Y213.187 I669.34 J646.45
X134.895 Y214.42 I673.623 J643.252
X133.722 Y215.655 I576.442 J548.44
X133.397 Y215.999 I507.573 J480.851
X133.071 Y216.343 I369.253 J349.339
X132.986 Y216.433 I305.93 J288.892
X132.901 Y216.523 I207.279 J195.619
G03 X132.871 Y216.554 I-1.235 J-1.164
X131.617 Y217.082 I-1.183 J-1.057
X131.568 Y217.082 I-0.022 J-1.715
X131.431 Y217.08 I2.89 J-188.122
X131.294 Y217.078 I4.261 J-264.809
X130.791 Y217.069 I5.114 J-307.897
X130.288 Y217.06 I6.994 J-383.327
X128.635 Y217.024 I7.853 J-401.554
X126.981 Y216.981 I8.58 J-362.404
X123.219 Y216.859 I13.073 J-462.882
X119.392 Y216.617 I2.589 J-71.184
G02 X116.721 Y216.437 I-5.287 J58.455
X114.077 Y216.405 I-1.814 J40.65
X112.994 Y216.446 I0.627 J30.747
X111.956 Y216.536 I0.943 J16.948
X111.211 Y216.645 I1.506 J12.819
X110.638 Y216.794 I0.65 J3.669
G03 X109.045 Y216.465 I-0.52 J-1.499
G01 X70.34 Y180.986
G02 X68.989 Y182.46 I-0.675 J0.737
G00 Z5
X156.518 Y195.798
Z-0.2
G01 Z-0.3 F100
G02 X155.712 Y193.968 I-0.403 J-0.915 F30
X155.576 Y194.043 I0.341 J0.774
X155.259 Y194.268 I5.928 J8.698
X154.76 Y194.656 I7.659 J10.391
X154.24 Y195.089 I20.065 J24.602
X152.743 Y196.416 I32.5 J38.158
X151.253 Y197.811 I95.505 J103.467
X147.299 Y201.667 I148.074 J155.824
X143.395 Y205.61 I411.226 J411.062
X139.721 Y209.385 I491.43 J481.947
X136.07 Y213.187 I669.34 J646.45
X134.895 Y214.42 I673.623 J643.252
X133.722 Y215.655 I576.442 J548.44
X133.397 Y215.999 I507.573 J480.851
X133.071 Y216.343 I369.253 J349.339
X132.986 Y216.433 I305.93 J288.892
X132.901 Y216.523 I207.279 J195.619
G03 X132.871 Y216.554 I-1.235 J-1.164
X131.617 Y217.082 I-1.183 J-1.057
X131.568 Y217.082 I-0.022 J-1.715
X131.431 Y217.08 I2.89 J-188.122
X131.294 Y217.078 I4.261 J-264.809
X130.791 Y217.069 I5.114 J-307.897
X130.288 Y217.06 I6.994 J-383.327
X128.635 Y217.024 I7.853 J-401.554
X126.981 Y216.981 I8.58 J-362.404
X123.219 Y216.859 I13.073 J-462.882
X119.392 Y216.617 I2.589 J-71.184
G02 X116.721 Y216.437 I-5.287 J58.455
X114.077 Y216.405 I-1.814 J40.65
X112.994 Y216.446 I0.627 J30.747
X111.956 Y216.536 I0.943 J16.948
X111.211 Y216.645 I1.506 J12.819
X110.638 Y216.794 I0.65 J3.669
G03 X109.045 Y216.465 I-0.52 J-1.499
G01 X70.34 Y180.986
G02 X68.989 Y182.46 I-0.675 J0.737
G00 Z5
X156.518 Y195.798
Z-0.3
G01 Z-0.4 F100
G02 X155.712 Y193.968 I-0.403 J-0.915 F30
X155.576 Y194.043 I0.341 J0.774
X155.259 Y194.268 I5.928 J8.698
X154.76 Y194.656 I7.659 J10.391
X154.24 Y195.089 I20.065 J24.602
X152.743 Y196.416 I32.5 J38.158
X151.253 Y197.811 I95.505 J103.467
X147.299 Y201.667 I148.074 J155.824
X143.395 Y205.61 I411.226 J411.062
X139.721 Y209.385 I491.43 J481.947
X136.07 Y213.187 I669.34 J646.45
X134.895 Y214.42 I673.623 J643.252
X133.722 Y215.655 I576.442 J548.44
X133.397 Y215.999 I507.573 J480.851
X133.071 Y216.343 I369.253 J349.339
X132.986 Y216.433 I305.93 J288.892
X132.901 Y216.523 I207.279 J195.619
G03 X132.871 Y216.554 I-1.235 J-1.164
X131.617 Y217.082 I-1.183 J-1.057
X131.568 Y217.082 I-0.022 J-1.715
X131.431 Y217.08 I2.89 J-188.122
X131.294 Y217.078 I4.261 J-264.809
X130.791 Y217.069 I5.114 J-307.897
X130.288 Y217.06 I6.994 J-383.327
X128.635 Y217.024 I7.853 J-401.554
X126.981 Y216.981 I8.58 J-362.404
X123.219 Y216.859 I13.073 J-462.882
X119.392 Y216.617 I2.589 J-71.184
G02 X116.721 Y216.437 I-5.287 J58.455
X114.077 Y216.405 I-1.814 J40.65
X112.994 Y216.446 I0.627 J30.747
X111.956 Y216.536 I0.943 J16.948
X111.211 Y216.645 I1.506 J12.819
X110.638 Y216.794 I0.65 J3.669
G03 X109.045 Y216.465 I-0.52 J-1.499
G01 X70.34 Y180.986
G02 X68.989 Y182.46 I-0.675 J0.737
G00 Z5
X156.518 Y195.798
Z-0.4
G01 Z-0.5 F100
G02 X155.712 Y193.968 I-0.403 J-0.915 F30
X155.576 Y194.043 I0.341 J0.774
X155.259 Y194.268 I5.928 J8.698
X154.76 Y194.656 I7.659 J10.391
X154.24 Y195.089 I20.065 J24.602
X152.743 Y196.416 I32.5 J38.158
X151.253 Y197.811 I95.505 J103.467
X147.299 Y201.667 I148.074 J155.824
X143.395 Y205.61 I411.226 J411.062
X139.721 Y209.385 I491.43 J481.947
X136.07 Y213.187 I669.34 J646.45
X134.895 Y214.42 I673.623 J643.252
X133.722 Y215.655 I576.442 J548.44
X133.397 Y215.999 I507.573 J480.851
X133.071 Y216.343 I369.253 J349.339
X132.986 Y216.433 I305.93 J288.892
X132.901 Y216.523 I207.279 J195.619
G03 X132.871 Y216.554 I-1.235 J-1.164
X131.617 Y217.082 I-1.183 J-1.057
X131.568 Y217.082 I-0.022 J-1.715
X131.431 Y217.08 I2.89 J-188.122
X131.294 Y217.078 I4.261 J-264.809
X130.791 Y217.069 I5.114 J-307.897
X130.288 Y217.06 I6.994 J-383.327
X128.635 Y217.024 I7.853 J-401.554
X126.981 Y216.981 I8.58 J-362.404
X123.219 Y216.859 I13.073 J-462.882
X119.392 Y216.617 I2.589 J-71.184
G02 X116.721 Y216.437 I-5.287 J58.455
X114.077 Y216.405 I-1.814 J40.65
X112.994 Y216.446 I0.627 J30.747
X111.956 Y216.536 I0.943 J16.948
X111.211 Y216.645 I1.506 J12.819
X110.638 Y216.794 I0.65 J3.669
G03 X109.045 Y216.465 I-0.52 J-1.499
G01 X70.34 Y180.986
G02 X68.989 Y182.46 I-0.675 J0.737
G00 Z5
X156.518 Y195.798
Z-0.5
G01 Z-0.6 F100
G02 X155.712 Y193.968 I-0.403 J-0.915 F30
X155.576 Y194.043 I0.341 J0.774
X155.259 Y194.268 I5.928 J8.698
X154.76 Y194.656 I7.659 J10.391
X154.24 Y195.089 I20.065 J24.602
X152.743 Y196.416 I32.5 J38.158
X151.253 Y197.811 I95.505 J103.467
X147.299 Y201.667 I148.074 J155.824
X143.395 Y205.61 I411.226 J411.062
X139.721 Y209.385 I491.43 J481.947
X136.07 Y213.187 I669.34 J646.45
X134.895 Y214.42 I673.623 J643.252
X133.722 Y215.655 I576.442 J548.44
X133.397 Y215.999 I507.573 J480.851
X133.071 Y216.343 I369.253 J349.339
X132.986 Y216.433 I305.93 J288.892
X132.901 Y216.523 I207.279 J195.619
G03 X132.871 Y216.554 I-1.235 J-1.164
X131.617 Y217.082 I-1.183 J-1.057
X131.568 Y217.082 I-0.022 J-1.715
X131.431 Y217.08 I2.89 J-188.122
X131.294 Y217.078 I4.261 J-264.809
X130.791 Y217.069 I5.114 J-307.897
X130.288 Y217.06 I6.994 J-383.327
X128.635 Y217.024 I7.853 J-401.554
X126.981 Y216.981 I8.58 J-362.404
X123.219 Y216.859 I13.073 J-462.882
X119.392 Y216.617 I2.589 J-71.184
G02 X116.721 Y216.437 I-5.287 J58.455
X114.077 Y216.405 I-1.814 J40.65
X112.994 Y216.446 I0.627 J30.747
X111.956 Y216.536 I0.943 J16.948
X111.211 Y216.645 I1.506 J12.819
X110.638 Y216.794 I0.65 J3.669
G03 X109.045 Y216.465 I-0.52 J-1.499
G01 X70.34 Y180.986
G02 X68.989 Y182.46 I-0.675 J0.737
G00 Z5
X156.518 Y195.798
Z-0.6
G01 Z-0.7 F100
G02 X155.712 Y193.968 I-0.403 J-0.915 F30
X155.576 Y194.043 I0.341 J0.774
X155.259 Y194.268 I5.928 J8.698
X154.76 Y194.656 I7.659 J10.391
X154.24 Y195.089 I20.065 J24.602
X152.743 Y196.416 I32.5 J38.158
X151.253 Y197.811 I95.505 J103.467
X147.299 Y201.667 I148.074 J155.824
X143.395 Y205.61 I411.226 J411.062
X139.721 Y209.385 I491.43 J481.947
X136.07 Y213.187 I669.34 J646.45
X134.895 Y214.42 I673.623 J643.252
X133.722 Y215.655 I576.442 J548.44
X133.397 Y215.999 I507.573 J480.851
X133.071 Y216.343 I369.253 J349.339
X132.986 Y216.433 I305.93 J288.892
X132.901 Y216.523 I207.279 J195.619
G03 X132.871 Y216.554 I-1.235 J-1.164
X131.617 Y217.082 I-1.183 J-1.057
X131.568 Y217.082 I-0.022 J-1.715
X131.431 Y217.08 I2.89 J-188.122
X131.294 Y217.078 I4.261 J-264.809
X130.791 Y217.069 I5.114 J-307.897
X130.288 Y217.06 I6.994 J-383.327
X128.635 Y217.024 I7.853 J-401.554
X126.981 Y216.981 I8.58 J-362.404
X123.219 Y216.859 I13.073 J-462.882
X119.392 Y216.617 I2.589 J-71.184
G02 X116.721 Y216.437 I-5.287 J58.455
X114.077 Y216.405 I-1.814 J40.65
X112.994 Y216.446 I0.627 J30.747
X111.956 Y216.536 I0.943 J16.948
X111.211 Y216.645 I1.506 J12.819
X110.638 Y216.794 I0.65 J3.669
G03 X109.045 Y216.465 I-0.52 J-1.499
G01 X70.34 Y180.986
G02 X68.989 Y182.46 I-0.675 J0.737
G00 Z5
X156.518 Y195.798
Z-0.7
G01 Z-0.8 F100
G02 X155.712 Y193.968 I-0.403 J-0.915 F30
X155.576 Y194.043 I0.341 J0.774
X155.259 Y194.268 I5.928 J8.698
X154.76 Y194.656 I7.659 J10.391
X154.24 Y195.089 I20.065 J24.602
X152.743 Y196.416 I32.5 J38.158
X151.253 Y197.811 I95.505 J103.467
X147.299 Y201.667 I148.074 J155.824
X143.395 Y205.61 I411.226 J411.062
X139.721 Y209.385 I491.43 J481.947
X136.07 Y213.187 I669.34 J646.45
X134.895 Y214.42 I673.623 J643.252
X133.722 Y215.655 I576.442 J548.44
X133.397 Y215.999 I507.573 J480.851
X133.071 Y216.343 I369.253 J349.339
X132.986 Y216.433 I305.93 J288.892
X132.901 Y216.523 I207.279 J195.619
G03 X132.871 Y216.554 I-1.235 J-1.164
X131.617 Y217.082 I-1.183 J-1.057
X131.568 Y217.082 I-0.022 J-1.715
X131.431 Y217.08 I2.89 J-188.122
X131.294 Y217.078 I4.261 J-264.809
X130.791 Y217.069 I5.114 J-307.897
X130.288 Y217.06 I6.994 J-383.327
X128.635 Y217.024 I7.853 J-401.554
X126.981 Y216.981 I8.58 J-362.404
X123.219 Y216.859 I13.073 J-462.882
X119.392 Y216.617 I2.589 J-71.184
G02 X116.721 Y216.437 I-5.287 J58.455
X114.077 Y216.405 I-1.814 J40.65
X112.994 Y216.446 I0.627 J30.747
X111.956 Y216.536 I0.943 J16.948
X111.211 Y216.645 I1.506 J12.819
X110.638 Y216.794 I0.65 J3.669
G03 X109.045 Y216.465 I-0.52 J-1.499
G01 X70.34 Y180.986
G02 X68.989 Y182.46 I-0.675 J0.737
G00 Z5
X156.518 Y195.798
Z-0.8
G01 Z-0.9 F100
G02 X155.712 Y193.968 I-0.403 J-0.915 F30
X155.576 Y194.043 I0.341 J0.774
X155.259 Y194.268 I5.928 J8.698
X154.76 Y194.656 I7.659 J10.391
X154.24 Y195.089 I20.065 J24.602
X152.743 Y196.416 I32.5 J38.158
X151.253 Y197.811 I95.505 J103.467
X147.299 Y201.667 I148.074 J155.824
X143.395 Y205.61 I411.226 J411.062
X139.721 Y209.385 I491.43 J481.947
X136.07 Y213.187 I669.34 J646.45
X134.895 Y214.42 I673.623 J643.252
X133.722 Y215.655 I576.442 J548.44
X133.397 Y215.999 I507.573 J480.851
X133.071 Y216.343 I369.253 J349.339
X132.986 Y216.433 I305.93 J288.892
X132.901 Y216.523 I207.279 J195.619
G03 X132.871 Y216.554 I-1.235 J-1.164
X131.617 Y217.082 I-1.183 J-1.057
X131.568 Y217.082 I-0.022 J-1.715
X131.431 Y217.08 I2.89 J-188.122
X131.294 Y217.078 I4.261 J-264.809
X130.791 Y217.069 I5.114 J-307.897
X130.288 Y217.06 I6.994 J-383.327
X128.635 Y217.024 I7.853 J-401.554
X126.981 Y216.981 I8.58 J-362.404
X123.219 Y216.859 I13.073 J-462.882
X119.392 Y216.617 I2.589 J-71.184
G02 X116.721 Y216.437 I-5.287 J58.455
X114.077 Y216.405 I-1.814 J40.65
X112.994 Y216.446 I0.627 J30.747
X111.956 Y216.536 I0.943 J16.948
X111.211 Y216.645 I1.506 J12.819
X110.638 Y216.794 I0.65 J3.669
G03 X109.045 Y216.465 I-0.52 J-1.499
G01 X70.34 Y180.986
G02 X68.989 Y182.46 I-0.675 J0.737
G00 Z5
X156.518 Y195.798
Z-0.9
G01 Z-1 F100
G02 X155.712 Y193.968 I-0.403 J-0.915 F30
X155.576 Y194.043 I0.341 J0.774
X155.259 Y194.268 I5.928 J8.698
X154.76 Y194.656 I7.659 J10.391
X154.24 Y195.089 I20.065 J24.602
X152.743 Y196.416 I32.5 J38.158
X151.253 Y197.811 I95.505 J103.467
X147.299 Y201.667 I148.074 J155.824
X143.395 Y205.61 I411.226 J411.062
X139.721 Y209.385 I491.43 J481.947
X136.07 Y213.187 I669.34 J646.45
X134.895 Y214.42 I673.623 J643.252
X133.722 Y215.655 I576.442 J548.44
X133.397 Y215.999 I507.573 J480.851
X133.071 Y216.343 I369.253 J349.339
X132.986 Y216.433 I305.93 J288.892
X132.901 Y216.523 I207.279 J195.619
G03 X132.871 Y216.554 I-1.235 J-1.164
X131.617 Y217.082 I-1.183 J-1.057
X131.568 Y217.082 I-0.022 J-1.715
X131.431 Y217.08 I2.89 J-188.122
X131.294 Y217.078 I4.261 J-264.809
X130.791 Y217.069 I5.114 J-307.897
X130.288 Y217.06 I6.994 J-383.327
X128.635 Y217.024 I7.853 J-401.554
X126.981 Y216.981 I8.58 J-362.404
X123.219 Y216.859 I13.073 J-462.882
X119.392 Y216.617 I2.589 J-71.184
G02 X116.721 Y216.437 I-5.287 J58.455
X114.077 Y216.405 I-1.814 J40.65
X112.994 Y216.446 I0.627 J30.747
X111.956 Y216.536 I0.943 J16.948
X111.211 Y216.645 I1.506 J12.819
X110.638 Y216.794 I0.65 J3.669
G03 X109.045 Y216.465 I-0.52 J-1.499
G01 X70.34 Y180.986
G02 X68.989 Y182.46 I-0.675 J0.737
G00 Z5
G90
(Sketch 3)
X156.518 Y195.798
Z2
G01 Z-0.1 F100
G02 X155.712 Y193.968 I-0.403 J-0.915 F20
X155.576 Y194.043 I0.341 J0.774
X155.259 Y194.268 I5.928 J8.698
X154.76 Y194.656 I7.659 J10.391
X154.24 Y195.089 I20.065 J24.602
X152.743 Y196.416 I32.5 J38.158
X151.253 Y197.811 I95.505 J103.467
X147.299 Y201.667 I148.074 J155.824
X143.395 Y205.61 I411.226 J411.062
X139.721 Y209.385 I491.43 J481.947
X136.07 Y213.187 I669.34 J646.45
X134.895 Y214.42 I673.623 J643.252
X133.722 Y215.655 I576.442 J548.44
X133.397 Y215.999 I507.573 J480.851
X133.071 Y216.343 I369.253 J349.339
X132.986 Y216.433 I305.93 J288.892
X132.901 Y216.523 I207.279 J195.619
G03 X132.871 Y216.554 I-1.235 J-1.164
X131.617 Y217.082 I-1.183 J-1.057
X131.568 Y217.082 I-0.022 J-1.715
X131.431 Y217.08 I2.89 J-188.122
X131.294 Y217.078 I4.261 J-264.809
X130.791 Y217.069 I5.114 J-307.897
X130.288 Y217.06 I6.994 J-383.327
X128.635 Y217.024 I7.853 J-401.554
X126.981 Y216.981 I8.58 J-362.404
X123.219 Y216.859 I13.073 J-462.882
X119.392 Y216.617 I2.589 J-71.184
G02 X116.721 Y216.437 I-5.287 J58.455
X114.077 Y216.405 I-1.814 J40.65
X112.994 Y216.446 I0.627 J30.747
X111.956 Y216.536 I0.943 J16.948
X111.211 Y216.645 I1.506 J12.819
X110.638 Y216.794 I0.65 J3.669
G03 X109.045 Y216.465 I-0.52 J-1.499
G01 X70.34 Y180.986
G02 X68.989 Y182.46 I-0.675 J0.737
G00 Z5
X156.518 Y195.798
Z-0.1
G01 Z-0.2 F100
G02 X155.712 Y193.968 I-0.403 J-0.915 F20
X155.576 Y194.043 I0.341 J0.774
X155.259 Y194.268 I5.928 J8.698
X154.76 Y194.656 I7.659 J10.391
X154.24 Y195.089 I20.065 J24.602
X152.743 Y196.416 I32.5 J38.158
X151.253 Y197.811 I95.505 J103.467
X147.299 Y201.667 I148.074 J155.824
X143.395 Y205.61 I411.226 J411.062
X139.721 Y209.385 I491.43 J481.947
X136.07 Y213.187 I669.34 J646.45
X134.895 Y214.42 I673.623 J643.252
X133.722 Y215.655 I576.442 J548.44
X133.397 Y215.999 I507.573 J480.851
X133.071 Y216.343 I369.253 J349.339
X132.986 Y216.433 I305.93 J288.892
X132.901 Y216.523 I207.279 J195.619
G03 X132.871 Y216.554 I-1.235 J-1.164
X131.617 Y217.082 I-1.183 J-1.057
X131.568 Y217.082 I-0.022 J-1.715
X131.431 Y217.08 I2.89 J-188.122
X131.294 Y217.078 I4.261 J-264.809
X130.791 Y217.069 I5.114 J-307.897
X130.288 Y217.06 I6.994 J-383.327
X128.635 Y217.024 I7.853 J-401.554
X126.981 Y216.981 I8.58 J-362.404
X123.219 Y216.859 I13.073 J-462.882
X119.392 Y216.617 I2.589 J-71.184
G02 X116.721 Y216.437 I-5.287 J58.455
X114.077 Y216.405 I-1.814 J40.65
X112.994 Y216.446 I0.627 J30.747
X111.956 Y216.536 I0.943 J16.948
X111.211 Y216.645 I1.506 J12.819
X110.638 Y216.794 I0.65 J3.669
G03 X109.045 Y216.465 I-0.52 J-1.499
G01 X70.34 Y180.986
G02 X68.989 Y182.46 I-0.675 J0.737
G00 Z5
X156.518 Y195.798
Z-0.2
G01 Z-0.3 F100
G02 X155.712 Y193.968 I-0.403 J-0.915 F20
X155.576 Y194.043 I0.341 J0.774
X155.259 Y194.268 I5.928 J8.698
X154.76 Y194.656 I7.659 J10.391
X154.24 Y195.089 I20.065 J24.602
X152.743 Y196.416 I32.5 J38.158
X151.253 Y197.811 I95.505 J103.467
X147.299 Y201.667 I148.074 J155.824
X143.395 Y205.61 I411.226 J411.062
X139.721 Y209.385 I491.43 J481.947
X136.07 Y213.187 I669.34 J646.45
X134.895 Y214.42 I673.623 J643.252
X133.722 Y215.655 I576.442 J548.44
X133.397 Y215.999 I507.573 J480.851
X133.071 Y216.343 I369.253 J349.339
X132.986 Y216.433 I305.93 J288.892
X132.901 Y216.523 I207.279 J195.619
G03 X132.871 Y216.554 I-1.235 J-1.164
X131.617 Y217.082 I-1.183 J-1.057
X131.568 Y217.082 I-0.022 J-1.715
X131.431 Y217.08 I2.89 J-188.122
X131.294 Y217.078 I4.261 J-264.809
X130.791 Y217.069 I5.114 J-307.897
X130.288 Y217.06 I6.994 J-383.327
X128.635 Y217.024 I7.853 J-401.554
X126.981 Y216.981 I8.58 J-362.404
X123.219 Y216.859 I13.073 J-462.882
X119.392 Y216.617 I2.589 J-71.184
G02 X116.721 Y216.437 I-5.287 J58.455
X114.077 Y216.405 I-1.814 J40.65
X112.994 Y216.446 I0.627 J30.747
X111.956 Y216.536 I0.943 J16.948
X111.211 Y216.645 I1.506 J12.819
X110.638 Y216.794 I0.65 J3.669
G03 X109.045 Y216.465 I-0.52 J-1.499
G01 X70.34 Y180.986
G02 X68.989 Y182.46 I-0.675 J0.737
G00 Z5
X156.518 Y195.798
Z-0.3
G01 Z-0.4 F100
G02 X155.712 Y193.968 I-0.403 J-0.915 F20
X155.576 Y194.043 I0.341 J0.774
X155.259 Y194.268 I5.928 J8.698
X154.76 Y194.656 I7.659 J10.391
X154.24 Y195.089 I20.065 J24.602
X152.743 Y196.416 I32.5 J38.158
X151.253 Y197.811 I95.505 J103.467
X147.299 Y201.667 I148.074 J155.824
X143.395 Y205.61 I411.226 J411.062
X139.721 Y209.385 I491.43 J481.947
X136.07 Y213.187 I669.34 J646.45
X134.895 Y214.42 I673.623 J643.252
X133.722 Y215.655 I576.442 J548.44
X133.397 Y215.999 I507.573 J480.851
X133.071 Y216.343 I369.253 J349.339
X132.986 Y216.433 I305.93 J288.892
X132.901 Y216.523 I207.279 J195.619
G03 X132.871 Y216.554 I-1.235 J-1.164
X131.617 Y217.082 I-1.183 J-1.057
X131.568 Y217.082 I-0.022 J-1.715
X131.431 Y217.08 I2.89 J-188.122
X131.294 Y217.078 I4.261 J-264.809
X130.791 Y217.069 I5.114 J-307.897
X130.288 Y217.06 I6.994 J-383.327
X128.635 Y217.024 I7.853 J-401.554
X126.981 Y216.981 I8.58 J-362.404
X123.219 Y216.859 I13.073 J-462.882
X119.392 Y216.617 I2.589 J-71.184
G02 X116.721 Y216.437 I-5.287 J58.455
X114.077 Y216.405 I-1.814 J40.65
X112.994 Y216.446 I0.627 J30.747
X111.956 Y216.536 I0.943 J16.948
X111.211 Y216.645 I1.506 J12.819
X110.638 Y216.794 I0.65 J3.669
G03 X109.045 Y216.465 I-0.52 J-1.499
G01 X70.34 Y180.986
G02 X68.989 Y182.46 I-0.675 J0.737
G00 Z5
X156.518 Y195.798
Z-0.4
G01 Z-0.5 F100
G02 X155.712 Y193.968 I-0.403 J-0.915 F20
X155.576 Y194.043 I0.341 J0.774
X155.259 Y194.268 I5.928 J8.698
X154.76 Y194.656 I7.659 J10.391
X154.24 Y195.089 I20.065 J24.602
X152.743 Y196.416 I32.5 J38.158
X151.253 Y197.811 I95.505 J103.467
X147.299 Y201.667 I148.074 J155.824
X143.395 Y205.61 I411.226 J411.062
X139.721 Y209.385 I491.43 J481.947
X136.07 Y213.187 I669.34 J646.45
X134.895 Y214.42 I673.623 J643.252
X133.722 Y215.655 I576.442 J548.44
X133.397 Y215.999 I507.573 J480.851
X133.071 Y216.343 I369.253 J349.339
X132.986 Y216.433 I305.93 J288.892
X132.901 Y216.523 I207.279 J195.619
G03 X132.871 Y216.554 I-1.235 J-1.164
X131.617 Y217.082 I-1.183 J-1.057
X131.568 Y217.082 I-0.022 J-1.715
X131.431 Y217.08 I2.89 J-188.122
X131.294 Y217.078 I4.261 J-264.809
X130.791 Y217.069 I5.114 J-307.897
X130.288 Y217.06 I6.994 J-383.327
X128.635 Y217.024 I7.853 J-401.554
X126.981 Y216.981 I8.58 J-362.404
X123.219 Y216.859 I13.073 J-462.882
X119.392 Y216.617 I2.589 J-71.184
G02 X116.721 Y216.437 I-5.287 J58.455
X114.077 Y216.405 I-1.814 J40.65
X112.994 Y216.446 I0.627 J30.747
X111.956 Y216.536 I0.943 J16.948
X111.211 Y216.645 I1.506 J12.819
X110.638 Y216.794 I0.65 J3.669
G03 X109.045 Y216.465 I-0.52 J-1.499
G01 X70.34 Y180.986
G02 X68.989 Y182.46 I-0.675 J0.737
G00 Z5
X156.518 Y195.798
Z-0.5
G01 Z-0.6 F100
G02 X155.712 Y193.968 I-0.403 J-0.915 F20
X155.576 Y194.043 I0.341 J0.774
X155.259 Y194.268 I5.928 J8.698
X154.76 Y194.656 I7.659 J10.391
X154.24 Y195.089 I20.065 J24.602
X152.743 Y196.416 I32.5 J38.158
X151.253 Y197.811 I95.505 J103.467
X147.299 Y201.667 I148.074 J155.824
X143.395 Y205.61 I411.226 J411.062
X139.721 Y209.385 I491.43 J481.947
X136.07 Y213.187 I669.34 J646.45
X134.895 Y214.42 I673.623 J643.252
X133.722 Y215.655 I576.442 J548.44
X133.397 Y215.999 I507.573 J480.851
X133.071 Y216.343 I369.253 J349.339
X132.986 Y216.433 I305.93 J288.892
X132.901 Y216.523 I207.279 J195.619
G03 X132.871 Y216.554 I-1.235 J-1.164
X131.617 Y217.082 I-1.183 J-1.057
X131.568 Y217.082 I-0.022 J-1.715
X131.431 Y217.08 I2.89 J-188.122
X131.294 Y217.078 I4.261 J-264.809
X130.791 Y217.069 I5.114 J-307.897
X130.288 Y217.06 I6.994 J-383.327
X128.635 Y217.024 I7.853 J-401.554
X126.981 Y216.981 I8.58 J-362.404
X123.219 Y216.859 I13.073 J-462.882
X119.392 Y216.617 I2.589 J-71.184
G02 X116.721 Y216.437 I-5.287 J58.455
X114.077 Y216.405 I-1.814 J40.65
X112.994 Y216.446 I0.627 J30.747
X111.956 Y216.536 I0.943 J16.948
X111.211 Y216.645 I1.506 J12.819
X110.638 Y216.794 I0.65 J3.669
G03 X109.045 Y216.465 I-0.52 J-1.499
G01 X70.34 Y180.986
G02 X68.989 Y182.46 I-0.675 J0.737
G00 Z5
X156.518 Y195.798
Z-0.6
G01 Z-0.7 F100
G02 X155.712 Y193.968 I-0.403 J-0.915 F20
X155.576 Y194.043 I0.341 J0.774
X155.259 Y194.268 I5.928 J8.698
X154.76 Y194.656 I7.659 J10.391
X154.24 Y195.089 I20.065 J24.602
X152.743 Y196.416 I32.5 J38.158
X151.253 Y197.811 I95.505 J103.467
X147.299 Y201.667 I148.074 J155.824
X143.395 Y205.61 I411.226 J411.062
X139.721 Y209.385 I491.43 J481.947
X136.07 Y213.187 I669.34 J646.45
X134.895 Y214.42 I673.623 J643.252
X133.722 Y215.655 I576.442 J548.44
X133.397 Y215.999 I507.573 J480.851
X133.071 Y216.343 I369.253 J349.339
X132.986 Y216.433 I305.93 J288.892
X132.901 Y216.523 I207.279 J195.619
G03 X132.871 Y216.554 I-1.235 J-1.164
X131.617 Y217.082 I-1.183 J-1.057
X131.568 Y217.082 I-0.022 J-1.715
X131.431 Y217.08 I2.89 J-188.122
X131.294 Y217.078 I4.261 J-264.809
X130.791 Y217.069 I5.114 J-307.897
X130.288 Y217.06 I6.994 J-383.327
X128.635 Y217.024 I7.853 J-401.554
X126.981 Y216.981 I8.58 J-362.404
X123.219 Y216.859 I13.073 J-462.882
X119.392 Y216.617 I2.589 J-71.184
G02 X116.721 Y216.437 I-5.287 J58.455
X114.077 Y216.405 I-1.814 J40.65
X112.994 Y216.446 I0.627 J30.747
X111.956 Y216.536 I0.943 J16.948
X111.211 Y216.645 I1.506 J12.819
X110.638 Y216.794 I0.65 J3.669
G03 X109.045 Y216.465 I-0.52 J-1.499
G01 X70.34 Y180.986
G02 X68.989 Y182.46 I-0.675 J0.737
G00 Z5
X156.518 Y195.798
Z-0.7
G01 Z-0.8 F100
G02 X155.712 Y193.968 I-0.403 J-0.915 F20
X155.576 Y194.043 I0.341 J0.774
X155.259 Y194.268 I5.928 J8.698
X154.76 Y194.656 I7.659 J10.391
X154.24 Y195.089 I20.065 J24.602
X152.743 Y196.416 I32.5 J38.158
X151.253 Y197.811 I95.505 J103.467
X147.299 Y201.667 I148.074 J155.824
X143.395 Y205.61 I411.226 J411.062
X139.721 Y209.385 I491.43 J481.947
X136.07 Y213.187 I669.34 J646.45
X134.895 Y214.42 I673.623 J643.252
X133.722 Y215.655 I576.442 J548.44
X133.397 Y215.999 I507.573 J480.851
X133.071 Y216.343 I369.253 J349.339
X132.986 Y216.433 I305.93 J288.892
X132.901 Y216.523 I207.279 J195.619
G03 X132.871 Y216.554 I-1.235 J-1.164
X131.617 Y217.082 I-1.183 J-1.057
X131.568 Y217.082 I-0.022 J-1.715
X131.431 Y217.08 I2.89 J-188.122
X131.294 Y217.078 I4.261 J-264.809
X130.791 Y217.069 I5.114 J-307.897
X130.288 Y217.06 I6.994 J-383.327
X128.635 Y217.024 I7.853 J-401.554
X126.981 Y216.981 I8.58 J-362.404
X123.219 Y216.859 I13.073 J-462.882
X119.392 Y216.617 I2.589 J-71.184
G02 X116.721 Y216.437 I-5.287 J58.455
X114.077 Y216.405 I-1.814 J40.65
X112.994 Y216.446 I0.627 J30.747
X111.956 Y216.536 I0.943 J16.948
X111.211 Y216.645 I1.506 J12.819
X110.638 Y216.794 I0.65 J3.669
G03 X109.045 Y216.465 I-0.52 J-1.499
G01 X70.34 Y180.986
G02 X68.989 Y182.46 I-0.675 J0.737
G00 Z5
X156.518 Y195.798
Z-0.8
G01 Z-0.9 F100
G02 X155.712 Y193.968 I-0.403 J-0.915 F20
X155.576 Y194.043 I0.341 J0.774
X155.259 Y194.268 I5.928 J8.698
X154.76 Y194.656 I7.659 J10.391
X154.24 Y195.089 I20.065 J24.602
X152.743 Y196.416 I32.5 J38.158
X151.253 Y197.811 I95.505 J103.467
X147.299 Y201.667 I148.074 J155.824
X143.395 Y205.61 I411.226 J411.062
X139.721 Y209.385 I491.43 J481.947
X136.07 Y213.187 I669.34 J646.45
X134.895 Y214.42 I673.623 J643.252
X133.722 Y215.655 I576.442 J548.44
X133.397 Y215.999 I507.573 J480.851
X133.071 Y216.343 I369.253 J349.339
X132.986 Y216.433 I305.93 J288.892
X132.901 Y216.523 I207.279 J195.619
G03 X132.871 Y216.554 I-1.235 J-1.164
X131.617 Y217.082 I-1.183 J-1.057
X131.568 Y217.082 I-0.022 J-1.715
X131.431 Y217.08 I2.89 J-188.122
X131.294 Y217.078 I4.261 J-264.809
X130.791 Y217.069 I5.114 J-307.897
X130.288 Y217.06 I6.994 J-383.327
X128.635 Y217.024 I7.853 J-401.554
X126.981 Y216.981 I8.58 J-362.404
X123.219 Y216.859 I13.073 J-462.882
X119.392 Y216.617 I2.589 J-71.184
G02 X116.721 Y216.437 I-5.287 J58.455
X114.077 Y216.405 I-1.814 J40.65
X112.994 Y216.446 I0.627 J30.747
X111.956 Y216.536 I0.943 J16.948
X111.211 Y216.645 I1.506 J12.819
X110.638 Y216.794 I0.65 J3.669
G03 X109.045 Y216.465 I-0.52 J-1.499
G01 X70.34 Y180.986
G02 X68.989 Y182.46 I-0.675 J0.737
G00 Z5
X156.518 Y195.798
Z-0.9
G01 Z-1 F100
G02 X155.712 Y193.968 I-0.403 J-0.915 F20
X155.576 Y194.043 I0.341 J0.774
X155.259 Y194.268 I5.928 J8.698
X154.76 Y194.656 I7.659 J10.391
X154.24 Y195.089 I20.065 J24.602
X152.743 Y196.416 I32.5 J38.158
X151.253 Y197.811 I95.505 J103.467
X147.299 Y201.667 I148.074 J155.824
X143.395 Y205.61 I411.226 J411.062
X139.721 Y209.385 I491.43 J481.947
X136.07 Y213.187 I669.34 J646.45
X134.895 Y214.42 I673.623 J643.252
X133.722 Y215.655 I576.442 J548.44
X133.397 Y215.999 I507.573 J480.851
X133.071 Y216.343 I369.253 J349.339
X132.986 Y216.433 I305.93 J288.892
X132.901 Y216.523 I207.279 J195.619
G03 X132.871 Y216.554 I-1.235 J-1.164
X131.617 Y217.082 I-1.183 J-1.057
X131.568 Y217.082 I-0.022 J-1.715
X131.431 Y217.08 I2.89 J-188.122
X131.294 Y217.078 I4.261 J-264.809
X130.791 Y217.069 I5.114 J-307.897
X130.288 Y217.06 I6.994 J-383.327
X128.635 Y217.024 I7.853 J-401.554
X126.981 Y216.981 I8.58 J-362.404
X123.219 Y216.859 I13.073 J-462.882
X119.392 Y216.617 I2.589 J-71.184
G02 X116.721 Y216.437 I-5.287 J58.455
X114.077 Y216.405 I-1.814 J40.65
X112.994 Y216.446 I0.627 J30.747
X111.956 Y216.536 I0.943 J16.948
X111.211 Y216.645 I1.506 J12.819
X110.638 Y216.794 I0.65 J3.669
G03 X109.045 Y216.465 I-0.52 J-1.499
G01 X70.34 Y180.986
G02 X68.989 Y182.46 I-0.675 J0.737
G00 Z5
G90
X74.688 Y93.472 S7000 M03
Z2
G01 Z-0.1 F30
X74.514 Y90.777 F20
X74.395 Y92.929
X74.688 Y93.472
X76.096 Y80.27
X75.99 Y82.193
X77.184 Y78.911
X76.096 Y80.27
G00 Z5
X147.882 Y106.539
Z2
G01 Z-0.1 F30
X147.698 Y104.692 F20
X146.547 Y104.704
X147.882 Y106.539
X149.243 Y110.112
X148.662 Y104.275
G02 X148.609 Y103.683 I-3.288 J-0.003
G01 X144.599 Y103.724
X149.243 Y110.112
X150.603 Y113.685
X149.658 Y104.177
G03 X149.549 Y102.674 I20.881 J-2.269
G01 X142.651 Y102.744
X150.603 Y113.685
X151.964 Y117.258
X150.654 Y104.079
G03 X150.512 Y101.665 I29.646 J-2.955
G01 X140.703 Y101.764
X151.964 Y117.258
X153.325 Y120.831
X151.65 Y103.981
G03 X151.484 Y100.657 I40.515 J-3.689
G01 X138.755 Y100.784
X153.325 Y120.831
X154.686 Y124.404
X152.646 Y103.883
G03 X152.48 Y99.648 I41.916 J-3.763
G01 X136.806 Y99.804
X154.686 Y124.404
X155.846 Y127.7
X155.816 Y125.654
X153.642 Y103.785
G03 X153.491 Y98.638 I43.849 J-3.862
G01 X134.858 Y98.824
X155.846 Y127.7
X156.892 Y130.783
X156.816 Y125.598
X154.638 Y103.687
G03 X154.525 Y97.629 I44.982 J-3.869
G01 X132.91 Y97.844
X156.63 Y130.479
X156.892 Y130.783
X157.932 Y133.524
X157.816 Y125.542
X155.634 Y103.589
G03 X155.576 Y96.62 I46.125 J-3.868
G01 X130.962 Y96.864
X155.846 Y131.101
X157.932 Y133.524
X158.972 Y136.265
X158.816 Y125.486
X156.63 Y103.491
G03 X156.515 Y97.858 I43.797 J-3.711
G01 X156.629 Y95.61
X129.341 Y95.881
X129.872 Y97.066
X155.062 Y131.723
X158.972 Y136.265
X160.012 Y139.006
X159.816 Y125.43
X157.626 Y103.393
G03 X157.514 Y97.909 I42.571 J-3.612
G01 X157.682 Y94.6
X127.805 Y94.897
X129.003 Y97.57
X154.278 Y132.345
X160.012 Y139.006
X161.052 Y141.747
X160.816 Y125.374
X158.622 Y103.295
G03 X158.513 Y97.96 I41.345 J-3.513
G01 X158.735 Y93.59
X126.268 Y93.913
X128.133 Y98.074
X153.494 Y132.967
X161.052 Y141.747
X161.964 Y144.339
X162.072 Y143.07
X161.816 Y125.318
X159.618 Y103.197
G03 X159.512 Y98.011 I40.121 J-3.414
G01 X159.788 Y92.58
X124.731 Y92.929
X127.263 Y98.578
X152.71 Y133.589
X161.964 Y144.339
X162.561 Y146.565
X162.836 Y145.896
X163.073 Y143.106
X162.816 Y125.262
X160.614 Y103.099
G03 X160.508 Y101.436 I37.191 J-3.205
X160.511 Y98.062 I40.026 J-1.651
G01 X160.841 Y91.57
X123.194 Y91.945
X126.393 Y99.082
X151.926 Y134.211
X162.561 Y146.565
X162.902 Y148.494
G03 X163.82 Y146.135 I31.064 J10.73
G01 X164.074 Y143.142
X163.816 Y125.206
X161.61 Y103.001
G03 X161.51 Y98.113 I38.21 J-3.226
G01 X161.894 Y90.56
X121.657 Y90.961
X125.523 Y99.586
X151.142 Y134.833
X162.902 Y148.494
X163.299 Y150.487
G03 X164.804 Y146.374 I36.408 J10.99
G01 X165.075 Y143.178
X164.816 Y125.15
X162.606 Y102.903
G03 X162.509 Y98.164 I36.984 J-3.127
G01 X162.947 Y89.55
X120.12 Y89.977
X124.653 Y100.09
X150.358 Y135.455
X163.299 Y150.487
X163.774 Y152.571
G03 X164.354 Y150.435 I56.068 J14.077
X165.788 Y146.612 I41.256 J13.294
G01 X166.076 Y143.214
X165.816 Y125.094
X163.602 Y102.805
G03 X163.506 Y101.29 I37.182 J-3.116
X163.508 Y98.216 I36.863 J-1.513
G01 X164 Y88.54
X118.583 Y88.993
X123.783 Y100.594
X149.574 Y136.077
X163.774 Y152.571
X164.28 Y154.691
G03 X165.301 Y150.759 I87.685 J20.67
X166.772 Y146.852 I41.501 J13.395
G01 X167.077 Y143.25
X166.816 Y125.038
X164.598 Y102.707
G03 X164.507 Y98.267 I35.066 J-2.939
G01 X165.053 Y87.53
X117.645 Y88.003
X117.553 Y89.139
X122.913 Y101.098
X148.79 Y136.699
X164.28 Y154.691
X164.78 Y156.805
X165.885 Y152.408
G03 X167.186 Y148.469 I26.21 J6.472
G01 X167.756 Y147.092
X168.078 Y143.286
X167.816 Y124.982
X165.594 Y102.609
G03 X165.506 Y98.318 I33.838 J-2.84
G01 X166.106 Y86.52
X116.722 Y87.013
X116.536 Y89.315
X122.044 Y101.602
X148.006 Y137.321
X164.78 Y156.805
X165.28 Y158.919
X166.855 Y152.652
G03 X168.111 Y148.852 I25.278 J6.247
G01 X168.74 Y147.331
X169.079 Y143.322
X168.816 Y124.926
X166.59 Y102.511
G03 X166.505 Y98.369 I32.609 J-2.741
G01 X167.159 Y85.51
X115.8 Y86.023
X115.519 Y89.49
X121.174 Y102.106
X147.222 Y137.943
X165.28 Y158.919
X165.78 Y161.033
X167.82 Y152.916
G03 X169.035 Y149.235 I24.529 J6.055
G01 X169.724 Y147.571
X170.08 Y143.358
X169.816 Y124.87
X167.586 Y102.413
G03 X167.504 Y98.42 I31.381 J-2.641
G01 X168.212 Y84.5
X114.877 Y85.033
X114.502 Y89.666
X120.305 Y102.61
X146.438 Y138.565
X165.78 Y161.033
X166.28 Y163.147
X168.79 Y153.16
G03 X169.96 Y149.618 I23.547 J5.813
G01 X170.708 Y147.81
X171.081 Y143.394
X170.816 Y124.814
X168.582 Y102.315
G03 X168.503 Y98.471 I30.716 J-2.554
G01 X169.265 Y83.49
X113.955 Y84.043
X113.485 Y89.841
X119.435 Y103.114
X145.654 Y139.187
X166.28 Y163.147
X166.78 Y165.261
X169.76 Y153.404
G03 X170.884 Y150.002 I22.573 J5.571
G01 X171.692 Y148.05
X172.082 Y143.43
X171.816 Y124.758
X169.578 Y102.217
G03 X169.502 Y98.522 I30.069 J-2.466
G01 X170.318 Y82.48
X113.033 Y83.053
X112.468 Y90.016
X118.566 Y103.618
X144.87 Y139.809
X166.78 Y165.261
X167.28 Y167.375
X170.73 Y153.648
G03 X171.808 Y150.386 I21.84 J5.408
G01 X172.676 Y148.29
X173.083 Y143.465
X172.816 Y124.702
X170.574 Y102.119
G03 X170.501 Y98.573 I29.444 J-2.379
G01 X171.371 Y81.47
X112.111 Y82.063
X111.451 Y90.191
X117.696 Y104.122
X144.086 Y140.431
X167.28 Y167.375
X167.781 Y169.489
X171.7 Y153.892
G03 X172.733 Y150.769 I20.955 J5.199
G01 X173.66 Y148.529
X174.084 Y143.5
X173.816 Y124.646
X171.57 Y102.021
G03 X171.5 Y98.624 I28.844 J-2.293
G01 X172.424 Y80.46
X111.189 Y81.073
X110.434 Y90.366
X116.827 Y104.626
X143.302 Y141.053
X167.781 Y169.489
X168.282 Y171.603
X172.67 Y154.136
G03 X173.657 Y151.152 I20.197 J5.025
G01 X174.644 Y148.768
X175.085 Y143.535
X174.816 Y124.59
X172.566 Y101.923
G03 X172.499 Y98.675 I28.276 J-2.207
G01 X173.477 Y79.45
X110.267 Y80.083
X109.417 Y90.541
X115.957 Y105.13
X142.518 Y141.675
X168.282 Y171.603
X168.78 Y173.73
X173.64 Y154.38
G03 X174.582 Y151.535 I19.44 J4.858
G01 X175.628 Y149.007
X176.086 Y143.57
X175.816 Y124.534
X173.562 Y101.825
G03 X173.498 Y98.726 I27.75 J-2.123
G01 X174.53 Y78.44
X109.345 Y79.093
X108.4 Y90.716
X115.088 Y105.634
X141.734 Y142.297
X168.62 Y173.528
X168.78 Y173.73
X169.238 Y176.015
X174.61 Y154.624
G03 X175.506 Y151.918 I18.82 J4.73
G01 X176.612 Y149.246
X177.087 Y143.605
X176.816 Y124.478
X174.558 Y101.727
G03 X174.497 Y98.777 I26.571 J-2.025
G01 X175.583 Y77.43
X108.423 Y78.103
X107.383 Y90.891
X114.219 Y106.138
X140.95 Y142.919
X167.838 Y174.152
G03 X169.238 Y176.015 I-15.887 J13.396
G01 X169.615 Y178.622
X175.58 Y154.868
G03 X176.43 Y152.301 I18.265 J4.624
G01 X177.596 Y149.485
X178.088 Y143.64
X177.816 Y124.422
X175.554 Y101.629
G03 X175.496 Y98.828 I25.497 J-1.929
G01 X176.637 Y76.399
G03 X176.006 Y76.426 I-0.613 J-6.962
G01 X107.501 Y77.113
X106.366 Y91.066
X113.349 Y106.642
X140.166 Y143.541
X167.081 Y174.805
G03 X169.615 Y178.622 I-15.44 J13
G01 X169.889 Y181.7
G03 X170.071 Y180.916 I13.174 J2.645
G01 X176.544 Y155.136
G03 X177.354 Y152.684 I17.527 J4.43
G01 X178.58 Y149.724
X179.089 Y143.675
X178.816 Y124.366
X176.55 Y101.531
G03 X176.495 Y98.88 I24.443 J-1.833
G01 X177.694 Y75.309
G03 X175.996 Y75.427 I-2.013 J-16.691
G01 X106.579 Y76.123
X105.349 Y91.241
X112.48 Y107.146
X139.382 Y144.163
X166.324 Y175.458
G03 X169.241 Y180.16 I-14.78 J12.425
G01 X169.889 Y181.7
X170.247 Y185.125
X170.824 Y182.1
G03 X171.041 Y181.16 I15.225 J3.019
G01 X177.514 Y155.38
G03 X178.278 Y153.067 I17.068 J4.355
G01 X179.564 Y149.963
X180.09 Y143.71
X179.816 Y124.31
X177.546 Y101.433
G03 X177.494 Y98.931 I23.384 J-1.737
G01 X178.696 Y75.301
G03 X178.801 Y74.143 I11.362 J0.446
X175.986 Y74.428 I-3.208 J-17.648
G01 X105.657 Y75.133
X104.332 Y91.416
X111.61 Y107.65
X138.598 Y144.785
X165.567 Y176.111
G03 X168.32 Y180.549 I-14.004 J11.76
G01 X170.247 Y185.125
X170.609 Y188.563
X171.807 Y182.288
G03 X172.011 Y181.404 I14.263 J2.826
G01 X178.484 Y155.624
G03 X179.202 Y153.45 I15.978 J4.071
G01 X180.548 Y150.203
X181.091 Y143.745
X180.816 Y124.254
X178.542 Y101.335
G03 X178.493 Y98.982 I22.362 J-1.642
G01 X179.695 Y75.352
G03 X180.035 Y72.861 I14.582 J0.721
X175.976 Y73.429 I-4.484 J-17.256
G01 X104.714 Y74.143
G03 X104.677 Y74.853 I-27.48 J-1.076
G01 X103.315 Y91.591
X110.741 Y108.154
X137.814 Y145.407
X164.81 Y176.764
G03 X167.399 Y180.937 I-13.261 J11.117
G01 X170.609 Y188.563
X170.903 Y193.318
G03 X171.14 Y191.118 I14.762 J0.477
G01 X172.79 Y182.476
G03 X172.981 Y181.648 I13.302 J2.632
G01 X179.454 Y155.868
G03 X180.126 Y153.834 I15.308 J3.929
G01 X181.532 Y150.443
X182.092 Y143.78
X181.816 Y124.198
X179.538 Y101.237
G03 X179.492 Y99.033 I21.326 J-1.547
G01 X180.694 Y75.403
G03 X181.453 Y71.469 I14.424 J0.742
X179.437 Y71.982 I-28.8 J-108.964
X175.967 Y72.43 I-3.899 J-16.539
G01 X103.715 Y73.153
G03 X103.681 Y74.772 I-13.236 J0.531
G01 X102.298 Y91.766
X109.871 Y108.658
X137.03 Y146.029
X164.053 Y177.417
G03 X166.478 Y181.326 I-12.407 J10.404
G01 X169.838 Y189.308
G03 X170.903 Y193.318 I-16.196 J6.447
G01 X174.08 Y219.471
X172.936 Y217.403
G03 X172.522 Y218.038 I-5.558 J-3.171
G01 X172.792 Y218.585
X174.08 Y219.471
X176.579 Y221.867
G03 X176.199 Y221.235 I19.479 J-12.142
G01 X173.779 Y216.86
X172.955 Y215.275
G03 X171.368 Y217.955 I-14.038 J-6.503
G01 X172.011 Y219.262
X174.357 Y220.875
X176.579 Y221.867
X179.253 Y223.733
G03 X177.075 Y220.751 I11.386 J-10.603
G01 X174.655 Y216.376
X172.829 Y212.865
G03 X170.203 Y217.851 I-14.819 J-4.62
G01 X171.23 Y219.938
X173.866 Y221.751
X178.193 Y223.683
X179.253 Y223.733
X181.962 Y224.861
G03 X177.951 Y220.267 I9.108 J-12
G01 X175.531 Y215.892
X173.339 Y211.677
G03 X172.476 Y209.62 I13.196 J-6.745
X169.026 Y217.725 I-14.641 J-1.445
G01 X170.449 Y220.614
X173.375 Y222.627
X177.958 Y224.674
X181.962 Y224.861
X185.219 Y226.015
X185.776 Y226.065
G03 X183.986 Y225.034 I48.172 J-85.706
X178.827 Y219.783 I7.252 J-12.285
G01 X176.407 Y215.408
X174.227 Y211.216
G03 X172.71 Y205.852 I12.704 J-6.489
G01 X171.916 Y194.892
G03 X172.123 Y191.306 I14.762 J-0.946
G01 X173.773 Y182.664
G03 X173.951 Y181.892 I12.34 J2.438
G01 X180.415 Y156.148
G03 X181.05 Y154.218 I14.625 J3.742
G01 X182.516 Y150.683
X183.093 Y143.815
X182.816 Y124.142
X180.534 Y101.139
G03 X180.491 Y99.084 I20.336 J-1.453
G01 X181.693 Y75.454
G03 X183.157 Y70.003 I13.509 J0.706
G01 X179.239 Y71.002
G03 X175.958 Y71.431 I-3.674 J-15.341
G01 X102.645 Y72.164
G03 X102.685 Y74.691 I-12.885 J1.467
G01 X101.281 Y91.941
X109.002 Y109.162
X136.246 Y146.651
X163.296 Y178.07
G03 X165.557 Y181.714 I-11.545 J9.687
G01 X168.917 Y189.696
G03 X169.909 Y193.426 I-15.253 J6.053
G01 X171.462 Y206.596
G03 X167.836 Y217.572 I-13.707 J1.558
G01 X169.668 Y221.291
X172.884 Y223.503
X177.723 Y225.665
X185.219 Y226.015
X200.328 Y230.376
X201.092 Y229.164
X195.85 Y228.987
G03 X189.903 Y227.286 I0.581 J-13.278
G01 X184.524 Y224.191
G03 X179.704 Y219.3 I6.685 J-11.408
G01 X177.283 Y214.924
X175.115 Y210.755
G03 X173.708 Y205.78 I11.796 J-6.022
G01 X172.914 Y194.82
G03 X173.106 Y191.495 I13.762 J-0.873
G01 X174.756 Y182.852
G03 X174.921 Y182.136 I11.38 J2.245
G01 X181.385 Y156.392
G03 X181.974 Y154.602 I13.854 J3.566
G01 X183.5 Y150.923
X184.094 Y143.85
X183.816 Y124.086
X181.53 Y101.041
G03 X181.49 Y99.135 I19.355 J-1.359
G01 X182.69 Y75.543
G03 X185.324 Y68.42 I12.701 J0.648
G01 X178.992 Y70.034
G03 X175.949 Y70.432 I-3.402 J-14.181
G01 X101.486 Y71.176
G03 X101.689 Y74.61 I-11.913 J2.427
G01 X100.264 Y92.116
X108.133 Y109.666
X135.462 Y147.273
X162.539 Y178.723
G03 X164.636 Y182.102 I-10.744 J9.007
G01 X167.996 Y190.084
G03 X168.916 Y193.545 I-14.275 J5.647
G01 X170.469 Y206.714
G03 X166.631 Y217.386 I-12.75 J1.44
G01 X168.887 Y221.968
X172.393 Y224.379
X177.488 Y226.656
G03 X185.132 Y227.013 I-35.056 J832.632
X187.44 Y227.332 I-0.992 J15.688
G01 X200.328 Y230.376
X200.793 Y231.514
X202.868 Y228.224
X195.884 Y227.988
G03 X190.402 Y226.42 I0.535 J-12.239
G01 X185.023 Y223.325
G03 X180.58 Y218.816 I6.19 J-10.543
G01 X178.159 Y214.44
X176.003 Y210.294
G03 X174.706 Y205.708 I10.893 J-5.557
G01 X173.912 Y194.748
G03 X174.089 Y191.683 I12.784 J-0.799
G01 X175.739 Y183.04
G03 X175.891 Y182.38 I10.419 J2.052
G01 X182.355 Y156.636
G03 X182.898 Y154.986 I12.812 J3.302
G01 X184.484 Y151.163
X185.095 Y143.885
X184.816 Y124.03
X182.526 Y100.943
G03 X182.489 Y99.186 I18.388 J-1.266
G01 X183.689 Y75.594
G03 X187.608 Y67.41 I11.797 J0.619
G01 X187.452 Y67.156
X186.589 Y67.066
X178.745 Y69.066
G03 X175.94 Y69.433 I-3.13 J-13.021
G01 X100.215 Y70.189
G03 X100.693 Y74.529 I-11.004 J3.408
G01 X99.247 Y92.291
X107.263 Y110.17
X134.678 Y147.895
X161.782 Y179.376
G03 X163.715 Y182.49 I-9.925 J8.318
G01 X167.075 Y190.472
G03 X167.923 Y193.663 I-13.298 J5.242
G01 X169.476 Y206.832
G03 X165.406 Y217.162 I-11.786 J1.322
G01 X168.106 Y222.644
X171.902 Y225.255
X177.253 Y227.647
X185.047 Y228.01
G03 X187.211 Y228.306 I-0.886 J14.54
G01 X200.793 Y231.514
X201.259 Y232.652
X204.644 Y227.284
X195.918 Y226.989
G03 X190.901 Y225.554 I0.492 J-11.209
G01 X185.522 Y222.459
G03 X181.456 Y218.333 I5.676 J-9.66
G01 X179.035 Y213.956
X176.891 Y209.833
G03 X175.704 Y205.636 I10.003 J-5.095
G01 X174.91 Y194.676
G03 X175.072 Y191.871 I11.71 J-0.73
G01 X176.722 Y183.228
G03 X176.861 Y182.624 I9.46 J1.859
G01 X183.325 Y156.88
G03 X183.822 Y155.37 I12.361 J3.231
G01 X185.468 Y151.403
X186.096 Y143.92
X185.816 Y123.974
X183.522 Y100.845
G03 X183.488 Y99.237 I17.48 J-1.173
G01 X184.688 Y75.645
G03 X188.946 Y67.602 I10.802 J0.57
X188.046 Y66.214 I14.778 J-10.568
G01 X186.516 Y66.053
X178.498 Y68.098
G03 X175.931 Y68.434 I-2.858 J-11.861
G01 X98.788 Y69.204
G03 X99.697 Y74.448 I-9.716 J4.385
G01 X98.23 Y92.466
X106.394 Y110.674
X133.894 Y148.517
X161.025 Y180.029
G03 X162.794 Y182.878 I-9.08 J7.611
G01 X166.154 Y190.86
G03 X166.93 Y193.781 I-12.184 J4.8
G01 X168.483 Y206.95
G03 X164.156 Y216.887 I-10.795 J1.209
G01 X167.325 Y223.32
X171.411 Y226.131
X177.018 Y228.638
X185.001 Y229.009
G03 X186.982 Y229.28 I-0.821 J13.382
G01 X201.259 Y232.652
X201.724 Y233.79
X206.42 Y226.344
X195.952 Y225.99
G03 X191.4 Y224.688 I0.446 J-10.17
G01 X186.021 Y221.593
G03 X182.332 Y217.849 I5.144 J-8.758
G01 X179.911 Y213.472
X177.779 Y209.372
G03 X176.702 Y205.564 I9.113 J-4.633
G01 X175.908 Y194.604
G03 X176.055 Y192.059 I10.635 J-0.662
G01 X177.705 Y183.416
G03 X177.831 Y182.868 I13.968 J2.923
G01 X184.295 Y157.124
G03 X184.746 Y155.754 I12.18 J3.25
G01 X186.452 Y151.643
X187.097 Y143.955
X186.816 Y123.918
X184.518 Y100.747
G03 X184.487 Y99.288 I16.595 J-1.082
G01 X185.687 Y75.696
G03 X189.872 Y68.154 I9.843 J0.529
G01 X190.394 Y67.792
G03 X189.341 Y66.408 I6.621 J-6.13
G01 X188.639 Y65.272
X186.443 Y65.04
X178.251 Y67.13
G03 X175.922 Y67.435 I-2.586 J-10.702
G01 X97.469 Y68.218
X97.202 Y68.359
G03 X98.701 Y74.368 I-8.159 J5.226
G01 X97.213 Y92.641
X105.524 Y111.178
X133.11 Y149.139
X160.268 Y180.682
G03 X161.873 Y183.267 I-8.218 J6.893
G01 X165.233 Y191.248
G03 X165.937 Y193.899 I-11.07 J4.358
G01 X167.49 Y207.068
G03 X162.876 Y216.551 I-9.798 J1.096
G01 X166.544 Y223.996
X170.92 Y227.007
X176.783 Y229.629
X184.955 Y230.008
G03 X186.753 Y230.254 I-0.807 J12.594
G01 X201.724 Y233.79
X202.19 Y234.928
X208.196 Y225.404
X195.986 Y224.991
G03 X191.899 Y223.822 I0.409 J-9.159
G01 X186.52 Y220.727
G03 X183.208 Y217.365 I4.627 J-7.871
G01 X180.787 Y212.988
X178.667 Y208.911
G03 X177.7 Y205.492 I8.238 J-4.176
G01 X176.906 Y194.532
G03 X177.038 Y192.247 I9.56 J-0.593
G01 X178.688 Y183.604
G03 X178.801 Y183.112 I12.331 J2.573
G01 X185.265 Y157.368
G03 X185.67 Y156.138 I12.007 J3.272
G01 X187.436 Y151.883
X188.098 Y143.99
X187.816 Y123.862
X185.514 Y100.649
G03 X185.486 Y99.339 I15.846 J-0.993
G01 X186.686 Y75.747
G03 X190.443 Y68.977 I8.831 J0.473
G01 X191.962 Y67.921
G03 X190.192 Y65.883 I5.483 J-6.549
G01 X189.232 Y64.33
X186.37 Y64.027
X178.004 Y66.162
G03 X175.913 Y66.436 I-2.314 J-9.543
G01 X97.217 Y67.221
X95.723 Y68.009
G03 X97.705 Y74.287 I-6.734 J5.578
G01 X96.196 Y92.816
X104.655 Y111.682
X132.326 Y149.761
X159.511 Y181.335
G03 X160.952 Y183.656 I-7.475 J6.249
G01 X164.312 Y191.637
G03 X164.944 Y194.017 I-9.935 J3.912
G01 X166.497 Y207.186
G03 X161.558 Y216.139 I-8.801 J0.983
G01 X165.763 Y224.672
X170.429 Y227.883
X176.548 Y230.62
X184.909 Y231.007
G03 X186.524 Y231.228 I-0.806 J11.907
G01 X202.19 Y234.928
X202.655 Y236.066
X209.972 Y224.464
X196.02 Y223.992
G03 X192.398 Y222.956 I0.363 J-8.119
G01 X187.019 Y219.861
G03 X184.084 Y216.881 I4.106 J-6.979
G01 X181.663 Y212.504
X179.555 Y208.45
G03 X178.698 Y205.421 I7.319 J-3.706
G01 X177.904 Y194.46
G03 X178.021 Y192.435 I8.471 J-0.526
G01 X179.671 Y183.792
G03 X179.771 Y183.356 I10.701 J2.225
G01 X186.235 Y157.612
G03 X186.594 Y156.522 I11.329 J3.127
G01 X188.42 Y152.123
X189.099 Y144.025
X188.816 Y123.806
X186.51 Y100.551
G03 X186.485 Y99.39 I15.354 J-0.911
G01 X187.685 Y75.798
G03 X191.014 Y69.8 I7.826 J0.421
G01 X193.694 Y67.936
G03 X191.043 Y65.358 I3.949 J-6.713
G01 X189.825 Y63.388
X186.297 Y63.014
X177.757 Y65.195
G03 X175.904 Y65.437 I-2.048 J-8.47
G01 X96.965 Y66.224
X94.084 Y67.743
G03 X96.709 Y74.206 I-5.118 J5.843
G01 X95.179 Y92.991
X103.786 Y112.186
X131.542 Y150.383
X158.754 Y181.988
G03 X160.031 Y184.045 I-6.614 J5.531
G01 X163.391 Y192.026
G03 X163.951 Y194.136 I-8.821 J3.47
G01 X165.504 Y207.304
G03 X160.478 Y215.519 I-7.803 J0.87
G01 X160.145 Y215.643
G03 X160.543 Y216.342 I-10.728 J6.571
G01 X164.982 Y225.348
X169.938 Y228.759
X176.313 Y231.611
X184.863 Y232.006
G03 X186.295 Y232.202 I-0.746 J10.779
G01 X202.655 Y236.066
X203.121 Y237.204
X211.748 Y223.524
X196.054 Y222.993
G03 X192.898 Y222.091 I0.318 J-7.086
G01 X187.518 Y218.995
G03 X184.96 Y216.397 I3.57 J-6.073
G01 X182.539 Y212.02
X180.443 Y207.989
G03 X179.696 Y205.35 I6.391 J-3.234
G01 X178.902 Y194.388
G03 X179.004 Y192.623 I7.395 J-0.458
G01 X180.654 Y183.98
X180.741 Y183.6
X187.205 Y157.856
G03 X187.518 Y156.906 I11.914 J3.398
G01 X189.404 Y152.363
X190.1 Y144.06
X189.816 Y123.75
X187.506 Y100.453
G03 X187.484 Y99.441 I13.233 J-0.793
G01 X188.684 Y75.849
G03 X191.585 Y70.622 I6.824 J0.369
G01 X195.456 Y67.929
X195.632 Y67.72
G03 X191.894 Y64.833 I2.047 J-6.514
G01 X190.418 Y62.446
X186.224 Y62.001
X177.51 Y64.227
G03 X175.895 Y64.438 I-1.778 J-7.326
G01 X96.713 Y65.227
X92.173 Y67.621
G03 X95.713 Y74.125 I-3.212 J5.963
G01 X94.162 Y93.166
X102.916 Y112.69
X130.759 Y151.005
X157.997 Y182.641
G03 X159.11 Y184.434 I-5.707 J4.785
G01 X162.47 Y192.415
G03 X162.958 Y194.254 I-7.685 J3.023
G01 X164.511 Y207.422
G03 X160.131 Y214.582 I-6.803 J0.757
G01 X158.519 Y215.18
G03 X159.647 Y216.785 I-4.804 J4.575
G01 X164.201 Y226.024
X169.447 Y229.635
X176.078 Y232.602
X184.817 Y233.005
G03 X186.066 Y233.176 I-0.695 J9.729
G01 X203.121 Y237.204
X203.586 Y238.342
X213.419 Y222.75
X213.403 Y222.58
X196.088 Y221.994
G03 X193.397 Y221.225 I0.276 J-6.061
G01 X188.017 Y218.129
G03 X185.836 Y215.913 I3.044 J-5.178
G01 X183.415 Y211.536
X181.331 Y207.528
G03 X180.694 Y205.278 I5.46 J-2.761
G01 X179.9 Y194.316
G03 X179.987 Y192.811 I6.43 J-0.383
G01 X181.637 Y184.168
G03 X181.711 Y183.844 I3.652 J0.663
G01 X188.175 Y158.1
G03 X188.442 Y157.29 I10.056 J2.865
G01 X190.388 Y152.603
X191.101 Y144.095
X190.816 Y123.694
X188.502 Y100.355
G03 X188.483 Y99.492 I11.046 J-0.674
G01 X189.683 Y75.9
G03 X192.157 Y71.443 I5.821 J0.316
G01 X196.136 Y68.675
X196.868 Y67.807
X196.83 Y66.996
G03 X195.73 Y66.706 I1.547 J-8.099
X192.745 Y64.307 I1.988 J-5.531
G01 X191.011 Y61.504
X186.151 Y60.988
X177.263 Y63.259
G03 X175.886 Y63.439 I-1.501 J-6.128
G01 X96.461 Y64.23
X89.625 Y67.834
G03 X94.717 Y74.044 I-0.682 J5.752
G01 X93.145 Y93.341
X102.047 Y113.194
X129.975 Y151.627
X157.24 Y183.294
G03 X158.189 Y184.823 I-4.88 J4.088
G01 X161.549 Y192.804
G03 X161.965 Y194.372 I-6.61 J2.593
G01 X163.518 Y207.54
G03 X159.783 Y213.645 I-5.8 J0.646
G01 X156.549 Y214.846
G03 X158.751 Y217.228 I-3.034 J5.014
G01 X163.42 Y226.7
X168.956 Y230.511
X175.843 Y233.593
X184.772 Y234.004
G03 X185.837 Y234.15 I-0.741 J9.368
G01 X203.586 Y238.342
X204.051 Y239.48
X214.448 Y222.995
X214.315 Y221.611
X196.122 Y220.995
G03 X193.896 Y220.359 I0.226 J-5.006
G01 X188.516 Y217.263
G03 X186.712 Y215.429 I2.521 J-4.284
G01 X184.291 Y211.052
X182.219 Y207.067
G03 X181.692 Y205.206 I4.555 J-2.295
G01 X180.898 Y194.244
G03 X180.97 Y192.999 I5.257 J-0.32
G01 X182.62 Y184.356
G03 X182.681 Y184.088 I3.929 J0.753
G01 X189.145 Y158.344
G03 X189.366 Y157.674 I8.196 J2.332
G01 X191.372 Y152.843
X192.102 Y144.13
X191.816 Y123.638
X189.498 Y100.257
G03 X189.482 Y99.543 I8.896 J-0.556
G01 X190.682 Y75.951
G03 X192.729 Y72.264 I4.815 J0.262
G01 X196.816 Y69.421
X197.886 Y68.153
X197.792 Y66.146
G03 X196.113 Y65.783 I1.203 J-9.632
X193.597 Y63.782 I1.603 J-4.598
G01 X191.604 Y60.562
X186.078 Y59.975
X177.016 Y62.291
G03 X175.877 Y62.44 I-1.24 J-5.053
G01 X96.209 Y63.233
X82.795 Y70.305
X75.116 Y79.895
X74.611 Y89.016
G03 X74.769 Y88.474 I7.13 J1.784
G01 X78.649 Y77.811
G03 X79.741 Y76.083 I4.588 J1.69
G01 X85.544 Y70.209
G03 X93.721 Y73.963 I3.4 J3.374
G01 X92.128 Y93.516
X101.177 Y113.698
X129.191 Y152.249
X156.483 Y183.947
G03 X157.268 Y185.212 I-4.007 J3.363
G01 X160.628 Y193.193
G03 X160.972 Y194.49 I-5.368 J2.118
G01 X162.525 Y207.658
G03 X159.435 Y212.708 I-4.799 J0.533
G01 X155.758 Y214.074
X154.931 Y215.166
X154.931 Y215.174
G03 X157.126 Y216.605 I-1.712 J5.025
X157.855 Y217.671 I-3.685 J3.302
G01 X162.639 Y227.376
X168.465 Y231.387
X175.608 Y234.584
X184.727 Y235.003
G03 X185.608 Y235.124 I-0.778 J8.938
G01 X204.051 Y239.48
X204.516 Y240.618
X215.477 Y223.24
X215.226 Y220.642
X196.156 Y219.996
G03 X194.395 Y219.493 I0.18 J-3.965
G01 X189.015 Y216.397
G03 X187.588 Y214.945 I1.972 J-3.365
G01 X185.167 Y210.568
X183.107 Y206.606
G03 X182.69 Y205.134 I3.581 J-1.809
G01 X181.896 Y194.172
G03 X181.953 Y193.187 I4.108 J-0.256
G01 X183.603 Y184.544
X183.651 Y184.332
X190.115 Y158.588
G03 X190.29 Y158.058 I5.633 J1.566
G01 X192.356 Y153.083
X193.103 Y144.165
X192.816 Y123.582
X190.494 Y100.159
G03 X190.481 Y99.594 I6.732 J-0.437
G01 X191.681 Y76.002
G03 X193.301 Y73.085 I3.807 J0.206
G01 X197.496 Y70.167
X198.904 Y68.499
X198.754 Y65.301
X197.007 Y64.991
G03 X194.448 Y63.256 I0.702 J-3.791
G01 X192.197 Y59.62
X186.005 Y58.962
X176.769 Y61.323
G03 X175.868 Y61.441 I-0.976 J-3.955
G01 X95.957 Y62.236
X82.145 Y69.518
X74.136 Y79.52
X73.381 Y93.157
X75.981 Y97.964
X75.489 Y90.355
G03 X75.709 Y88.816 I3.882 J-0.23
G01 X79.589 Y78.153
G03 X80.453 Y76.786 I3.626 J1.335
G01 X86.256 Y70.912
G03 X92.725 Y73.882 I2.69 J2.669
G01 X91.111 Y93.691
X100.307 Y114.202
X128.408 Y152.871
X155.726 Y184.6
G03 X156.347 Y185.601 I-3.158 J2.652
G01 X159.707 Y193.582
G03 X159.979 Y194.608 I-4.094 J1.634
G01 X161.532 Y207.776
G03 X159.087 Y211.771 I-3.792 J0.424
G01 X155.137 Y213.239
X153.916 Y214.85
X153.962 Y215.874
G03 X155.038 Y216.306 I-4.984 J13.971
X156.959 Y218.114 I-1.517 J3.537
G01 X161.858 Y228.052
G03 X163.804 Y229.392 I-48.891 J73.084
G01 X163.904 Y229.465
X167.974 Y232.263
X175.373 Y235.575
X184.682 Y236.002
G03 X185.379 Y236.098 I-0.558 J6.632
G01 X204.516 Y240.618
X204.981 Y241.756
X216.506 Y223.485
X216.138 Y219.673
X196.19 Y218.997
G03 X194.894 Y218.627 I0.12 J-2.877
G01 X189.514 Y215.531
G03 X188.464 Y214.462 I1.445 J-2.47
X186.044 Y210.085 I379.961 J-212.934
G01 X183.995 Y206.145
G03 X183.688 Y205.062 I2.589 J-1.319
G01 X182.894 Y194.1
G03 X182.936 Y193.375 I2.907 J-0.195
G01 X184.586 Y184.732
X184.621 Y184.576
X191.085 Y158.832
G03 X191.214 Y158.442 I3.567 J0.963
G01 X193.34 Y153.323
X194.104 Y144.2
X193.816 Y123.526
X191.49 Y100.061
G03 X191.48 Y99.645 I4.57 J-0.317
G01 X192.68 Y76.053
G03 X193.873 Y73.906 I2.792 J0.146
G01 X198.176 Y70.913
X199.922 Y68.845
X199.716 Y64.456
X197.182 Y64.007
G03 X195.299 Y62.73 I0.511 J-2.78
G01 X192.79 Y58.678
X185.932 Y57.949
X176.522 Y60.355
G03 X175.859 Y60.442 I-0.704 J-2.799
G01 X95.705 Y61.239
X81.495 Y68.731
X73.156 Y79.145
X72.367 Y93.385
X76.639 Y101.282
X77.204 Y101.373
X76.487 Y90.291
G03 X76.649 Y89.158 I2.864 J-0.168
G01 X80.529 Y78.495
G03 X81.165 Y77.489 I2.655 J0.974
G01 X86.968 Y71.615
G03 X91.729 Y73.801 I1.98 J1.963
G01 X90.094 Y93.866
X99.438 Y114.706
X127.624 Y153.493
X154.969 Y185.253
G03 X155.426 Y185.99 I-2.271 J1.918
G01 X158.786 Y193.971
G03 X158.986 Y194.726 I-2.879 J1.166
G01 X160.539 Y207.894
G03 X158.74 Y210.834 I-2.784 J0.316
G01 X154.517 Y212.404
X152.901 Y214.534
X152.993 Y216.564
X154.596 Y217.203
G03 X156.063 Y218.558 I-1.065 J2.624
G01 X161.077 Y228.729
G02 X163.214 Y230.199 I51.183 J-72.119
G01 X163.326 Y230.281
X167.483 Y233.139
X175.138 Y236.566
X184.637 Y237.001
G03 X185.15 Y237.072 I-0.361 J4.498
G01 X204.981 Y241.756
X205.446 Y242.894
X217.535 Y223.73
X217.049 Y218.704
X196.224 Y217.998
G03 X195.393 Y217.761 I0.06 J-1.786
G01 X190.013 Y214.665
G03 X189.34 Y213.98 I0.9 J-1.557
G01 X186.932 Y209.624
G03 X184.883 Y205.685 I514.18 J-269.97
X184.686 Y204.99 I1.579 J-0.822
G01 X183.892 Y194.028
G03 X183.919 Y193.563 I1.752 J-0.131
G01 X185.569 Y184.92
X185.591 Y184.82
X192.055 Y159.076
X192.138 Y158.826
X194.324 Y153.563
X195.105 Y144.235
X194.816 Y123.47
X192.486 Y99.963
X192.479 Y99.696
X193.679 Y76.104
G03 X194.444 Y74.727 I1.783 J0.09
G01 X198.855 Y71.659
X200.94 Y69.191
X200.678 Y63.611
X197.357 Y63.023
G03 X196.15 Y62.204 I0.313 J-1.76
G01 X193.383 Y57.736
X185.859 Y56.936
X176.275 Y59.387
G03 X175.85 Y59.443 I-0.438 J-1.688
G01 X95.453 Y60.242
X80.845 Y67.944
X72.176 Y78.77
X71.353 Y93.613
X75.994 Y102.192
X78.283 Y102.56
X77.485 Y90.227
G03 X77.589 Y89.5 I1.771 J-0.117
G01 X81.469 Y78.837
G03 X81.877 Y78.192 I1.67 J0.604
G01 X87.68 Y72.318
G03 X90.733 Y73.72 I1.271 J1.256
G01 X89.077 Y94.041
X98.568 Y115.21
X126.84 Y154.115
X154.212 Y185.906
G03 X154.505 Y186.379 I-1.354 J1.166
G01 X157.865 Y194.36
G03 X157.993 Y194.844 I-1.662 J0.698
G01 X159.546 Y208.012
G03 X158.393 Y209.897 I-1.774 J0.209
G01 X153.897 Y211.568
X151.886 Y214.218
X152.024 Y217.254
X154.226 Y218.132
G03 X155.167 Y219.002 I-0.665 J1.663
G01 X160.296 Y229.405
X162.629 Y231.011
G02 X162.751 Y231.099 I0.297 J-0.283
G01 X166.992 Y234.015
X174.903 Y237.557
X184.592 Y238
X184.921 Y238.046
X205.446 Y242.894
G00 Z5
X74.688 Y93.472
Z1.9
G01 Z-0.2 F30
X74.514 Y90.777 F20
X74.395 Y92.929
X74.688 Y93.472
X76.096 Y80.27
X75.99 Y82.193
X77.184 Y78.911
X76.096 Y80.27
G00 Z5
X147.882 Y106.539
Z1.9
G01 Z-0.2 F30
X147.698 Y104.692 F20
X146.547 Y104.704
X147.882 Y106.539
X149.243 Y110.112
X148.662 Y104.275
G02 X148.609 Y103.683 I-3.288 J-0.003
G01 X144.599 Y103.724
X149.243 Y110.112
X150.603 Y113.685
X149.658 Y104.177
G03 X149.549 Y102.674 I20.881 J-2.269
G01 X142.651 Y102.744
X150.603 Y113.685
X151.964 Y117.258
X150.654 Y104.079
G03 X150.512 Y101.665 I29.646 J-2.955
G01 X140.703 Y101.764
X151.964 Y117.258
X153.325 Y120.831
X151.65 Y103.981
G03 X151.484 Y100.657 I40.515 J-3.689
G01 X138.755 Y100.784
X153.325 Y120.831
X154.686 Y124.404
X152.646 Y103.883
G03 X152.48 Y99.648 I41.916 J-3.763
G01 X136.806 Y99.804
X154.686 Y124.404
X155.846 Y127.7
X155.816 Y125.654
X153.642 Y103.785
G03 X153.491 Y98.638 I43.849 J-3.862
G01 X134.858 Y98.824
X155.846 Y127.7
X156.892 Y130.783
X156.816 Y125.598
X154.638 Y103.687
G03 X154.525 Y97.629 I44.982 J-3.869
G01 X132.91 Y97.844
X156.63 Y130.479
X156.892 Y130.783
X157.932 Y133.524
X157.816 Y125.542
X155.634 Y103.589
G03 X155.576 Y96.62 I46.125 J-3.868
G01 X130.962 Y96.864
X155.846 Y131.101
X157.932 Y133.524
X158.972 Y136.265
X158.816 Y125.486
X156.63 Y103.491
G03 X156.515 Y97.858 I43.797 J-3.711
G01 X156.629 Y95.61
X129.341 Y95.881
X129.872 Y97.066
X155.062 Y131.723
X158.972 Y136.265
X160.012 Y139.006
X159.816 Y125.43
X157.626 Y103.393
G03 X157.514 Y97.909 I42.571 J-3.612
G01 X157.682 Y94.6
X127.805 Y94.897
X129.003 Y97.57
X154.278 Y132.345
X160.012 Y139.006
X161.052 Y141.747
X160.816 Y125.374
X158.622 Y103.295
G03 X158.513 Y97.96 I41.345 J-3.513
G01 X158.735 Y93.59
X126.268 Y93.913
X128.133 Y98.074
X153.494 Y132.967
X161.052 Y141.747
X161.964 Y144.339
X162.072 Y143.07
X161.816 Y125.318
X159.618 Y103.197
G03 X159.512 Y98.011 I40.121 J-3.414
G01 X159.788 Y92.58
X124.731 Y92.929
X127.263 Y98.578
X152.71 Y133.589
X161.964 Y144.339
X162.561 Y146.565
X162.836 Y145.896
X163.073 Y143.106
X162.816 Y125.262
X160.614 Y103.099
G03 X160.508 Y101.436 I37.191 J-3.205
X160.511 Y98.062 I40.026 J-1.651
G01 X160.841 Y91.57
X123.194 Y91.945
X126.393 Y99.082
X151.926 Y134.211
X162.561 Y146.565
X162.902 Y148.494
G03 X163.82 Y146.135 I31.064 J10.73
G01 X164.074 Y143.142
X163.816 Y125.206
X161.61 Y103.001
G03 X161.51 Y98.113 I38.21 J-3.226
G01 X161.894 Y90.56
X121.657 Y90.961
X125.523 Y99.586
X151.142 Y134.833
X162.902 Y148.494
X163.299 Y150.487
G03 X164.804 Y146.374 I36.408 J10.99
G01 X165.075 Y143.178
X164.816 Y125.15
X162.606 Y102.903
G03 X162.509 Y98.164 I36.984 J-3.127
G01 X162.947 Y89.55
X120.12 Y89.977
X124.653 Y100.09
X150.358 Y135.455
X163.299 Y150.487
X163.774 Y152.571
G03 X164.354 Y150.435 I56.068 J14.077
X165.788 Y146.612 I41.256 J13.294
G01 X166.076 Y143.214
X165.816 Y125.094
X163.602 Y102.805
G03 X163.506 Y101.29 I37.182 J-3.116
X163.508 Y98.216 I36.863 J-1.513
G01 X164 Y88.54
X118.583 Y88.993
X123.783 Y100.594
X149.574 Y136.077
X163.774 Y152.571
X164.28 Y154.691
G03 X165.301 Y150.759 I87.685 J20.67
X166.772 Y146.852 I41.501 J13.395
G01 X167.077 Y143.25
X166.816 Y125.038
X164.598 Y102.707
G03 X164.507 Y98.267 I35.066 J-2.939
G01 X165.053 Y87.53
X117.645 Y88.003
X117.553 Y89.139
X122.913 Y101.098
X148.79 Y136.699
X164.28 Y154.691
X164.78 Y156.805
X165.885 Y152.408
G03 X167.186 Y148.469 I26.21 J6.472
G01 X167.756 Y147.092
X168.078 Y143.286
X167.816 Y124.982
X165.594 Y102.609
G03 X165.506 Y98.318 I33.838 J-2.84
G01 X166.106 Y86.52
X116.722 Y87.013
X116.536 Y89.315
X122.044 Y101.602
X148.006 Y137.321
X164.78 Y156.805
X165.28 Y158.919
X166.855 Y152.652
G03 X168.111 Y148.852 I25.278 J6.247
G01 X168.74 Y147.331
X169.079 Y143.322
X168.816 Y124.926
X166.59 Y102.511
G03 X166.505 Y98.369 I32.609 J-2.741
G01 X167.159 Y85.51
X115.8 Y86.023
X115.519 Y89.49
X121.174 Y102.106
X147.222 Y137.943
X165.28 Y158.919
X165.78 Y161.033
X167.82 Y152.916
G03 X169.035 Y149.235 I24.529 J6.055
G01 X169.724 Y147.571
X170.08 Y143.358
X169.816 Y124.87
X167.586 Y102.413
G03 X167.504 Y98.42 I31.381 J-2.641
G01 X168.212 Y84.5
X114.877 Y85.033
X114.502 Y89.666
X120.305 Y102.61
X146.438 Y138.565
X165.78 Y161.033
X166.28 Y163.147
X168.79 Y153.16
G03 X169.96 Y149.618 I23.547 J5.813
G01 X170.708 Y147.81
X171.081 Y143.394
X170.816 Y124.814
X168.582 Y102.315
G03 X168.503 Y98.471 I30.716 J-2.554
G01 X169.265 Y83.49
X113.955 Y84.043
X113.485 Y89.841
X119.435 Y103.114
X145.654 Y139.187
X166.28 Y163.147
X166.78 Y165.261
X169.76 Y153.404
G03 X170.884 Y150.002 I22.573 J5.571
G01 X171.692 Y148.05
X172.082 Y143.43
X171.816 Y124.758
X169.578 Y102.217
G03 X169.502 Y98.522 I30.069 J-2.466
G01 X170.318 Y82.48
X113.033 Y83.053
X112.468 Y90.016
X118.566 Y103.618
X144.87 Y139.809
X166.78 Y165.261
X167.28 Y167.375
X170.73 Y153.648
G03 X171.808 Y150.386 I21.84 J5.408
G01 X172.676 Y148.29
X173.083 Y143.465
X172.816 Y124.702
X170.574 Y102.119
G03 X170.501 Y98.573 I29.444 J-2.379
G01 X171.371 Y81.47
X112.111 Y82.063
X111.451 Y90.191
X117.696 Y104.122
X144.086 Y140.431
X167.28 Y167.375
X167.781 Y169.489
X171.7 Y153.892
G03 X172.733 Y150.769 I20.955 J5.199
G01 X173.66 Y148.529
X174.084 Y143.5
X173.816 Y124.646
X171.57 Y102.021
G03 X171.5 Y98.624 I28.844 J-2.293
G01 X172.424 Y80.46
X111.189 Y81.073
X110.434 Y90.366
X116.827 Y104.626
X143.302 Y141.053
X167.781 Y169.489
X168.282 Y171.603
X172.67 Y154.136
G03 X173.657 Y151.152 I20.197 J5.025
G01 X174.644 Y148.768
X175.085 Y143.535
X174.816 Y124.59
X172.566 Y101.923
G03 X172.499 Y98.675 I28.276 J-2.207
G01 X173.477 Y79.45
X110.267 Y80.083
X109.417 Y90.541
X115.957 Y105.13
X142.518 Y141.675
X168.282 Y171.603
X168.78 Y173.73
X173.64 Y154.38
G03 X174.582 Y151.535 I19.44 J4.858
G01 X175.628 Y149.007
X176.086 Y143.57
X175.816 Y124.534
X173.562 Y101.825
G03 X173.498 Y98.726 I27.75 J-2.123
G01 X174.53 Y78.44
X109.345 Y79.093
X108.4 Y90.716
X115.088 Y105.634
X141.734 Y142.297
X168.62 Y173.528
X168.78 Y173.73
X169.238 Y176.015
X174.61 Y154.624
G03 X175.506 Y151.918 I18.82 J4.73
G01 X176.612 Y149.246
X177.087 Y143.605
X176.816 Y124.478
X174.558 Y101.727
G03 X174.497 Y98.777 I26.571 J-2.025
G01 X175.583 Y77.43
X108.423 Y78.103
X107.383 Y90.891
X114.219 Y106.138
X140.95 Y142.919
X167.838 Y174.152
G03 X169.238 Y176.015 I-15.887 J13.396
G01 X169.615 Y178.622
X175.58 Y154.868
G03 X176.43 Y152.301 I18.265 J4.624
G01 X177.596 Y149.485
X178.088 Y143.64
X177.816 Y124.422
X175.554 Y101.629
G03 X175.496 Y98.828 I25.497 J-1.929
G01 X176.637 Y76.399
G03 X176.006 Y76.426 I-0.613 J-6.962
G01 X107.501 Y77.113
X106.366 Y91.066
X113.349 Y106.642
X140.166 Y143.541
X167.081 Y174.805
G03 X169.615 Y178.622 I-15.44 J13
G01 X169.889 Y181.7
G03 X170.071 Y180.916 I13.174 J2.645
G01 X176.544 Y155.136
G03 X177.354 Y152.684 I17.527 J4.43
G01 X178.58 Y149.724
X179.089 Y143.675
X178.816 Y124.366
X176.55 Y101.531
G03 X176.495 Y98.88 I24.443 J-1.833
G01 X177.694 Y75.309
G03 X175.996 Y75.427 I-2.013 J-16.691
G01 X106.579 Y76.123
X105.349 Y91.241
X112.48 Y107.146
X139.382 Y144.163
X166.324 Y175.458
G03 X169.241 Y180.16 I-14.78 J12.425
G01 X169.889 Y181.7
X170.247 Y185.125
X170.824 Y182.1
G03 X171.041 Y181.16 I15.225 J3.019
G01 X177.514 Y155.38
G03 X178.278 Y153.067 I17.068 J4.355
G01 X179.564 Y149.963
X180.09 Y143.71
X179.816 Y124.31
X177.546 Y101.433
G03 X177.494 Y98.931 I23.384 J-1.737
G01 X178.696 Y75.301
G03 X178.801 Y74.143 I11.362 J0.446
X175.986 Y74.428 I-3.208 J-17.648
G01 X105.657 Y75.133
X104.332 Y91.416
X111.61 Y107.65
X138.598 Y144.785
X165.567 Y176.111
G03 X168.32 Y180.549 I-14.004 J11.76
G01 X170.247 Y185.125
X170.609 Y188.563
X171.807 Y182.288
G03 X172.011 Y181.404 I14.263 J2.826
G01 X178.484 Y155.624
G03 X179.202 Y153.45 I15.978 J4.071
G01 X180.548 Y150.203
X181.091 Y143.745
X180.816 Y124.254
X178.542 Y101.335
G03 X178.493 Y98.982 I22.362 J-1.642
G01 X179.695 Y75.352
G03 X180.035 Y72.861 I14.582 J0.721
X175.976 Y73.429 I-4.484 J-17.256
G01 X104.714 Y74.143
G03 X104.677 Y74.853 I-27.48 J-1.076
G01 X103.315 Y91.591
X110.741 Y108.154
X137.814 Y145.407
X164.81 Y176.764
G03 X167.399 Y180.937 I-13.261 J11.117
G01 X170.609 Y188.563
X170.903 Y193.318
G03 X171.14 Y191.118 I14.762 J0.477
G01 X172.79 Y182.476
G03 X172.981 Y181.648 I13.302 J2.632
G01 X179.454 Y155.868
G03 X180.126 Y153.834 I15.308 J3.929
G01 X181.532 Y150.443
X182.092 Y143.78
X181.816 Y124.198
X179.538 Y101.237
G03 X179.492 Y99.033 I21.326 J-1.547
G01 X180.694 Y75.403
G03 X181.453 Y71.469 I14.424 J0.742
X179.437 Y71.982 I-28.8 J-108.964
X175.967 Y72.43 I-3.899 J-16.539
G01 X103.715 Y73.153
G03 X103.681 Y74.772 I-13.236 J0.531
G01 X102.298 Y91.766
X109.871 Y108.658
X137.03 Y146.029
X164.053 Y177.417
G03 X166.478 Y181.326 I-12.407 J10.404
G01 X169.838 Y189.308
G03 X170.903 Y193.318 I-16.196 J6.447
G01 X174.08 Y219.471
X172.936 Y217.403
G03 X172.522 Y218.038 I-5.558 J-3.171
G01 X172.792 Y218.585
X174.08 Y219.471
X176.579 Y221.867
G03 X176.199 Y221.235 I19.479 J-12.142
G01 X173.779 Y216.86
X172.955 Y215.275
G03 X171.368 Y217.955 I-14.038 J-6.503
G01 X172.011 Y219.262
X174.357 Y220.875
X176.579 Y221.867
X179.253 Y223.733
G03 X177.075 Y220.751 I11.386 J-10.603
G01 X174.655 Y216.376
X172.829 Y212.865
G03 X170.203 Y217.851 I-14.819 J-4.62
G01 X171.23 Y219.938
X173.866 Y221.751
X178.193 Y223.683
X179.253 Y223.733
X181.962 Y224.861
G03 X177.951 Y220.267 I9.108 J-12
G01 X175.531 Y215.892
X173.339 Y211.677
G03 X172.476 Y209.62 I13.196 J-6.745
X169.026 Y217.725 I-14.641 J-1.445
G01 X170.449 Y220.614
X173.375 Y222.627
X177.958 Y224.674
X181.962 Y224.861
X185.219 Y226.015
X185.776 Y226.065
G03 X183.986 Y225.034 I48.172 J-85.706
X178.827 Y219.783 I7.252 J-12.285
G01 X176.407 Y215.408
X174.227 Y211.216
G03 X172.71 Y205.852 I12.704 J-6.489
G01 X171.916 Y194.892
G03 X172.123 Y191.306 I14.762 J-0.946
G01 X173.773 Y182.664
G03 X173.951 Y181.892 I12.34 J2.438
G01 X180.415 Y156.148
G03 X181.05 Y154.218 I14.625 J3.742
G01 X182.516 Y150.683
X183.093 Y143.815
X182.816 Y124.142
X180.534 Y101.139
G03 X180.491 Y99.084 I20.336 J-1.453
G01 X181.693 Y75.454
G03 X183.157 Y70.003 I13.509 J0.706
G01 X179.239 Y71.002
G03 X175.958 Y71.431 I-3.674 J-15.341
G01 X102.645 Y72.164
G03 X102.685 Y74.691 I-12.885 J1.467
G01 X101.281 Y91.941
X109.002 Y109.162
X136.246 Y146.651
X163.296 Y178.07
G03 X165.557 Y181.714 I-11.545 J9.687
G01 X168.917 Y189.696
G03 X169.909 Y193.426 I-15.253 J6.053
G01 X171.462 Y206.596
G03 X167.836 Y217.572 I-13.707 J1.558
G01 X169.668 Y221.291
X172.884 Y223.503
X177.723 Y225.665
X185.219 Y226.015
X200.328 Y230.376
X201.092 Y229.164
X195.85 Y228.987
G03 X189.903 Y227.286 I0.581 J-13.278
G01 X184.524 Y224.191
G03 X179.704 Y219.3 I6.685 J-11.408
G01 X177.283 Y214.924
X175.115 Y210.755
G03 X173.708 Y205.78 I11.796 J-6.022
G01 X172.914 Y194.82
G03 X173.106 Y191.495 I13.762 J-0.873
G01 X174.756 Y182.852
G03 X174.921 Y182.136 I11.38 J2.245
G01 X181.385 Y156.392
G03 X181.974 Y154.602 I13.854 J3.566
G01 X183.5 Y150.923
X184.094 Y143.85
X183.816 Y124.086
X181.53 Y101.041
G03 X181.49 Y99.135 I19.355 J-1.359
G01 X182.69 Y75.543
G03 X185.324 Y68.42 I12.701 J0.648
G01 X178.992 Y70.034
G03 X175.949 Y70.432 I-3.402 J-14.181
G01 X101.486 Y71.176
G03 X101.689 Y74.61 I-11.913 J2.427
G01 X100.264 Y92.116
X108.133 Y109.666
X135.462 Y147.273
X162.539 Y178.723
G03 X164.636 Y182.102 I-10.744 J9.007
G01 X167.996 Y190.084
G03 X168.916 Y193.545 I-14.275 J5.647
G01 X170.469 Y206.714
G03 X166.631 Y217.386 I-12.75 J1.44
G01 X168.887 Y221.968
X172.393 Y224.379
X177.488 Y226.656
G03 X185.132 Y227.013 I-35.056 J832.632
X187.44 Y227.332 I-0.992 J15.688
G01 X200.328 Y230.376
X200.793 Y231.514
X202.868 Y228.224
X195.884 Y227.988
G03 X190.402 Y226.42 I0.535 J-12.239
G01 X185.023 Y223.325
G03 X180.58 Y218.816 I6.19 J-10.543
G01 X178.159 Y214.44
X176.003 Y210.294
G03 X174.706 Y205.708 I10.893 J-5.557
G01 X173.912 Y194.748
G03 X174.089 Y191.683 I12.784 J-0.799
G01 X175.739 Y183.04
G03 X175.891 Y182.38 I10.419 J2.052
G01 X182.355 Y156.636
G03 X182.898 Y154.986 I12.812 J3.302
G01 X184.484 Y151.163
X185.095 Y143.885
X184.816 Y124.03
X182.526 Y100.943
G03 X182.489 Y99.186 I18.388 J-1.266
G01 X183.689 Y75.594
G03 X187.608 Y67.41 I11.797 J0.619
G01 X187.452 Y67.156
X186.589 Y67.066
X178.745 Y69.066
G03 X175.94 Y69.433 I-3.13 J-13.021
G01 X100.215 Y70.189
G03 X100.693 Y74.529 I-11.004 J3.408
G01 X99.247 Y92.291
X107.263 Y110.17
X134.678 Y147.895
X161.782 Y179.376
G03 X163.715 Y182.49 I-9.925 J8.318
G01 X167.075 Y190.472
G03 X167.923 Y193.663 I-13.298 J5.242
G01 X169.476 Y206.832
G03 X165.406 Y217.162 I-11.786 J1.322
G01 X168.106 Y222.644
X171.902 Y225.255
X177.253 Y227.647
X185.047 Y228.01
G03 X187.211 Y228.306 I-0.886 J14.54
G01 X200.793 Y231.514
X201.259 Y232.652
X204.644 Y227.284
X195.918 Y226.989
G03 X190.901 Y225.554 I0.492 J-11.209
G01 X185.522 Y222.459
G03 X181.456 Y218.333 I5.676 J-9.66
G01 X179.035 Y213.956
X176.891 Y209.833
G03 X175.704 Y205.636 I10.003 J-5.095
G01 X174.91 Y194.676
G03 X175.072 Y191.871 I11.71 J-0.73
G01 X176.722 Y183.228
G03 X176.861 Y182.624 I9.46 J1.859
G01 X183.325 Y156.88
G03 X183.822 Y155.37 I12.361 J3.231
G01 X185.468 Y151.403
X186.096 Y143.92
X185.816 Y123.974
X183.522 Y100.845
G03 X183.488 Y99.237 I17.48 J-1.173
G01 X184.688 Y75.645
G03 X188.946 Y67.602 I10.802 J0.57
X188.046 Y66.214 I14.778 J-10.568
G01 X186.516 Y66.053
X178.498 Y68.098
G03 X175.931 Y68.434 I-2.858 J-11.861
G01 X98.788 Y69.204
G03 X99.697 Y74.448 I-9.716 J4.385
G01 X98.23 Y92.466
X106.394 Y110.674
X133.894 Y148.517
X161.025 Y180.029
G03 X162.794 Y182.878 I-9.08 J7.611
G01 X166.154 Y190.86
G03 X166.93 Y193.781 I-12.184 J4.8
G01 X168.483 Y206.95
G03 X164.156 Y216.887 I-10.795 J1.209
G01 X167.325 Y223.32
X171.411 Y226.131
X177.018 Y228.638
X185.001 Y229.009
G03 X186.982 Y229.28 I-0.821 J13.382
G01 X201.259 Y232.652
X201.724 Y233.79
X206.42 Y226.344
X195.952 Y225.99
G03 X191.4 Y224.688 I0.446 J-10.17
G01 X186.021 Y221.593
G03 X182.332 Y217.849 I5.144 J-8.758
G01 X179.911 Y213.472
X177.779 Y209.372
G03 X176.702 Y205.564 I9.113 J-4.633
G01 X175.908 Y194.604
G03 X176.055 Y192.059 I10.635 J-0.662
G01 X177.705 Y183.416
G03 X177.831 Y182.868 I13.968 J2.923
G01 X184.295 Y157.124
G03 X184.746 Y155.754 I12.18 J3.25
G01 X186.452 Y151.643
X187.097 Y143.955
X186.816 Y123.918
X184.518 Y100.747
G03 X184.487 Y99.288 I16.595 J-1.082
G01 X185.687 Y75.696
G03 X189.872 Y68.154 I9.843 J0.529
G01 X190.394 Y67.792
G03 X189.341 Y66.408 I6.621 J-6.13
G01 X188.639 Y65.272
X186.443 Y65.04
X178.251 Y67.13
G03 X175.922 Y67.435 I-2.586 J-10.702
G01 X97.469 Y68.218
X97.202 Y68.359
G03 X98.701 Y74.368 I-8.159 J5.226
G01 X97.213 Y92.641
X105.524 Y111.178
X133.11 Y149.139
X160.268 Y180.682
G03 X161.873 Y183.267 I-8.218 J6.893
G01 X165.233 Y191.248
G03 X165.937 Y193.899 I-11.07 J4.358
G01 X167.49 Y207.068
G03 X162.876 Y216.551 I-9.798 J1.096
G01 X166.544 Y223.996
X170.92 Y227.007
X176.783 Y229.629
X184.955 Y230.008
G03 X186.753 Y230.254 I-0.807 J12.594
G01 X201.724 Y233.79
X202.19 Y234.928
X208.196 Y225.404
X195.986 Y224.991
G03 X191.899 Y223.822 I0.409 J-9.159
G01 X186.52 Y220.727
G03 X183.208 Y217.365 I4.627 J-7.871
G01 X180.787 Y212.988
X178.667 Y208.911
G03 X177.7 Y205.492 I8.238 J-4.176
G01 X176.906 Y194.532
G03 X177.038 Y192.247 I9.56 J-0.593
G01 X178.688 Y183.604
G03 X178.801 Y183.112 I12.331 J2.573
G01 X185.265 Y157.368
G03 X185.67 Y156.138 I12.007 J3.272
G01 X187.436 Y151.883
X188.098 Y143.99
X187.816 Y123.862
X185.514 Y100.649
G03 X185.486 Y99.339 I15.846 J-0.993
G01 X186.686 Y75.747
G03 X190.443 Y68.977 I8.831 J0.473
G01 X191.962 Y67.921
G03 X190.192 Y65.883 I5.483 J-6.549
G01 X189.232 Y64.33
X186.37 Y64.027
X178.004 Y66.162
G03 X175.913 Y66.436 I-2.314 J-9.543
G01 X97.217 Y67.221
X95.723 Y68.009
G03 X97.705 Y74.287 I-6.734 J5.578
G01 X96.196 Y92.816
X104.655 Y111.682
X132.326 Y149.761
X159.511 Y181.335
G03 X160.952 Y183.656 I-7.475 J6.249
G01 X164.312 Y191.637
G03 X164.944 Y194.017 I-9.935 J3.912
G01 X166.497 Y207.186
G03 X161.558 Y216.139 I-8.801 J0.983
G01 X165.763 Y224.672
X170.429 Y227.883
X176.548 Y230.62
X184.909 Y231.007
G03 X186.524 Y231.228 I-0.806 J11.907
G01 X202.19 Y234.928
X202.655 Y236.066
X209.972 Y224.464
X196.02 Y223.992
G03 X192.398 Y222.956 I0.363 J-8.119
G01 X187.019 Y219.861
G03 X184.084 Y216.881 I4.106 J-6.979
G01 X181.663 Y212.504
X179.555 Y208.45
G03 X178.698 Y205.421 I7.319 J-3.706
G01 X177.904 Y194.46
G03 X178.021 Y192.435 I8.471 J-0.526
G01 X179.671 Y183.792
G03 X179.771 Y183.356 I10.701 J2.225
G01 X186.235 Y157.612
G03 X186.594 Y156.522 I11.329 J3.127
G01 X188.42 Y152.123
X189.099 Y144.025
X188.816 Y123.806
X186.51 Y100.551
G03 X186.485 Y99.39 I15.354 J-0.911
G01 X187.685 Y75.798
G03 X191.014 Y69.8 I7.826 J0.421
G01 X193.694 Y67.936
G03 X191.043 Y65.358 I3.949 J-6.713
G01 X189.825 Y63.388
X186.297 Y63.014
X177.757 Y65.195
G03 X175.904 Y65.437 I-2.048 J-8.47
G01 X96.965 Y66.224
X94.084 Y67.743
G03 X96.709 Y74.206 I-5.118 J5.843
G01 X95.179 Y92.991
X103.786 Y112.186
X131.542 Y150.383
X158.754 Y181.988
G03 X160.031 Y184.045 I-6.614 J5.531
G01 X163.391 Y192.026
G03 X163.951 Y194.136 I-8.821 J3.47
G01 X165.504 Y207.304
G03 X160.478 Y215.519 I-7.803 J0.87
G01 X160.145 Y215.643
G03 X160.543 Y216.342 I-10.728 J6.571
G01 X164.982 Y225.348
X169.938 Y228.759
X176.313 Y231.611
X184.863 Y232.006
G03 X186.295 Y232.202 I-0.746 J10.779
G01 X202.655 Y236.066
X203.121 Y237.204
X211.748 Y223.524
X196.054 Y222.993
G03 X192.898 Y222.091 I0.318 J-7.086
G01 X187.518 Y218.995
G03 X184.96 Y216.397 I3.57 J-6.073
G01 X182.539 Y212.02
X180.443 Y207.989
G03 X179.696 Y205.35 I6.391 J-3.234
G01 X178.902 Y194.388
G03 X179.004 Y192.623 I7.395 J-0.458
G01 X180.654 Y183.98
X180.741 Y183.6
X187.205 Y157.856
G03 X187.518 Y156.906 I11.914 J3.398
G01 X189.404 Y152.363
X190.1 Y144.06
X189.816 Y123.75
X187.506 Y100.453
G03 X187.484 Y99.441 I13.233 J-0.793
G01 X188.684 Y75.849
G03 X191.585 Y70.622 I6.824 J0.369
G01 X195.456 Y67.929
X195.632 Y67.72
G03 X191.894 Y64.833 I2.047 J-6.514
G01 X190.418 Y62.446
X186.224 Y62.001
X177.51 Y64.227
G03 X175.895 Y64.438 I-1.778 J-7.326
G01 X96.713 Y65.227
X92.173 Y67.621
G03 X95.713 Y74.125 I-3.212 J5.963
G01 X94.162 Y93.166
X102.916 Y112.69
X130.759 Y151.005
X157.997 Y182.641
G03 X159.11 Y184.434 I-5.707 J4.785
G01 X162.47 Y192.415
G03 X162.958 Y194.254 I-7.685 J3.023
G01 X164.511 Y207.422
G03 X160.131 Y214.582 I-6.803 J0.757
G01 X158.519 Y215.18
G03 X159.647 Y216.785 I-4.804 J4.575
G01 X164.201 Y226.024
X169.447 Y229.635
X176.078 Y232.602
X184.817 Y233.005
G03 X186.066 Y233.176 I-0.695 J9.729
G01 X203.121 Y237.204
X203.586 Y238.342
X213.419 Y222.75
X213.403 Y222.58
X196.088 Y221.994
G03 X193.397 Y221.225 I0.276 J-6.061
G01 X188.017 Y218.129
G03 X185.836 Y215.913 I3.044 J-5.178
G01 X183.415 Y211.536
X181.331 Y207.528
G03 X180.694 Y205.278 I5.46 J-2.761
G01 X179.9 Y194.316
G03 X179.987 Y192.811 I6.43 J-0.383
G01 X181.637 Y184.168
G03 X181.711 Y183.844 I3.652 J0.663
G01 X188.175 Y158.1
G03 X188.442 Y157.29 I10.056 J2.865
G01 X190.388 Y152.603
X191.101 Y144.095
X190.816 Y123.694
X188.502 Y100.355
G03 X188.483 Y99.492 I11.046 J-0.674
G01 X189.683 Y75.9
G03 X192.157 Y71.443 I5.821 J0.316
G01 X196.136 Y68.675
X196.868 Y67.807
X196.83 Y66.996
G03 X195.73 Y66.706 I1.547 J-8.099
X192.745 Y64.307 I1.988 J-5.531
G01 X191.011 Y61.504
X186.151 Y60.988
X177.263 Y63.259
G03 X175.886 Y63.439 I-1.501 J-6.128
G01 X96.461 Y64.23
X89.625 Y67.834
G03 X94.717 Y74.044 I-0.682 J5.752
G01 X93.145 Y93.341
X102.047 Y113.194
X129.975 Y151.627
X157.24 Y183.294
G03 X158.189 Y184.823 I-4.88 J4.088
G01 X161.549 Y192.804
G03 X161.965 Y194.372 I-6.61 J2.593
G01 X163.518 Y207.54
G03 X159.783 Y213.645 I-5.8 J0.646
G01 X156.549 Y214.846
G03 X158.751 Y217.228 I-3.034 J5.014
G01 X163.42 Y226.7
X168.956 Y230.511
X175.843 Y233.593
X184.772 Y234.004
G03 X185.837 Y234.15 I-0.741 J9.368
G01 X203.586 Y238.342
X204.051 Y239.48
X214.448 Y222.995
X214.315 Y221.611
X196.122 Y220.995
G03 X193.896 Y220.359 I0.226 J-5.006
G01 X188.516 Y217.263
G03 X186.712 Y215.429 I2.521 J-4.284
G01 X184.291 Y211.052
X182.219 Y207.067
G03 X181.692 Y205.206 I4.555 J-2.295
G01 X180.898 Y194.244
G03 X180.97 Y192.999 I5.257 J-0.32
G01 X182.62 Y184.356
G03 X182.681 Y184.088 I3.929 J0.753
G01 X189.145 Y158.344
G03 X189.366 Y157.674 I8.196 J2.332
G01 X191.372 Y152.843
X192.102 Y144.13
X191.816 Y123.638
X189.498 Y100.257
G03 X189.482 Y99.543 I8.896 J-0.556
G01 X190.682 Y75.951
G03 X192.729 Y72.264 I4.815 J0.262
G01 X196.816 Y69.421
X197.886 Y68.153
X197.792 Y66.146
G03 X196.113 Y65.783 I1.203 J-9.632
X193.597 Y63.782 I1.603 J-4.598
G01 X191.604 Y60.562
X186.078 Y59.975
X177.016 Y62.291
G03 X175.877 Y62.44 I-1.24 J-5.053
G01 X96.209 Y63.233
X82.795 Y70.305
X75.116 Y79.895
X74.611 Y89.016
G03 X74.769 Y88.474 I7.13 J1.784
G01 X78.649 Y77.811
G03 X79.741 Y76.083 I4.588 J1.69
G01 X85.544 Y70.209
G03 X93.721 Y73.963 I3.4 J3.374
G01 X92.128 Y93.516
X101.177 Y113.698
X129.191 Y152.249
X156.483 Y183.947
G03 X157.268 Y185.212 I-4.007 J3.363
G01 X160.628 Y193.193
G03 X160.972 Y194.49 I-5.368 J2.118
G01 X162.525 Y207.658
G03 X159.435 Y212.708 I-4.799 J0.533
G01 X155.758 Y214.074
X154.931 Y215.166
X154.931 Y215.174
G03 X157.126 Y216.605 I-1.712 J5.025
X157.855 Y217.671 I-3.685 J3.302
G01 X162.639 Y227.376
X168.465 Y231.387
X175.608 Y234.584
X184.727 Y235.003
G03 X185.608 Y235.124 I-0.778 J8.938
G01 X204.051 Y239.48
X204.516 Y240.618
X215.477 Y223.24
X215.226 Y220.642
X196.156 Y219.996
G03 X194.395 Y219.493 I0.18 J-3.965
G01 X189.015 Y216.397
G03 X187.588 Y214.945 I1.972 J-3.365
G01 X185.167 Y210.568
X183.107 Y206.606
G03 X182.69 Y205.134 I3.581 J-1.809
G01 X181.896 Y194.172
G03 X181.953 Y193.187 I4.108 J-0.256
G01 X183.603 Y184.544
X183.651 Y184.332
X190.115 Y158.588
G03 X190.29 Y158.058 I5.633 J1.566
G01 X192.356 Y153.083
X193.103 Y144.165
X192.816 Y123.582
X190.494 Y100.159
G03 X190.481 Y99.594 I6.732 J-0.437
G01 X191.681 Y76.002
G03 X193.301 Y73.085 I3.807 J0.206
G01 X197.496 Y70.167
X198.904 Y68.499
X198.754 Y65.301
X197.007 Y64.991
G03 X194.448 Y63.256 I0.702 J-3.791
G01 X192.197 Y59.62
X186.005 Y58.962
X176.769 Y61.323
G03 X175.868 Y61.441 I-0.976 J-3.955
G01 X95.957 Y62.236
X82.145 Y69.518
X74.136 Y79.52
X73.381 Y93.157
X75.981 Y97.964
X75.489 Y90.355
G03 X75.709 Y88.816 I3.882 J-0.23
G01 X79.589 Y78.153
G03 X80.453 Y76.786 I3.626 J1.335
G01 X86.256 Y70.912
G03 X92.725 Y73.882 I2.69 J2.669
G01 X91.111 Y93.691
X100.307 Y114.202
X128.408 Y152.871
X155.726 Y184.6
G03 X156.347 Y185.601 I-3.158 J2.652
G01 X159.707 Y193.582
G03 X159.979 Y194.608 I-4.094 J1.634
G01 X161.532 Y207.776
G03 X159.087 Y211.771 I-3.792 J0.424
G01 X155.137 Y213.239
X153.916 Y214.85
X153.962 Y215.874
G03 X155.038 Y216.306 I-4.984 J13.971
X156.959 Y218.114 I-1.517 J3.537
G01 X161.858 Y228.052
G03 X163.804 Y229.392 I-48.891 J73.084
G01 X163.904 Y229.465
X167.974 Y232.263
X175.373 Y235.575
X184.682 Y236.002
G03 X185.379 Y236.098 I-0.558 J6.632
G01 X204.516 Y240.618
X204.981 Y241.756
X216.506 Y223.485
X216.138 Y219.673
X196.19 Y218.997
G03 X194.894 Y218.627 I0.12 J-2.877
G01 X189.514 Y215.531
G03 X188.464 Y214.462 I1.445 J-2.47
X186.044 Y210.085 I379.961 J-212.934
G01 X183.995 Y206.145
G03 X183.688 Y205.062 I2.589 J-1.319
G01 X182.894 Y194.1
G03 X182.936 Y193.375 I2.907 J-0.195
G01 X184.586 Y184.732
X184.621 Y184.576
X191.085 Y158.832
G03 X191.214 Y158.442 I3.567 J0.963
G01 X193.34 Y153.323
X194.104 Y144.2
X193.816 Y123.526
X191.49 Y100.061
G03 X191.48 Y99.645 I4.57 J-0.317
G01 X192.68 Y76.053
G03 X193.873 Y73.906 I2.792 J0.146
G01 X198.176 Y70.913
X199.922 Y68.845
X199.716 Y64.456
X197.182 Y64.007
G03 X195.299 Y62.73 I0.511 J-2.78
G01 X192.79 Y58.678
X185.932 Y57.949
X176.522 Y60.355
G03 X175.859 Y60.442 I-0.704 J-2.799
G01 X95.705 Y61.239
X81.495 Y68.731
X73.156 Y79.145
X72.367 Y93.385
X76.639 Y101.282
X77.204 Y101.373
X76.487 Y90.291
G03 X76.649 Y89.158 I2.864 J-0.168
G01 X80.529 Y78.495
G03 X81.165 Y77.489 I2.655 J0.974
G01 X86.968 Y71.615
G03 X91.729 Y73.801 I1.98 J1.963
G01 X90.094 Y93.866
X99.438 Y114.706
X127.624 Y153.493
X154.969 Y185.253
G03 X155.426 Y185.99 I-2.271 J1.918
G01 X158.786 Y193.971
G03 X158.986 Y194.726 I-2.879 J1.166
G01 X160.539 Y207.894
G03 X158.74 Y210.834 I-2.784 J0.316
G01 X154.517 Y212.404
X152.901 Y214.534
X152.993 Y216.564
X154.596 Y217.203
G03 X156.063 Y218.558 I-1.065 J2.624
G01 X161.077 Y228.729
G02 X163.214 Y230.199 I51.183 J-72.119
G01 X163.326 Y230.281
X167.483 Y233.139
X175.138 Y236.566
X184.637 Y237.001
G03 X185.15 Y237.072 I-0.361 J4.498
G01 X204.981 Y241.756
X205.446 Y242.894
X217.535 Y223.73
X217.049 Y218.704
X196.224 Y217.998
G03 X195.393 Y217.761 I0.06 J-1.786
G01 X190.013 Y214.665
G03 X189.34 Y213.98 I0.9 J-1.557
G01 X186.932 Y209.624
G03 X184.883 Y205.685 I514.18 J-269.97
X184.686 Y204.99 I1.579 J-0.822
G01 X183.892 Y194.028
G03 X183.919 Y193.563 I1.752 J-0.131
G01 X185.569 Y184.92
X185.591 Y184.82
X192.055 Y159.076
X192.138 Y158.826
X194.324 Y153.563
X195.105 Y144.235
X194.816 Y123.47
X192.486 Y99.963
X192.479 Y99.696
X193.679 Y76.104
G03 X194.444 Y74.727 I1.783 J0.09
G01 X198.855 Y71.659
X200.94 Y69.191
X200.678 Y63.611
X197.357 Y63.023
G03 X196.15 Y62.204 I0.313 J-1.76
G01 X193.383 Y57.736
X185.859 Y56.936
X176.275 Y59.387
G03 X175.85 Y59.443 I-0.438 J-1.688
G01 X95.453 Y60.242
X80.845 Y67.944
X72.176 Y78.77
X71.353 Y93.613
X75.994 Y102.192
X78.283 Y102.56
X77.485 Y90.227
G03 X77.589 Y89.5 I1.771 J-0.117
G01 X81.469 Y78.837
G03 X81.877 Y78.192 I1.67 J0.604
G01 X87.68 Y72.318
G03 X90.733 Y73.72 I1.271 J1.256
G01 X89.077 Y94.041
X98.568 Y115.21
X126.84 Y154.115
X154.212 Y185.906
G03 X154.505 Y186.379 I-1.354 J1.166
G01 X157.865 Y194.36
G03 X157.993 Y194.844 I-1.662 J0.698
G01 X159.546 Y208.012
G03 X158.393 Y209.897 I-1.774 J0.209
G01 X153.897 Y211.568
X151.886 Y214.218
X152.024 Y217.254
X154.226 Y218.132
G03 X155.167 Y219.002 I-0.665 J1.663
G01 X160.296 Y229.405
X162.629 Y231.011
G02 X162.751 Y231.099 I0.297 J-0.283
G01 X166.992 Y234.015
X174.903 Y237.557
X184.592 Y238
X184.921 Y238.046
X205.446 Y242.894
G00 Z5
X74.688 Y93.472
Z1.8
G01 Z-0.3 F30
X74.514 Y90.777 F20
X74.395 Y92.929
X74.688 Y93.472
X76.096 Y80.27
X75.99 Y82.193
X77.184 Y78.911
X76.096 Y80.27
G00 Z5
X147.882 Y106.539
Z1.8
G01 Z-0.3 F30
X147.698 Y104.692 F20
X146.547 Y104.704
X147.882 Y106.539
X149.243 Y110.112
X148.662 Y104.275
G02 X148.609 Y103.683 I-3.288 J-0.003
G01 X144.599 Y103.724
X149.243 Y110.112
X150.603 Y113.685
X149.658 Y104.177
G03 X149.549 Y102.674 I20.881 J-2.269
G01 X142.651 Y102.744
X150.603 Y113.685
X151.964 Y117.258
X150.654 Y104.079
G03 X150.512 Y101.665 I29.646 J-2.955
G01 X140.703 Y101.764
X151.964 Y117.258
X153.325 Y120.831
X151.65 Y103.981
G03 X151.484 Y100.657 I40.515 J-3.689
G01 X138.755 Y100.784
X153.325 Y120.831
X154.686 Y124.404
X152.646 Y103.883
G03 X152.48 Y99.648 I41.916 J-3.763
G01 X136.806 Y99.804
X154.686 Y124.404
X155.846 Y127.7
X155.816 Y125.654
X153.642 Y103.785
G03 X153.491 Y98.638 I43.849 J-3.862
G01 X134.858 Y98.824
X155.846 Y127.7
X156.892 Y130.783
X156.816 Y125.598
X154.638 Y103.687
G03 X154.525 Y97.629 I44.982 J-3.869
G01 X132.91 Y97.844
X156.63 Y130.479
X156.892 Y130.783
X157.932 Y133.524
X157.816 Y125.542
X155.634 Y103.589
G03 X155.576 Y96.62 I46.125 J-3.868
G01 X130.962 Y96.864
X155.846 Y131.101
X157.932 Y133.524
X158.972 Y136.265
X158.816 Y125.486
X156.63 Y103.491
G03 X156.515 Y97.858 I43.797 J-3.711
G01 X156.629 Y95.61
X129.341 Y95.881
X129.872 Y97.066
X155.062 Y131.723
X158.972 Y136.265
X160.012 Y139.006
X159.816 Y125.43
X157.626 Y103.393
G03 X157.514 Y97.909 I42.571 J-3.612
G01 X157.682 Y94.6
X127.805 Y94.897
X129.003 Y97.57
X154.278 Y132.345
X160.012 Y139.006
X161.052 Y141.747
X160.816 Y125.374
X158.622 Y103.295
G03 X158.513 Y97.96 I41.345 J-3.513
G01 X158.735 Y93.59
X126.268 Y93.913
X128.133 Y98.074
X153.494 Y132.967
X161.052 Y141.747
X161.964 Y144.339
X162.072 Y143.07
X161.816 Y125.318
X159.618 Y103.197
G03 X159.512 Y98.011 I40.121 J-3.414
G01 X159.788 Y92.58
X124.731 Y92.929
X127.263 Y98.578
X152.71 Y133.589
X161.964 Y144.339
X162.561 Y146.565
X162.836 Y145.896
X163.073 Y143.106
X162.816 Y125.262
X160.614 Y103.099
G03 X160.508 Y101.436 I37.191 J-3.205
X160.511 Y98.062 I40.026 J-1.651
G01 X160.841 Y91.57
X123.194 Y91.945
X126.393 Y99.082
X151.926 Y134.211
X162.561 Y146.565
X162.902 Y148.494
G03 X163.82 Y146.135 I31.064 J10.73
G01 X164.074 Y143.142
X163.816 Y125.206
X161.61 Y103.001
