(Generated by PartKam Version 0.05)

G20 G90 G40

(t_island_pocket)
G0 Z0.1
T0 M6
G17
M3
G0 X0.7576 Y1.8323
G1 Z-0.02 F5
G3 X0.7205 Y1.825 I0 J-0.0982 F50
G3 X0.6888 Y1.8039 I0.0365 J-0.0893
G3 X0.6677 Y1.7722 I0.0682 J-0.0682
G3 X0.6604 Y1.7351 I0.0909 J-0.0371
G1 X0.6604 Y1.5545
G3 X0.6677 Y1.5174 I0.0982 J0
G3 X0.6888 Y1.4857 I0.0893 J0.0365
G3 X0.7205 Y1.4646 I0.0682 J0.0682
G3 X0.7576 Y1.4573 I0.0371 J0.0909
G1 X1.0632 Y1.4573
G1 X1.0632 Y0.5545
G3 X1.0705 Y0.5174 I0.0982 J0
G3 X1.0915 Y0.4857 I0.0893 J0.0365
G3 X1.1233 Y0.4646 I0.0682 J0.0682
G3 X1.1604 Y0.4573 I0.0371 J0.0909
G1 X1.3409 Y0.4573
G3 X1.3781 Y0.4646 I0 J0.0982
G3 X1.4098 Y0.4857 I-0.0365 J0.0893
G3 X1.4309 Y0.5174 I-0.0682 J0.0682
G3 X1.4382 Y0.5545 I-0.0909 J0.0371
G1 X1.4382 Y1.4573
G1 X1.7437 Y1.4573
G3 X1.7808 Y1.4646 I0 J0.0982
G3 X1.8126 Y1.4857 I-0.0365 J0.0893
G3 X1.8337 Y1.5174 I-0.0682 J0.0682
G3 X1.8409 Y1.5545 I-0.0909 J0.0371
G1 X1.8409 Y1.7351
G3 X1.8337 Y1.7722 I-0.0982 J0
G3 X1.8126 Y1.8039 I-0.0893 J-0.0365
G3 X1.7808 Y1.825 I-0.0682 J-0.0682
G3 X1.7437 Y1.8323 I-0.0371 J-0.0909
G1 X0.7576 Y1.8323
G1 X0.7576 Y1.8823 F50
G3 X0.7016 Y1.8713 I0 J-0.1482 F50
G3 X0.6534 Y1.8393 I0.0554 J-0.1356
G3 X0.6214 Y1.7911 I0.1036 J-0.1036
G3 X0.6104 Y1.7351 I0.1372 J-0.056
G1 X0.6104 Y1.5545
G3 X0.6214 Y1.4985 I0.1482 J0
G3 X0.6534 Y1.4503 I0.1356 J0.0554
G3 X0.7016 Y1.4183 I0.1036 J0.1036
G3 X0.7576 Y1.4073 I0.056 J0.1372
G1 X1.0132 Y1.4073
G1 X1.0132 Y0.5545
G3 X1.0242 Y0.4985 I0.1482 J0
G3 X1.0562 Y0.4503 I0.1356 J0.0554
G3 X1.1044 Y0.4183 I0.1036 J0.1036
G3 X1.1604 Y0.4073 I0.056 J0.1372
G1 X1.3409 Y0.4073
G3 X1.397 Y0.4183 I0 J0.1482
G3 X1.4451 Y0.4503 I-0.0554 J0.1356
G3 X1.4772 Y0.4985 I-0.1036 J0.1036
G3 X1.4882 Y0.5545 I-0.1372 J0.056
G1 X1.4882 Y1.4073
G1 X1.7437 Y1.4073
G3 X1.7997 Y1.4183 I0 J0.1482
G3 X1.8479 Y1.4503 I-0.0554 J0.1356
G3 X1.8799 Y1.4985 I-0.1036 J0.1036
G3 X1.8909 Y1.5545 I-0.1372 J0.056
G1 X1.8909 Y1.7351
G3 X1.8799 Y1.7911 I-0.1482 J0
G3 X1.8479 Y1.8393 I-0.1356 J-0.0554
G3 X1.7997 Y1.8713 I-0.1036 J-0.1036
G3 X1.7437 Y1.8823 I-0.056 J-0.1372
G1 X0.7576 Y1.8823
G0 Z0.1
G0 X0.9588 Y1.9823
G1 Z-0.02 F5
G1 X1.5317 Y1.9823 F50
G3 X1.2452 Y2.0365 I-0.2864 J-0.7302
G3 X0.9588 Y1.9823 I0 J-0.7844
G1 X0.9255 Y2.0228 F50
G3 X0.7618 Y1.9323 I0.322 J-0.776 F50
G1 X1.7287 Y1.9323
G3 X1.565 Y2.0228 I-0.4857 J-0.6855
G3 X1.2452 Y2.0865 I-0.3197 J-0.7707
G3 X0.9255 Y2.0228 I0 J-0.8344
G0 Z0.1
G0 X0.7132 Y1.0006
G1 Z-0.02 F5
G1 X0.7132 Y1.1095 F50
G2 X0.6732 Y1.1153 I0.0444 J0.446
G3 X0.7024 Y1.025 I0.5689 J0.1337
G3 X0.7132 Y1.0006 I0.5451 J0.2262
G1 X0.6562 Y1.0059 F50
G3 X0.7632 Y0.8325 I0.5913 J0.2453 F50
G1 X0.7632 Y1.1573
G1 X0.7576 Y1.1573
G2 X0.6109 Y1.1853 I0 J0.3982
G3 X0.6562 Y1.0059 I0.6312 J0.0637
G1 X0.61 Y0.9867 F50
G3 X0.7594 Y0.7632 I0.6375 J0.2645 F50
G3 X0.8132 Y0.7148 I0.488 J0.488
G1 X0.8132 Y1.2073
G1 X0.7576 Y1.2073
G2 X0.626 Y1.2332 I0 J0.3482
G2 X0.5581 Y1.2702 I0.131 J0.3207
G3 X0.5577 Y1.249 I0.6841 J-0.0212
G3 X0.61 Y0.9867 I0.6844 J0
G1 X0.5638 Y0.9676 F50
G3 X0.7241 Y0.7278 I0.6836 J0.2836 F50
G3 X0.8632 Y0.6186 I0.5234 J0.5234
G1 X0.8632 Y1.2573
G1 X0.7576 Y1.2573
G2 X0.6449 Y1.2794 I0 J0.2982
G2 X0.5473 Y1.3443 I0.1121 J0.2744
G2 X0.519 Y1.3771 I0.2096 J0.2096
G3 X0.5077 Y1.249 I0.7231 J-0.1281
G3 X0.5638 Y0.9676 I0.7344 J0
G0 Z0.1
G0 X0.9632 Y0.5545
G1 Z-0.02 F5
G1 X0.9632 Y1.3573 F50
G1 X0.7576 Y1.3573
G2 X0.6827 Y1.372 I0 J0.1982
G2 X0.6181 Y1.415 I0.0743 J0.1819
G2 X0.5751 Y1.4796 I0.1389 J0.1389
G2 X0.5604 Y1.5545 I0.1835 J0.0749
G1 X0.5604 Y1.7303
G3 X0.4714 Y1.5687 I0.6871 J-0.4835
G3 X0.4077 Y1.249 I0.7707 J-0.3197
G3 X0.4714 Y0.9292 I0.8344 J0
G3 X0.6534 Y0.6571 I0.776 J0.322
G3 X0.9255 Y0.4752 I0.5941 J0.5941
G3 X0.9926 Y0.4506 I0.3197 J0.7707
G2 X0.9779 Y0.4796 I0.1671 J0.1032
G2 X0.9632 Y0.5545 I0.1835 J0.0749
G0 Z0.1
G0 X1.7882 Y1.0251
G1 Z-0.02 F5
G3 X1.8168 Y1.1133 I-0.5398 J0.2239 F50
G2 X1.7882 Y1.1095 I-0.0731 J0.4422
G1 X1.7882 Y1.0251
G1 X1.8343 Y1.0059 F50
G3 X1.8791 Y1.181 I-0.586 J0.2431 F50
G2 X1.7437 Y1.1573 I-0.1354 J0.3744
G1 X1.7382 Y1.1573
G1 X1.7382 Y0.8454
G3 X1.8343 Y1.0059 I-0.4951 J0.4058
G1 X1.8805 Y0.9867 F50
G3 X1.9327 Y1.249 I-0.6321 J0.2623 F50
G3 X1.9326 Y1.263 I-0.6844 J0
G2 X1.8754 Y1.2332 I-0.1882 J0.2908
G2 X1.7437 Y1.2073 I-0.1317 J0.3223
G1 X1.6882 Y1.2073
G1 X1.6882 Y0.7238
G3 X1.731 Y0.7632 I-0.4451 J0.5274
G3 X1.8805 Y0.9867 I-0.488 J0.488
G1 X1.9267 Y0.9676 F50
G3 X1.9827 Y1.249 I-0.6783 J0.2814 F50
G3 X1.9734 Y1.3657 I-0.7344 J0
G2 X1.954 Y1.3443 I-0.229 J0.1882
G2 X1.8565 Y1.2794 I-0.2096 J0.2096
G2 X1.7437 Y1.2573 I-0.1127 J0.276
G1 X1.6382 Y1.2573
G1 X1.6382 Y0.6253
G3 X1.7664 Y0.7278 I-0.3951 J0.6259
G3 X1.9267 Y0.9676 I-0.5234 J0.5234
G1 X1.9729 Y0.9484 F50
G3 X2.0327 Y1.249 I-0.7245 J0.3006 F50
G3 X1.9873 Y1.5121 I-0.7844 J0
G2 X1.9725 Y1.4607 I-0.2445 J0.0424
G2 X1.9186 Y1.3796 I-0.2281 J0.0932
G2 X1.8376 Y1.3257 I-0.1743 J0.1743
G2 X1.7437 Y1.3073 I-0.0938 J0.2297
G1 X1.5882 Y1.3073
G1 X1.5882 Y0.5545
G2 X1.5878 Y0.5402 I-0.2482 J0
G3 X1.8018 Y0.6925 I-0.3447 J0.711
G3 X1.9729 Y0.9484 I-0.5587 J0.5587
G1 X2.019 Y0.9292 F50
G3 X2.0827 Y1.249 I-0.7707 J0.3197 F50
G3 X2.019 Y1.5687 I-0.8344 J0
G3 X1.9409 Y1.7145 I-0.776 J-0.322
G1 X1.9409 Y1.5545
G2 X1.9262 Y1.4796 I-0.1982 J0
G2 X1.8833 Y1.415 I-0.1819 J0.0743
G2 X1.8187 Y1.372 I-0.1389 J0.1389
G2 X1.7437 Y1.3573 I-0.0749 J0.1835
G1 X1.5382 Y1.3573
G1 X1.5382 Y0.5545
G2 X1.5235 Y0.4796 I-0.1982 J0
G2 X1.5114 Y0.4551 I-0.1819 J0.0743
G3 X1.565 Y0.4752 I-0.2661 J0.7908
G3 X1.8371 Y0.6571 I-0.322 J0.776
G3 X2.019 Y0.9292 I-0.5941 J0.5941
G0 Z0.1
G0 X0.9132 Y0.5545
G1 Z-0.02 F5
G1 X0.9132 Y1.3073 F50
G1 X0.7576 Y1.3073
G2 X0.6638 Y1.3257 I0 J0.2482
G2 X0.5827 Y1.3796 I0.0932 J0.2281
G2 X0.5288 Y1.4607 I0.1743 J0.1743
G2 X0.5113 Y1.5337 I0.2297 J0.0938
G3 X0.4577 Y1.249 I0.7309 J-0.2848
G3 X0.5176 Y0.9484 I0.7844 J0
G3 X0.6887 Y0.6925 I0.7298 J0.3028
G3 X0.9139 Y0.5349 I0.5587 J0.5587
G2 X0.9132 Y0.5545 I0.2474 J0.0197
G0 Z0.1
G0 X0.618 Y0.6218
G1 Z-0.02 F5
G3 X0.9063 Y0.429 I0.6294 J0.6294 F50
G3 X1.2452 Y0.3615 I0.3389 J0.8169
G3 X1.5842 Y0.429 I0 J0.8844
G3 X1.8725 Y0.6218 I-0.3411 J0.8222
G3 X2.0652 Y0.9101 I-0.6294 J0.6294
G3 X2.1327 Y1.249 I-0.8169 J0.3389
G3 X2.0652 Y1.5879 I-0.8844 J0
G3 X1.8725 Y1.8762 I-0.8222 J-0.3411
G3 X1.5842 Y2.069 I-0.6294 J-0.6294
G3 X1.2452 Y2.1365 I-0.3389 J-0.8169
G3 X0.9063 Y2.069 I0 J-0.8844
G3 X0.618 Y1.8762 I0.3411 J-0.8222
G3 X0.4253 Y1.5879 I0.6294 J-0.6294
G3 X0.3577 Y1.249 I0.8169 J-0.3389
G3 X0.4253 Y0.9101 I0.8844 J0
G3 X0.618 Y0.6218 I0.8222 J0.3411
G1 X0.5827 Y0.5864 F50
G3 X0.8872 Y0.3828 I0.6648 J0.6648 F50
G3 X1.2452 Y0.3115 I0.3581 J0.8631
G3 X1.6033 Y0.3828 I0 J0.9344
G3 X1.9078 Y0.5864 I-0.3603 J0.8684
G3 X2.1114 Y0.8909 I-0.6648 J0.6648
G3 X2.1827 Y1.249 I-0.8631 J0.3581
G3 X2.1114 Y1.607 I-0.9344 J0
G3 X1.9078 Y1.9116 I-0.8684 J-0.3603
G3 X1.6033 Y2.1151 I-0.6648 J-0.6648
G3 X1.2452 Y2.1865 I-0.3581 J-0.8631
G3 X0.8872 Y2.1151 I0 J-0.9344
G3 X0.5827 Y1.9116 I0.3603 J-0.8684
G3 X0.3791 Y1.607 I0.6648 J-0.6648
G3 X0.3077 Y1.249 I0.8631 J-0.3581
G3 X0.3791 Y0.8909 I0.9344 J0
G3 X0.5827 Y0.5864 I0.8684 J0.3603
G0 Z0.1
G0 X0.7576 Y1.8323
G1 Z-0.0325 F5
G3 X0.7205 Y1.825 I0 J-0.0982 F50
G3 X0.6888 Y1.8039 I0.0365 J-0.0893
G3 X0.6677 Y1.7722 I0.0682 J-0.0682
G3 X0.6604 Y1.7351 I0.0909 J-0.0371
G1 X0.6604 Y1.5545
G3 X0.6677 Y1.5174 I0.0982 J0
G3 X0.6888 Y1.4857 I0.0893 J0.0365
G3 X0.7205 Y1.4646 I0.0682 J0.0682
G3 X0.7576 Y1.4573 I0.0371 J0.0909
G1 X1.0632 Y1.4573
G1 X1.0632 Y0.5545
G3 X1.0705 Y0.5174 I0.0982 J0
G3 X1.0915 Y0.4857 I0.0893 J0.0365
G3 X1.1233 Y0.4646 I0.0682 J0.0682
G3 X1.1604 Y0.4573 I0.0371 J0.0909
G1 X1.3409 Y0.4573
G3 X1.3781 Y0.4646 I0 J0.0982
G3 X1.4098 Y0.4857 I-0.0365 J0.0893
G3 X1.4309 Y0.5174 I-0.0682 J0.0682
G3 X1.4382 Y0.5545 I-0.0909 J0.0371
G1 X1.4382 Y1.4573
G1 X1.7437 Y1.4573
G3 X1.7808 Y1.4646 I0 J0.0982
G3 X1.8126 Y1.4857 I-0.0365 J0.0893
G3 X1.8337 Y1.5174 I-0.0682 J0.0682
G3 X1.8409 Y1.5545 I-0.0909 J0.0371
G1 X1.8409 Y1.7351
G3 X1.8337 Y1.7722 I-0.0982 J0
G3 X1.8126 Y1.8039 I-0.0893 J-0.0365
G3 X1.7808 Y1.825 I-0.0682 J-0.0682
G3 X1.7437 Y1.8323 I-0.0371 J-0.0909
G1 X0.7576 Y1.8323
G1 X0.7576 Y1.8823 F50
G3 X0.7016 Y1.8713 I0 J-0.1482 F50
G3 X0.6534 Y1.8393 I0.0554 J-0.1356
G3 X0.6214 Y1.7911 I0.1036 J-0.1036
G3 X0.6104 Y1.7351 I0.1372 J-0.056
G1 X0.6104 Y1.5545
G3 X0.6214 Y1.4985 I0.1482 J0
G3 X0.6534 Y1.4503 I0.1356 J0.0554
G3 X0.7016 Y1.4183 I0.1036 J0.1036
G3 X0.7576 Y1.4073 I0.056 J0.1372
G1 X1.0132 Y1.4073
G1 X1.0132 Y0.5545
G3 X1.0242 Y0.4985 I0.1482 J0
G3 X1.0562 Y0.4503 I0.1356 J0.0554
G3 X1.1044 Y0.4183 I0.1036 J0.1036
G3 X1.1604 Y0.4073 I0.056 J0.1372
G1 X1.3409 Y0.4073
G3 X1.397 Y0.4183 I0 J0.1482
G3 X1.4451 Y0.4503 I-0.0554 J0.1356
G3 X1.4772 Y0.4985 I-0.1036 J0.1036
G3 X1.4882 Y0.5545 I-0.1372 J0.056
G1 X1.4882 Y1.4073
G1 X1.7437 Y1.4073
G3 X1.7997 Y1.4183 I0 J0.1482
G3 X1.8479 Y1.4503 I-0.0554 J0.1356
G3 X1.8799 Y1.4985 I-0.1036 J0.1036
G3 X1.8909 Y1.5545 I-0.1372 J0.056
G1 X1.8909 Y1.7351
G3 X1.8799 Y1.7911 I-0.1482 J0
G3 X1.8479 Y1.8393 I-0.1356 J-0.0554
G3 X1.7997 Y1.8713 I-0.1036 J-0.1036
G3 X1.7437 Y1.8823 I-0.056 J-0.1372
G1 X0.7576 Y1.8823
G0 Z0.1
G0 X0.9588 Y1.9823
G1 Z-0.0325 F5
G1 X1.5317 Y1.9823 F50
G3 X1.2452 Y2.0365 I-0.2864 J-0.7302
G3 X0.9588 Y1.9823 I0 J-0.7844
G1 X0.9255 Y2.0228 F50
G3 X0.7618 Y1.9323 I0.322 J-0.776 F50
G1 X1.7287 Y1.9323
G3 X1.565 Y2.0228 I-0.4857 J-0.6855
G3 X1.2452 Y2.0865 I-0.3197 J-0.7707
G3 X0.9255 Y2.0228 I0 J-0.8344
G0 Z0.1
G0 X0.7132 Y1.0006
G1 Z-0.0325 F5
G1 X0.7132 Y1.1095 F50
G2 X0.6732 Y1.1153 I0.0444 J0.446
G3 X0.7024 Y1.025 I0.5689 J0.1337
G3 X0.7132 Y1.0006 I0.5451 J0.2262
G1 X0.6562 Y1.0059 F50
G3 X0.7632 Y0.8325 I0.5913 J0.2453 F50
G1 X0.7632 Y1.1573
G1 X0.7576 Y1.1573
G2 X0.6109 Y1.1853 I0 J0.3982
G3 X0.6562 Y1.0059 I0.6312 J0.0637
G1 X0.61 Y0.9867 F50
G3 X0.7594 Y0.7632 I0.6375 J0.2645 F50
G3 X0.8132 Y0.7148 I0.488 J0.488
G1 X0.8132 Y1.2073
G1 X0.7576 Y1.2073
G2 X0.626 Y1.2332 I0 J0.3482
G2 X0.5581 Y1.2702 I0.131 J0.3207
G3 X0.5577 Y1.249 I0.6841 J-0.0212
G3 X0.61 Y0.9867 I0.6844 J0
G1 X0.5638 Y0.9676 F50
G3 X0.7241 Y0.7278 I0.6836 J0.2836 F50
G3 X0.8632 Y0.6186 I0.5234 J0.5234
G1 X0.8632 Y1.2573
G1 X0.7576 Y1.2573
G2 X0.6449 Y1.2794 I0 J0.2982
G2 X0.5473 Y1.3443 I0.1121 J0.2744
G2 X0.519 Y1.3771 I0.2096 J0.2096
G3 X0.5077 Y1.249 I0.7231 J-0.1281
G3 X0.5638 Y0.9676 I0.7344 J0
G0 Z0.1
G0 X0.9632 Y0.5545
G1 Z-0.0325 F5
G1 X0.9632 Y1.3573 F50
G1 X0.7576 Y1.3573
G2 X0.6827 Y1.372 I0 J0.1982
G2 X0.6181 Y1.415 I0.0743 J0.1819
G2 X0.5751 Y1.4796 I0.1389 J0.1389
G2 X0.5604 Y1.5545 I0.1835 J0.0749
G1 X0.5604 Y1.7303
G3 X0.4714 Y1.5687 I0.6871 J-0.4835
G3 X0.4077 Y1.249 I0.7707 J-0.3197
G3 X0.4714 Y0.9292 I0.8344 J0
G3 X0.6534 Y0.6571 I0.776 J0.322
G3 X0.9255 Y0.4752 I0.5941 J0.5941
G3 X0.9926 Y0.4506 I0.3197 J0.7707
G2 X0.9779 Y0.4796 I0.1671 J0.1032
G2 X0.9632 Y0.5545 I0.1835 J0.0749
G0 Z0.1
G0 X1.7882 Y1.0251
G1 Z-0.0325 F5
G3 X1.8168 Y1.1133 I-0.5398 J0.2239 F50
G2 X1.7882 Y1.1095 I-0.0731 J0.4422
G1 X1.7882 Y1.0251
G1 X1.8343 Y1.0059 F50
G3 X1.8791 Y1.181 I-0.586 J0.2431 F50
G2 X1.7437 Y1.1573 I-0.1354 J0.3744
G1 X1.7382 Y1.1573
G1 X1.7382 Y0.8454
G3 X1.8343 Y1.0059 I-0.4951 J0.4058
G1 X1.8805 Y0.9867 F50
G3 X1.9327 Y1.249 I-0.6321 J0.2623 F50
G3 X1.9326 Y1.263 I-0.6844 J0
G2 X1.8754 Y1.2332 I-0.1882 J0.2908
G2 X1.7437 Y1.2073 I-0.1317 J0.3223
G1 X1.6882 Y1.2073
G1 X1.6882 Y0.7238
G3 X1.731 Y0.7632 I-0.4451 J0.5274
G3 X1.8805 Y0.9867 I-0.488 J0.488
G1 X1.9267 Y0.9676 F50
G3 X1.9827 Y1.249 I-0.6783 J0.2814 F50
G3 X1.9734 Y1.3657 I-0.7344 J0
G2 X1.954 Y1.3443 I-0.229 J0.1882
G2 X1.8565 Y1.2794 I-0.2096 J0.2096
G2 X1.7437 Y1.2573 I-0.1127 J0.276
G1 X1.6382 Y1.2573
G1 X1.6382 Y0.6253
G3 X1.7664 Y0.7278 I-0.3951 J0.6259
G3 X1.9267 Y0.9676 I-0.5234 J0.5234
G1 X1.9729 Y0.9484 F50
G3 X2.0327 Y1.249 I-0.7245 J0.3006 F50
G3 X1.9873 Y1.5121 I-0.7844 J0
G2 X1.9725 Y1.4607 I-0.2445 J0.0424
G2 X1.9186 Y1.3796 I-0.2281 J0.0932
G2 X1.8376 Y1.3257 I-0.1743 J0.1743
G2 X1.7437 Y1.3073 I-0.0938 J0.2297
G1 X1.5882 Y1.3073
G1 X1.5882 Y0.5545
G2 X1.5878 Y0.5402 I-0.2482 J0
G3 X1.8018 Y0.6925 I-0.3447 J0.711
G3 X1.9729 Y0.9484 I-0.5587 J0.5587
G1 X2.019 Y0.9292 F50
G3 X2.0827 Y1.249 I-0.7707 J0.3197 F50
G3 X2.019 Y1.5687 I-0.8344 J0
G3 X1.9409 Y1.7145 I-0.776 J-0.322
G1 X1.9409 Y1.5545
G2 X1.9262 Y1.4796 I-0.1982 J0
G2 X1.8833 Y1.415 I-0.1819 J0.0743
G2 X1.8187 Y1.372 I-0.1389 J0.1389
G2 X1.7437 Y1.3573 I-0.0749 J0.1835
G1 X1.5382 Y1.3573
G1 X1.5382 Y0.5545
G2 X1.5235 Y0.4796 I-0.1982 J0
G2 X1.5114 Y0.4551 I-0.1819 J0.0743
G3 X1.565 Y0.4752 I-0.2661 J0.7908
G3 X1.8371 Y0.6571 I-0.322 J0.776
G3 X2.019 Y0.9292 I-0.5941 J0.5941
G0 Z0.1
G0 X0.9132 Y0.5545
G1 Z-0.0325 F5
G1 X0.9132 Y1.3073 F50
G1 X0.7576 Y1.3073
G2 X0.6638 Y1.3257 I0 J0.2482
G2 X0.5827 Y1.3796 I0.0932 J0.2281
G2 X0.5288 Y1.4607 I0.1743 J0.1743
G2 X0.5113 Y1.5337 I0.2297 J0.0938
G3 X0.4577 Y1.249 I0.7309 J-0.2848
G3 X0.5176 Y0.9484 I0.7844 J0
G3 X0.6887 Y0.6925 I0.7298 J0.3028
G3 X0.9139 Y0.5349 I0.5587 J0.5587
G2 X0.9132 Y0.5545 I0.2474 J0.0197
G0 Z0.1
G0 X0.618 Y0.6218
G1 Z-0.0325 F5
G3 X0.9063 Y0.429 I0.6294 J0.6294 F50
G3 X1.2452 Y0.3615 I0.3389 J0.8169
G3 X1.5842 Y0.429 I0 J0.8844
G3 X1.8725 Y0.6218 I-0.3411 J0.8222
G3 X2.0652 Y0.9101 I-0.6294 J0.6294
G3 X2.1327 Y1.249 I-0.8169 J0.3389
G3 X2.0652 Y1.5879 I-0.8844 J0
G3 X1.8725 Y1.8762 I-0.8222 J-0.3411
G3 X1.5842 Y2.069 I-0.6294 J-0.6294
G3 X1.2452 Y2.1365 I-0.3389 J-0.8169
G3 X0.9063 Y2.069 I0 J-0.8844
G3 X0.618 Y1.8762 I0.3411 J-0.8222
G3 X0.4253 Y1.5879 I0.6294 J-0.6294
G3 X0.3577 Y1.249 I0.8169 J-0.3389
G3 X0.4253 Y0.9101 I0.8844 J0
G3 X0.618 Y0.6218 I0.8222 J0.3411
G1 X0.5827 Y0.5864 F50
G3 X0.8872 Y0.3828 I0.6648 J0.6648 F50
G3 X1.2452 Y0.3115 I0.3581 J0.8631
G3 X1.6033 Y0.3828 I0 J0.9344
G3 X1.9078 Y0.5864 I-0.3603 J0.8684
G3 X2.1114 Y0.8909 I-0.6648 J0.6648
G3 X2.1827 Y1.249 I-0.8631 J0.3581
G3 X2.1114 Y1.607 I-0.9344 J0
G3 X1.9078 Y1.9116 I-0.8684 J-0.3603
G3 X1.6033 Y2.1151 I-0.6648 J-0.6648
G3 X1.2452 Y2.1865 I-0.3581 J-0.8631
G3 X0.8872 Y2.1151 I0 J-0.9344
G3 X0.5827 Y1.9116 I0.3603 J-0.8684
G3 X0.3791 Y1.607 I0.6648 J-0.6648
G3 X0.3077 Y1.249 I0.8631 J-0.3581
G3 X0.3791 Y0.8909 I0.9344 J0
G3 X0.5827 Y0.5864 I0.8684 J0.3603

(logo_profile)
G0 Z0.1
G0 X2.4312 Y2.5615
G1 Z-0.02 F5
G2 X2.4818 Y2.5515 I0 J-0.1338 F40
G2 X2.5247 Y2.523 I-0.0493 J-0.1207
G2 X2.5532 Y2.4801 I-0.0922 J-0.0922
G2 X2.5632 Y2.4295 I-0.1239 J-0.0506
G1 X2.5632 Y1.249
G2 X2.4633 Y0.7468 I-1.3122 J0
G2 X2.1787 Y0.3209 I-1.2128 J0.5024
G2 X1.7529 Y0.0364 I-0.9282 J0.9282
G2 X1.2507 Y-0.0635 I-0.5022 J1.2123
G2 X0.7485 Y0.0364 I0 J1.3122
G2 X0.3226 Y0.3209 I0.5024 J1.2128
G2 X0.0381 Y0.7468 I0.9282 J0.9282
G2 X-0.0618 Y1.249 I1.2123 J0.5022
G2 X0.0381 Y1.7512 I1.3122 J0
G2 X0.3226 Y2.177 I1.2128 J-0.5024
G2 X0.7485 Y2.4616 I0.9282 J-0.9282
G2 X1.2507 Y2.5615 I0.5022 J-1.2123
G1 X2.4312 Y2.5615
G1 Z-0.04 F5
G2 X2.4818 Y2.5515 I0 J-0.1338 F40
G2 X2.5247 Y2.523 I-0.0493 J-0.1207
G2 X2.5532 Y2.4801 I-0.0922 J-0.0922
G2 X2.5632 Y2.4295 I-0.1239 J-0.0506
G1 X2.5632 Y1.249
G2 X2.4633 Y0.7468 I-1.3122 J0
G2 X2.1787 Y0.3209 I-1.2128 J0.5024
G2 X1.7529 Y0.0364 I-0.9282 J0.9282
G2 X1.2507 Y-0.0635 I-0.5022 J1.2123
G2 X0.7485 Y0.0364 I0 J1.3122
G2 X0.3226 Y0.3209 I0.5024 J1.2128
G2 X0.0381 Y0.7468 I0.9282 J0.9282
G2 X-0.0618 Y1.249 I1.2123 J0.5022
G2 X0.0381 Y1.7512 I1.3122 J0
G2 X0.3226 Y2.177 I1.2128 J-0.5024
G2 X0.7485 Y2.4616 I0.9282 J-0.9282
G2 X1.2507 Y2.5615 I0.5022 J-1.2123
G1 X2.4312 Y2.5615
G1 Z-0.06 F5
G2 X2.4818 Y2.5515 I0 J-0.1338 F40
G2 X2.5247 Y2.523 I-0.0493 J-0.1207
G2 X2.5532 Y2.4801 I-0.0922 J-0.0922
G2 X2.5632 Y2.4295 I-0.1239 J-0.0506
G1 X2.5632 Y1.249
G2 X2.4633 Y0.7468 I-1.3122 J0
G2 X2.1787 Y0.3209 I-1.2128 J0.5024
G2 X1.7529 Y0.0364 I-0.9282 J0.9282
G2 X1.2507 Y-0.0635 I-0.5022 J1.2123
G2 X0.7485 Y0.0364 I0 J1.3122
G2 X0.3226 Y0.3209 I0.5024 J1.2128
G2 X0.0381 Y0.7468 I0.9282 J0.9282
G2 X-0.0618 Y1.249 I1.2123 J0.5022
G2 X0.0381 Y1.7512 I1.3122 J0
G2 X0.3226 Y2.177 I1.2128 J-0.5024
G2 X0.7485 Y2.4616 I0.9282 J-0.9282
G2 X1.2507 Y2.5615 I0.5022 J-1.2123
G1 X2.4312 Y2.5615
G1 Z-0.08 F5
G2 X2.4818 Y2.5515 I0 J-0.1338 F40
G2 X2.5247 Y2.523 I-0.0493 J-0.1207
G2 X2.5532 Y2.4801 I-0.0922 J-0.0922
G2 X2.5632 Y2.4295 I-0.1239 J-0.0506
G1 X2.5632 Y1.249
G2 X2.4633 Y0.7468 I-1.3122 J0
G2 X2.1787 Y0.3209 I-1.2128 J0.5024
G2 X1.7529 Y0.0364 I-0.9282 J0.9282
G2 X1.2507 Y-0.0635 I-0.5022 J1.2123
G2 X0.7485 Y0.0364 I0 J1.3122
G2 X0.3226 Y0.3209 I0.5024 J1.2128
G2 X0.0381 Y0.7468 I0.9282 J0.9282
G2 X-0.0618 Y1.249 I1.2123 J0.5022
G2 X0.0381 Y1.7512 I1.3122 J0
G2 X0.3226 Y2.177 I1.2128 J-0.5024
G2 X0.7485 Y2.4616 I0.9282 J-0.9282
G2 X1.2507 Y2.5615 I0.5022 J-1.2123
G1 X2.4312 Y2.5615
G1 Z-0.1 F5
G2 X2.4818 Y2.5515 I0 J-0.1338 F40
G2 X2.5247 Y2.523 I-0.0493 J-0.1207
G2 X2.5532 Y2.4801 I-0.0922 J-0.0922
G2 X2.5632 Y2.4295 I-0.1239 J-0.0506
G1 X2.5632 Y1.249
G2 X2.4633 Y0.7468 I-1.3122 J0
G2 X2.1787 Y0.3209 I-1.2128 J0.5024
G2 X1.7529 Y0.0364 I-0.9282 J0.9282
G2 X1.2507 Y-0.0635 I-0.5022 J1.2123
G2 X0.7485 Y0.0364 I0 J1.3122
G2 X0.3226 Y0.3209 I0.5024 J1.2128
G2 X0.0381 Y0.7468 I0.9282 J0.9282
G2 X-0.0618 Y1.249 I1.2123 J0.5022
G2 X0.0381 Y1.7512 I1.3122 J0
G2 X0.3226 Y2.177 I1.2128 J-0.5024
G2 X0.7485 Y2.4616 I0.9282 J-0.9282
G2 X1.2507 Y2.5615 I0.5022 J-1.2123
G1 X2.4312 Y2.5615
G1 Z-0.12 F5
G2 X2.4818 Y2.5515 I0 J-0.1338 F40
G2 X2.5247 Y2.523 I-0.0493 J-0.1207
G2 X2.5532 Y2.4801 I-0.0922 J-0.0922
G2 X2.5632 Y2.4295 I-0.1239 J-0.0506
G1 X2.5632 Y1.249
G2 X2.4633 Y0.7468 I-1.3122 J0
G2 X2.1787 Y0.3209 I-1.2128 J0.5024
G2 X1.7529 Y0.0364 I-0.9282 J0.9282
G2 X1.2507 Y-0.0635 I-0.5022 J1.2123
G2 X0.7485 Y0.0364 I0 J1.3122
G2 X0.3226 Y0.3209 I0.5024 J1.2128
G2 X0.0381 Y0.7468 I0.9282 J0.9282
G2 X-0.0618 Y1.249 I1.2123 J0.5022
G2 X0.0381 Y1.7512 I1.3122 J0
G2 X0.3226 Y2.177 I1.2128 J-0.5024
G2 X0.7485 Y2.4616 I0.9282 J-0.9282
G2 X1.2507 Y2.5615 I0.5022 J-1.2123
G1 X2.4312 Y2.5615
G1 Z-0.125 F5
G2 X2.4818 Y2.5515 I0 J-0.1338 F40
G2 X2.5247 Y2.523 I-0.0493 J-0.1207
G2 X2.5532 Y2.4801 I-0.0922 J-0.0922
G2 X2.5632 Y2.4295 I-0.1239 J-0.0506
G1 X2.5632 Y1.249
G2 X2.4633 Y0.7468 I-1.3122 J0
G2 X2.1787 Y0.3209 I-1.2128 J0.5024
G2 X1.7529 Y0.0364 I-0.9282 J0.9282
G2 X1.2507 Y-0.0635 I-0.5022 J1.2123
G2 X0.7485 Y0.0364 I0 J1.3122
G2 X0.3226 Y0.3209 I0.5024 J1.2128
G2 X0.0381 Y0.7468 I0.9282 J0.9282
G2 X-0.0618 Y1.249 I1.2123 J0.5022
G2 X0.0381 Y1.7512 I1.3122 J0
G2 X0.3226 Y2.177 I1.2128 J-0.5024
G2 X0.7485 Y2.4616 I0.9282 J-0.9282
G2 X1.2507 Y2.5615 I0.5022 J-1.2123
G1 X2.4312 Y2.5615
G0 Z0.1
M5
M30
