(Generated by PartKam Version 0.05)

G20 G90 G40

(t_follow)
G0 Z0.1
T0 M6
G17
M3
G0 X0.7229 Y1.7351
G1 Z-0.02 F5
G1 X0.7229 Y1.5545 F40
G3 X0.7255 Y1.541 I0.0357 J0
G3 X0.733 Y1.5299 I0.0314 J0.0128
G3 X0.7441 Y1.5225 I0.024 J0.024
G3 X0.7576 Y1.5198 I0.0135 J0.033
G1 X1.0909 Y1.5198
G2 X1.1044 Y1.5172 I0 J-0.0357
G2 X1.1156 Y1.5097 I-0.0128 J-0.0314
G2 X1.123 Y1.4986 I-0.024 J-0.024
G2 X1.1257 Y1.4851 I-0.033 J-0.0135
G1 X1.1257 Y0.5545
G3 X1.1283 Y0.541 I0.0357 J0
G3 X1.1357 Y0.5299 I0.0314 J0.0128
G3 X1.1469 Y0.5225 I0.024 J0.024
G3 X1.1604 Y0.5198 I0.0135 J0.033
G1 X1.3409 Y0.5198
G3 X1.3544 Y0.5225 I0 J0.0357
G3 X1.3656 Y0.5299 I-0.0128 J0.0314
G3 X1.373 Y0.541 I-0.024 J0.024
G3 X1.3757 Y0.5545 I-0.033 J0.0135
G1 X1.3757 Y1.4851
G2 X1.3783 Y1.4986 I0.0357 J0
G2 X1.3857 Y1.5097 I0.0314 J-0.0128
G2 X1.3969 Y1.5172 I0.024 J-0.024
G2 X1.4104 Y1.5198 I0.0135 J-0.033
G1 X1.7437 Y1.5198
G3 X1.7572 Y1.5225 I0 J0.0357
G3 X1.7684 Y1.5299 I-0.0128 J0.0314
G3 X1.7758 Y1.541 I-0.024 J0.024
G3 X1.7784 Y1.5545 I-0.033 J0.0135
G1 X1.7784 Y1.7351
G3 X1.7758 Y1.7486 I-0.0357 J0
G3 X1.7684 Y1.7597 I-0.0314 J-0.0128
G3 X1.7572 Y1.7672 I-0.024 J-0.024
G3 X1.7437 Y1.7698 I-0.0135 J-0.033
G1 X0.7576 Y1.7698
G3 X0.7441 Y1.7672 I0 J-0.0357
G3 X0.733 Y1.7597 I0.0128 J-0.0314
G3 X0.7255 Y1.7486 I0.024 J-0.024
G3 X0.7229 Y1.7351 I0.033 J-0.0135
G0 Z0.1
G0 X0.7229 Y1.7351
G1 Z-0.03 F5
G1 X0.7229 Y1.5545 F40
G3 X0.7255 Y1.541 I0.0357 J0
G3 X0.733 Y1.5299 I0.0314 J0.0128
G3 X0.7441 Y1.5225 I0.024 J0.024
G3 X0.7576 Y1.5198 I0.0135 J0.033
G1 X1.0909 Y1.5198
G2 X1.1044 Y1.5172 I0 J-0.0357
G2 X1.1156 Y1.5097 I-0.0128 J-0.0314
G2 X1.123 Y1.4986 I-0.024 J-0.024
G2 X1.1257 Y1.4851 I-0.033 J-0.0135
G1 X1.1257 Y0.5545
G3 X1.1283 Y0.541 I0.0357 J0
G3 X1.1357 Y0.5299 I0.0314 J0.0128
G3 X1.1469 Y0.5225 I0.024 J0.024
G3 X1.1604 Y0.5198 I0.0135 J0.033
G1 X1.3409 Y0.5198
G3 X1.3544 Y0.5225 I0 J0.0357
G3 X1.3656 Y0.5299 I-0.0128 J0.0314
G3 X1.373 Y0.541 I-0.024 J0.024
G3 X1.3757 Y0.5545 I-0.033 J0.0135
G1 X1.3757 Y1.4851
G2 X1.3783 Y1.4986 I0.0357 J0
G2 X1.3857 Y1.5097 I0.0314 J-0.0128
G2 X1.3969 Y1.5172 I0.024 J-0.024
G2 X1.4104 Y1.5198 I0.0135 J-0.033
G1 X1.7437 Y1.5198
G3 X1.7572 Y1.5225 I0 J0.0357
G3 X1.7684 Y1.5299 I-0.0128 J0.0314
G3 X1.7758 Y1.541 I-0.024 J0.024
G3 X1.7784 Y1.5545 I-0.033 J0.0135
G1 X1.7784 Y1.7351
G3 X1.7758 Y1.7486 I-0.0357 J0
G3 X1.7684 Y1.7597 I-0.0314 J-0.0128
G3 X1.7572 Y1.7672 I-0.024 J-0.024
G3 X1.7437 Y1.7698 I-0.0135 J-0.033
G1 X0.7576 Y1.7698
G3 X0.7441 Y1.7672 I0 J-0.0357
G3 X0.733 Y1.7597 I0.0128 J-0.0314
G3 X0.7255 Y1.7486 I0.024 J-0.024
G3 X0.7229 Y1.7351 I0.033 J-0.0135

(circle_follow)
G0 Z0.1
G0 X1.2507 Y0.249
G1 Z-0.03 F5
G2 X0.8686 Y0.3251 I0 J0.9969 F40
G2 X0.5439 Y0.5422 I0.3842 J0.9261
G2 X0.3268 Y0.867 I0.709 J0.709
G2 X0.2507 Y1.249 I0.9208 J0.382
G2 X0.3268 Y1.631 I0.9969 J0
G2 X0.5439 Y1.9557 I0.9261 J-0.3842
G2 X0.8686 Y2.1729 I0.709 J-0.709
G2 X1.2507 Y2.249 I0.382 J-0.9208
G2 X1.6327 Y2.1729 I0 J-0.9969
G2 X1.9574 Y1.9557 I-0.3842 J-0.9261
G2 X2.1746 Y1.631 I-0.709 J-0.709
G2 X2.2507 Y1.249 I-0.9208 J-0.382
G2 X2.1746 Y0.867 I-0.9969 J0
G2 X1.9574 Y0.5422 I-0.9261 J0.3842
G2 X1.6327 Y0.3251 I-0.709 J0.709
G2 X1.2507 Y0.249 I-0.382 J0.9208

(logo_profile)
G0 Z0.1
G0 X2.4312 Y2.5615
G1 Z-0.02 F5
G2 X2.4818 Y2.5515 I0 J-0.1338 F40
G2 X2.5247 Y2.523 I-0.0493 J-0.1207
G2 X2.5532 Y2.4801 I-0.0922 J-0.0922
G2 X2.5632 Y2.4295 I-0.1239 J-0.0506
G1 X2.5632 Y1.249
G2 X2.4633 Y0.7468 I-1.3122 J0
G2 X2.1787 Y0.3209 I-1.2128 J0.5024
G2 X1.7529 Y0.0364 I-0.9282 J0.9282
G2 X1.2507 Y-0.0635 I-0.5022 J1.2123
G2 X0.7485 Y0.0364 I0 J1.3122
G2 X0.3226 Y0.3209 I0.5024 J1.2128
G2 X0.0381 Y0.7468 I0.9282 J0.9282
G2 X-0.0618 Y1.249 I1.2123 J0.5022
G2 X0.0381 Y1.7512 I1.3122 J0
G2 X0.3226 Y2.177 I1.2128 J-0.5024
G2 X0.7485 Y2.4616 I0.9282 J-0.9282
G2 X1.2507 Y2.5615 I0.5022 J-1.2123
G1 X2.4312 Y2.5615
G1 Z-0.04 F5
G2 X2.4818 Y2.5515 I0 J-0.1338 F40
G2 X2.5247 Y2.523 I-0.0493 J-0.1207
G2 X2.5532 Y2.4801 I-0.0922 J-0.0922
G2 X2.5632 Y2.4295 I-0.1239 J-0.0506
G1 X2.5632 Y1.249
G2 X2.4633 Y0.7468 I-1.3122 J0
G2 X2.1787 Y0.3209 I-1.2128 J0.5024
G2 X1.7529 Y0.0364 I-0.9282 J0.9282
G2 X1.2507 Y-0.0635 I-0.5022 J1.2123
G2 X0.7485 Y0.0364 I0 J1.3122
G2 X0.3226 Y0.3209 I0.5024 J1.2128
G2 X0.0381 Y0.7468 I0.9282 J0.9282
G2 X-0.0618 Y1.249 I1.2123 J0.5022
G2 X0.0381 Y1.7512 I1.3122 J0
G2 X0.3226 Y2.177 I1.2128 J-0.5024
G2 X0.7485 Y2.4616 I0.9282 J-0.9282
G2 X1.2507 Y2.5615 I0.5022 J-1.2123
G1 X2.4312 Y2.5615
G1 Z-0.06 F5
G2 X2.4818 Y2.5515 I0 J-0.1338 F40
G2 X2.5247 Y2.523 I-0.0493 J-0.1207
G2 X2.5532 Y2.4801 I-0.0922 J-0.0922
G2 X2.5632 Y2.4295 I-0.1239 J-0.0506
G1 X2.5632 Y1.249
G2 X2.4633 Y0.7468 I-1.3122 J0
G2 X2.1787 Y0.3209 I-1.2128 J0.5024
G2 X1.7529 Y0.0364 I-0.9282 J0.9282
G2 X1.2507 Y-0.0635 I-0.5022 J1.2123
G2 X0.7485 Y0.0364 I0 J1.3122
G2 X0.3226 Y0.3209 I0.5024 J1.2128
G2 X0.0381 Y0.7468 I0.9282 J0.9282
G2 X-0.0618 Y1.249 I1.2123 J0.5022
G2 X0.0381 Y1.7512 I1.3122 J0
G2 X0.3226 Y2.177 I1.2128 J-0.5024
G2 X0.7485 Y2.4616 I0.9282 J-0.9282
G2 X1.2507 Y2.5615 I0.5022 J-1.2123
G1 X2.4312 Y2.5615
G1 Z-0.08 F5
G2 X2.4818 Y2.5515 I0 J-0.1338 F40
G2 X2.5247 Y2.523 I-0.0493 J-0.1207
G2 X2.5532 Y2.4801 I-0.0922 J-0.0922
G2 X2.5632 Y2.4295 I-0.1239 J-0.0506
G1 X2.5632 Y1.249
G2 X2.4633 Y0.7468 I-1.3122 J0
G2 X2.1787 Y0.3209 I-1.2128 J0.5024
G2 X1.7529 Y0.0364 I-0.9282 J0.9282
G2 X1.2507 Y-0.0635 I-0.5022 J1.2123
G2 X0.7485 Y0.0364 I0 J1.3122
G2 X0.3226 Y0.3209 I0.5024 J1.2128
G2 X0.0381 Y0.7468 I0.9282 J0.9282
G2 X-0.0618 Y1.249 I1.2123 J0.5022
G2 X0.0381 Y1.7512 I1.3122 J0
G2 X0.3226 Y2.177 I1.2128 J-0.5024
G2 X0.7485 Y2.4616 I0.9282 J-0.9282
G2 X1.2507 Y2.5615 I0.5022 J-1.2123
G1 X2.4312 Y2.5615
G1 Z-0.1 F5
G2 X2.4818 Y2.5515 I0 J-0.1338 F40
G2 X2.5247 Y2.523 I-0.0493 J-0.1207
G2 X2.5532 Y2.4801 I-0.0922 J-0.0922
G2 X2.5632 Y2.4295 I-0.1239 J-0.0506
G1 X2.5632 Y1.249
G2 X2.4633 Y0.7468 I-1.3122 J0
G2 X2.1787 Y0.3209 I-1.2128 J0.5024
G2 X1.7529 Y0.0364 I-0.9282 J0.9282
G2 X1.2507 Y-0.0635 I-0.5022 J1.2123
G2 X0.7485 Y0.0364 I0 J1.3122
G2 X0.3226 Y0.3209 I0.5024 J1.2128
G2 X0.0381 Y0.7468 I0.9282 J0.9282
G2 X-0.0618 Y1.249 I1.2123 J0.5022
G2 X0.0381 Y1.7512 I1.3122 J0
G2 X0.3226 Y2.177 I1.2128 J-0.5024
G2 X0.7485 Y2.4616 I0.9282 J-0.9282
G2 X1.2507 Y2.5615 I0.5022 J-1.2123
G1 X2.4312 Y2.5615
G1 Z-0.12 F5
G2 X2.4818 Y2.5515 I0 J-0.1338 F40
G2 X2.5247 Y2.523 I-0.0493 J-0.1207
G2 X2.5532 Y2.4801 I-0.0922 J-0.0922
G2 X2.5632 Y2.4295 I-0.1239 J-0.0506
G1 X2.5632 Y1.249
G2 X2.4633 Y0.7468 I-1.3122 J0
G2 X2.1787 Y0.3209 I-1.2128 J0.5024
G2 X1.7529 Y0.0364 I-0.9282 J0.9282
G2 X1.2507 Y-0.0635 I-0.5022 J1.2123
G2 X0.7485 Y0.0364 I0 J1.3122
G2 X0.3226 Y0.3209 I0.5024 J1.2128
G2 X0.0381 Y0.7468 I0.9282 J0.9282
G2 X-0.0618 Y1.249 I1.2123 J0.5022
G2 X0.0381 Y1.7512 I1.3122 J0
G2 X0.3226 Y2.177 I1.2128 J-0.5024
G2 X0.7485 Y2.4616 I0.9282 J-0.9282
G2 X1.2507 Y2.5615 I0.5022 J-1.2123
G1 X2.4312 Y2.5615
G1 Z-0.125 F5
G2 X2.4818 Y2.5515 I0 J-0.1338 F40
G2 X2.5247 Y2.523 I-0.0493 J-0.1207
G2 X2.5532 Y2.4801 I-0.0922 J-0.0922
G2 X2.5632 Y2.4295 I-0.1239 J-0.0506
G1 X2.5632 Y1.249
G2 X2.4633 Y0.7468 I-1.3122 J0
G2 X2.1787 Y0.3209 I-1.2128 J0.5024
G2 X1.7529 Y0.0364 I-0.9282 J0.9282
G2 X1.2507 Y-0.0635 I-0.5022 J1.2123
G2 X0.7485 Y0.0364 I0 J1.3122
G2 X0.3226 Y0.3209 I0.5024 J1.2128
G2 X0.0381 Y0.7468 I0.9282 J0.9282
G2 X-0.0618 Y1.249 I1.2123 J0.5022
G2 X0.0381 Y1.7512 I1.3122 J0
G2 X0.3226 Y2.177 I1.2128 J-0.5024
G2 X0.7485 Y2.4616 I0.9282 J-0.9282
G2 X1.2507 Y2.5615 I0.5022 J-1.2123
G1 X2.4312 Y2.5615
G0 Z0.1
M5
M30
